/* XPM */
static char * exit3_xpm[] = {
"64 64 655 2",
"  	c #9CDB43",
". 	c #5A361F",
"+ 	c #5F3E29",
"@ 	c #60402B",
"# 	c #61422D",
"$ 	c #62432F",
"% 	c #634632",
"& 	c #624632",
"* 	c #624530",
"= 	c #61432F",
"- 	c #60432F",
"; 	c #5F412D",
"> 	c #5E402B",
", 	c #5B3B26",
"' 	c #888479",
") 	c #949389",
"! 	c #939187",
"~ 	c #908E84",
"{ 	c #8F8D82",
"] 	c #8F8D83",
"^ 	c #8E8C83",
"/ 	c #8E8C80",
"( 	c #8D8C82",
"_ 	c #8D8B82",
": 	c #8C8B82",
"< 	c #8C8B81",
"[ 	c #6E665B",
"} 	c #583722",
"| 	c #644936",
"1 	c #7E776D",
"2 	c #908E85",
"3 	c #8F8E83",
"4 	c #8E8D83",
"5 	c #8E8C81",
"6 	c #695E51",
"7 	c #685E52",
"8 	c #644734",
"9 	c #7D766C",
"0 	c #949288",
"a 	c #939186",
"b 	c #64594C",
"c 	c #65594C",
"d 	c #655A4C",
"e 	c #66594B",
"f 	c #66594C",
"g 	c #66584B",
"h 	c #65584B",
"i 	c #645749",
"j 	c #645649",
"k 	c #695D4F",
"l 	c #695C4F",
"m 	c #583723",
"n 	c #634733",
"o 	c #7C766C",
"p 	c #5E3F2B",
"q 	c #5D3E29",
"r 	c #604533",
"s 	c #604534",
"t 	c #604535",
"u 	c #5F4332",
"v 	c #5F4331",
"w 	c #5F4230",
"x 	c #5E422F",
"y 	c #5C3C2A",
"z 	c #5C3F2C",
"A 	c #5A3C2A",
"B 	c #624430",
"C 	c #939188",
"D 	c #68594F",
"E 	c #695A4E",
"F 	c #6A5C51",
"G 	c #6A5E54",
"H 	c #6B5E54",
"I 	c #6B5F55",
"J 	c #6C6056",
"K 	c #6C5F55",
"L 	c #5A3D2C",
"M 	c #868479",
"N 	c #685C50",
"O 	c #624531",
"P 	c #7D776D",
"Q 	c #929087",
"R 	c #5D3F29",
"S 	c #68594E",
"T 	c #73665C",
"U 	c #73675D",
"V 	c #74675D",
"W 	c #62412B",
"X 	c #61412A",
"Y 	c #736D63",
"Z 	c #746D63",
"` 	c #736C61",
" .	c #736C62",
"..	c #726C62",
"+.	c #5C3E2D",
"@.	c #87847A",
"#.	c #685C4F",
"$.	c #634631",
"%.	c #7F776D",
"&.	c #5E3E2A",
"*.	c #73675C",
"=.	c #68503D",
"-.	c #8D8B7F",
";.	c #8E8B7F",
">.	c #62412A",
",.	c #756D65",
"'.	c #5C3F2D",
").	c #685C4E",
"!.	c #675B4E",
"~.	c #5E3E28",
"{.	c #6A5B50",
"].	c #70675D",
"^.	c #685040",
"/.	c #6A513F",
"(.	c #6A513E",
"_.	c #8D8A7D",
":.	c #8C8A7D",
"<.	c #63422C",
"[.	c #62422B",
"}.	c #61402A",
"|.	c #79756D",
"1.	c #86847A",
"2.	c #685B4D",
"3.	c #675A4C",
"4.	c #807A6F",
"5.	c #5D3C26",
"6.	c #6A5D50",
"7.	c #5A3823",
"8.	c #8C897D",
"9.	c #8B887C",
"0.	c #8C887C",
"a.	c #8C887B",
"b.	c #8B887B",
"c.	c #89887B",
"d.	c #8B897B",
"e.	c #8A887B",
"f.	c #5C3B25",
"g.	c #675A4D",
"h.	c #665A4C",
"i.	c #583721",
"j.	c #827D72",
"k.	c #827C72",
"l.	c #929186",
"m.	c #5D3C27",
"n.	c #6B5D51",
"o.	c #928F84",
"p.	c #929084",
"q.	c #939086",
"r.	c #8C897C",
"s.	c #8A867B",
"t.	c #928E84",
"u.	c #908D84",
"v.	c #8F8B81",
"w.	c #5D3D27",
"x.	c #675B4D",
"y.	c #512C17",
"z.	c #5B3B24",
"A.	c #5D3E28",
"B.	c #939288",
"C.	c #5C3D27",
"D.	c #6D5F53",
"E.	c #532C15",
"F.	c #686056",
"G.	c #696157",
"H.	c #6A6157",
"I.	c #89857A",
"J.	c #696057",
"K.	c #685F56",
"L.	c #5C3C26",
"M.	c #5C3E2C",
"N.	c #512B16",
"O.	c #502B16",
"P.	c #4F2913",
"Q.	c #817D73",
"R.	c #949289",
"S.	c #827F74",
"T.	c #5C3D28",
"U.	c #6F6356",
"V.	c #5A351E",
"W.	c #5A351D",
"X.	c #5A371E",
"Y.	c #858276",
"Z.	c #868276",
"`.	c #573017",
" +	c #56321B",
".+	c #5B3E2C",
"++	c #65584A",
"@+	c #64584A",
"#+	c #675C4E",
"$+	c #605548",
"%+	c #4E2812",
"&+	c #706153",
"*+	c #797369",
"=+	c #73695E",
"-+	c #736A5F",
";+	c #5A3923",
">+	c #848074",
",+	c #562F16",
"'+	c #72695E",
")+	c #73685D",
"!+	c #78736B",
"~+	c #63584A",
"{+	c #63574A",
"]+	c #512C16",
"^+	c #63584B",
"/+	c #5D3E2A",
"(+	c #807D73",
"_+	c #827E73",
":+	c #94938A",
"<+	c #7B746C",
"[+	c #58331D",
"}+	c #817D72",
"|+	c #807D72",
"1+	c #552E16",
"2+	c #7A756F",
"3+	c #78736C",
"4+	c #5B3E2B",
"5+	c #858379",
"6+	c #635749",
"7+	c #605547",
"8+	c #5D3F2A",
"9+	c #807B72",
"0+	c #827E74",
"a+	c #8E8D81",
"b+	c #5A3A24",
"c+	c #6F6153",
"d+	c #57321A",
"e+	c #7E796E",
"f+	c #542D15",
"g+	c #807C74",
"h+	c #79746D",
"i+	c #625749",
"j+	c #625649",
"k+	c #522D18",
"l+	c #61564A",
"m+	c #4D2812",
"n+	c #5E402C",
"o+	c #817C73",
"p+	c #624631",
"q+	c #8D8C80",
"r+	c #593822",
"s+	c #716153",
"t+	c #7F7B73",
"u+	c #7E7A72",
"v+	c #563018",
"w+	c #7D7A6F",
"x+	c #7D796F",
"y+	c #7F7C74",
"z+	c #78746D",
"A+	c #868478",
"B+	c #858478",
"C+	c #60432E",
"D+	c #817C72",
"E+	c #918F86",
"F+	c #593722",
"G+	c #706051",
"H+	c #8B887F",
"I+	c #8B867E",
"J+	c #532D15",
"K+	c #7F7B74",
"L+	c #7E7B74",
"M+	c #5D3F2D",
"N+	c #868578",
"O+	c #63594B",
"P+	c #807B71",
"Q+	c #919086",
"R+	c #614430",
"S+	c #8C8B7F",
"T+	c #716051",
"U+	c #56321A",
"V+	c #63584D",
"W+	c #7E7B73",
"X+	c #5D402D",
"Y+	c #625648",
"Z+	c #625548",
"`+	c #522E18",
" @	c #645A4C",
".@	c #60422E",
"+@	c #807C72",
"@@	c #837E75",
"#@	c #837F75",
"$@	c #8C8A7F",
"%@	c #7F7A73",
"&@	c #71685D",
"*@	c #5E412E",
"=@	c #858477",
"-@	c #615648",
";@	c #532E18",
">@	c #665B4E",
",@	c #604430",
"'@	c #837E74",
")@	c #8B8A7F",
"!@	c #7F7A72",
"~@	c #72685D",
"{@	c #512B15",
"]@	c #665C4E",
"^@	c #4E2813",
"/@	c #61442F",
"(@	c #8B8A7E",
"_@	c #615548",
":@	c #614632",
"<@	c #918F85",
"[@	c #583621",
"}@	c #705F51",
"|@	c #5E402E",
"1@	c #675D50",
"2@	c #624634",
"3@	c #908F85",
"4@	c #60442F",
"5@	c #7F7B71",
"6@	c #6F5F51",
"7@	c #7D7972",
"8@	c #7E7A73",
"9@	c #685D51",
"0@	c #4E2913",
"a@	c #614634",
"b@	c #7F7B72",
"c@	c #8F8E85",
"d@	c #7F7A71",
"e@	c #7E7A6F",
"f@	c #8B897E",
"g@	c #573520",
"h@	c #7E7972",
"i@	c #7D7872",
"j@	c #7C7771",
"k@	c #7D7A73",
"l@	c #605549",
"m@	c #522D17",
"n@	c #695E52",
"o@	c #615649",
"p@	c #614633",
"q@	c #8F8E84",
"r@	c #604531",
"s@	c #7F7970",
"t@	c #7E796F",
"u@	c #88867B",
"v@	c #8A897E",
"w@	c #7C7872",
"x@	c #7C7871",
"y@	c #5C3D2A",
"z@	c #614532",
"A@	c #5F4431",
"B@	c #7C786F",
"C@	c #87867B",
"D@	c #57341E",
"E@	c #6E5E51",
"F@	c #7C7971",
"G@	c #62574A",
"H@	c #8F8D84",
"I@	c #5F4430",
"J@	c #7D786E",
"K@	c #7C786E",
"L@	c #87867A",
"M@	c #55321D",
"N@	c #6E5E50",
"O@	c #777068",
"P@	c #787068",
"Q@	c #7B7771",
"R@	c #858377",
"S@	c #604432",
"T@	c #7E7A71",
"U@	c #8E8D84",
"V@	c #7C786D",
"W@	c #89877B",
"X@	c #54301A",
"Y@	c #786F68",
"Z@	c #787269",
"`@	c #787169",
" #	c #7C776F",
".#	c #848378",
"+#	c #62574B",
"@#	c #7D776E",
"##	c #7C776D",
"$#	c #89887C",
"%#	c #512B14",
"&#	c #6C5D50",
"*#	c #746E66",
"=#	c #777169",
"-#	c #797670",
";#	c #7A7770",
">#	c #7A7671",
",#	c #79756F",
"'#	c #858479",
")#	c #604431",
"!#	c #7C776E",
"~#	c #7A766D",
"{#	c #89887D",
"]#	c #512A14",
"^#	c #746D64",
"/#	c #5D493A",
"(#	c #5E4C3D",
"_#	c #625347",
":#	c #66594E",
"<#	c #675A4F",
"[#	c #66594D",
"}#	c #65584C",
"|#	c #584436",
"1#	c #78746E",
"2#	c #78736E",
"3#	c #5C3D29",
"4#	c #868579",
"5#	c #502A14",
"6#	c #695B51",
"7#	c #716961",
"8#	c #838179",
"9#	c #86847B",
"0#	c #88867C",
"a#	c #88867E",
"b#	c #85837A",
"c#	c #827F77",
"d#	c #77726D",
"e#	c #5C3C29",
"f#	c #512D17",
"g#	c #7E7A70",
"h#	c #6F685D",
"i#	c #716A61",
"j#	c #736E65",
"k#	c #746F67",
"l#	c #767069",
"m#	c #76716B",
"n#	c #76726A",
"o#	c #76726C",
"p#	c #76716C",
"q#	c #75716C",
"r#	c #5E402D",
"s#	c #502C16",
"t#	c #695F53",
"u#	c #7B776E",
"v#	c #502A13",
"w#	c #66594F",
"x#	c #696259",
"y#	c #5D4D3F",
"z#	c #5D4C3F",
"A#	c #615246",
"B#	c #605246",
"C#	c #615245",
"D#	c #594739",
"E#	c #574131",
"F#	c #756F6B",
"G#	c #74706B",
"H#	c #89887E",
"I#	c #6A6054",
"J#	c #604331",
"K#	c #7D7970",
"L#	c #7B776D",
"M#	c #7B776C",
"N#	c #8C8A7E",
"O#	c #8C8B7E",
"P#	c #696258",
"Q#	c #78746B",
"R#	c #7D7870",
"S#	c #817D76",
"T#	c #7F7A74",
"U#	c #726E69",
"V#	c #736E69",
"W#	c #665C4F",
"X#	c #675D4F",
"Y#	c #6B6155",
"Z#	c #5E4331",
"`#	c #8D8C83",
" $	c #5E422D",
".$	c #7A766C",
"+$	c #8C8A80",
"@$	c #8C8A81",
"#$	c #65574D",
"$$	c #696158",
"%$	c #6A6259",
"&$	c #6A635A",
"*$	c #6B645B",
"=$	c #6F6962",
"-$	c #716B64",
";$	c #716B66",
">$	c #716D67",
",$	c #726D69",
"'$	c #8B8A80",
")$	c #6D645A",
"!$	c #5D412E",
"~$	c #7A756C",
"{$	c #8B8A81",
"]$	c #502913",
"^$	c #5B3A26",
"/$	c #5A3A26",
"($	c #5F422F",
"_$	c #5F412F",
":$	c #624432",
"<$	c #614432",
"[$	c #5C3F2B",
"}$	c #79756C",
"|$	c #502A15",
"1$	c #5B3C28",
"2$	c #7A756D",
"3$	c #79756B",
"4$	c #9C9B94",
"5$	c #9B9A93",
"6$	c #9A9991",
"7$	c #999890",
"8$	c #97968E",
"9$	c #98978F",
"0$	c #99988F",
"a$	c #9A9990",
"b$	c #9B9A92",
"c$	c #9B9A91",
"d$	c #696154",
"e$	c #675D4E",
"f$	c #6D6459",
"g$	c #5E4230",
"h$	c #573723",
"i$	c #78736A",
"j$	c #93928A",
"k$	c #939289",
"l$	c #929189",
"m$	c #8F8E86",
"n$	c #655B4E",
"o$	c #6C6359",
"p$	c #55331F",
"q$	c #919088",
"r$	c #96958D",
"s$	c #94938B",
"t$	c #54321D",
"u$	c #767068",
"v$	c #686159",
"w$	c #686158",
"x$	c #665F57",
"y$	c #716C64",
"z$	c #5D412F",
"A$	c #54311D",
"B$	c #676058",
"C$	c #676057",
"D$	c #665F56",
"E$	c #706A61",
"F$	c #6C6358",
"G$	c #54321E",
"H$	c #512D18",
"I$	c #6A6156",
"J$	c #5F5547",
"K$	c #5D402E",
"L$	c #56331E",
"M$	c #5D5043",
"N$	c #5E4F43",
"O$	c #5E4F44",
"P$	c #5F5044",
"Q$	c #5F4F43",
"R$	c #5E4F41",
"S$	c #5D4E41",
"T$	c #5C4C3F",
"U$	c #5C4B3E",
"V$	c #5D4C3E",
"W$	c #5C4B3D",
"X$	c #5B4B3D",
"Y$	c #5B4A3D",
"Z$	c #5C4D40",
"`$	c #5C4C41",
" %	c #5F5447",
".%	c #5C402D",
"+%	c #5D5044",
"@%	c #5E5044",
"#%	c #5E5042",
"$%	c #5E4E42",
"%%	c #5D4D41",
"&%	c #5D4D3E",
"*%	c #5C4C3E",
"=%	c #5B4C3D",
"-%	c #5B4A3E",
";%	c #6A6155",
">%	c #6E6860",
",%	c #6D675E",
"'%	c #6C665D",
")%	c #666057",
"!%	c #666058",
"~%	c #655E56",
"{%	c #655E55",
"]%	c #645E55",
"^%	c #645D55",
"/%	c #635C54",
"(%	c #635C53",
"_%	c #625B52",
":%	c #6C665C",
"<%	c #5B3D2A",
"[%	c #6E685F",
"}%	c #6D675D",
"|%	c #655F57",
"1%	c #655F56",
"2%	c #645F56",
"3%	c #635D55",
"4%	c #625C54",
"5%	c #625C53",
"6%	c #615B52",
"7%	c #6B655C",
"8%	c #6A6257",
"9%	c #726B5F",
"0%	c #5F5446",
"a%	c #593925",
"b%	c #6D675F",
"c%	c #605A51",
"d%	c #605951",
"e%	c #615A52",
"f%	c #6A635B",
"g%	c #4D2712",
"h%	c #5E5446",
"i%	c #767168",
"j%	c #95948C",
"k%	c #676159",
"l%	c #635E55",
"m%	c #615A51",
"n%	c #53493F",
"o%	c #54493F",
"p%	c #53493E",
"q%	c #522F1B",
"r%	c #56351F",
"s%	c #676158",
"t%	c #564C41",
"u%	c #574E43",
"v%	c #5F5850",
"w%	c #69625A",
"x%	c #54331E",
"y%	c #5E5346",
"z%	c #573621",
"A%	c #5A3A25",
"B%	c #593A25",
"C%	c #593924",
"D%	c #593B26",
"E%	c #5A3B27",
"F%	c #5B3C27",
"G%	c #583823",
"H%	c #593824",
"I%	c #563521",
"J%	c #716A5D",
"K%	c #8A897F",
"L%	c #4C2712",
"M%	c #573622",
"N%	c #989790",
"O%	c #8B887D",
"P%	c #898578",
"Q%	c #878377",
"R%	c #878275",
"S%	c #878174",
"T%	c #868072",
"U%	c #868071",
"V%	c #857F72",
"W%	c #847E70",
"X%	c #847E6F",
"Y%	c #847C6E",
"Z%	c #847C6D",
"`%	c #837B6D",
" &	c #837B6E",
".&	c #837D6E",
"+&	c #847D6F",
"@&	c #847E6E",
"#&	c #847F70",
"$&	c #847F71",
"%&	c #858175",
"&&	c #858275",
"*&	c #645E56",
"=&	c #666158",
"-&	c #656057",
"                                                                                                                                ",
"                                                                                                                                ",
"                                                                                                                                ",
"                                          . + + @ # $ $ $ % % & & & & * = - - - ; > ,                                           ",
"                                        & ' ' ) ! ! ! ~ { { ] ] ] ^ / ( ( ( _ : < [ [ }                                         ",
"                                        | 1 1 ) ! ! ! 2 ] ] 3 3 4 5 5 ( ( ( _ : < 6 7 }                                         ",
"                                        8 9 1 0 a b b c d e e f f f g h i j h < < k l m                                         ",
"                                        n o 1 ! a p q r s s s t u v w x y z A < < k l }                                         ",
"                                        B 9 1 0 C > D E F G H I J J J J K I L _ M k N }                                         ",
"                                        O P 1 Q 3 R S T T U V W X Y Z `  ...+.@.M k #.}                                         ",
"                                        $.1 %.3 3 &.S T *.V =.-.;.>.,.Z  ...'.@.M ).!.}                                         ",
"                                        $.1 %.3 3 ~.{.].^./.(._.:.<.[.}.|.|.z 1.M 2.3.}                                         ",
"                                        $.4.%.3 3 5.6.7.8.9.0.a.b.c.d.e.f.|.z 1.M g.h.i.                                        ",
"                                        $.j.k.l.3 m.n.f.o.p.q.r.s.t.u.v.w.|.z 1.M x.h.y.                                        ",
"                                    z.A.$.j.k.B.B.C.D.E.F.G.H.I.' H.J.K.L.|.M.M M e e N.O.P.                                    ",
"                                  ; Q.R.O S.S.) ) T.U.U.V.W.X.Y.Z.`. + +|.|..+M M ++@+N.#+$+%+                                  ",
"                                , Q.Q.R.O S.S.) ) C.&+*+=+-+;+>+>+,+'+)+|.!+.+M M ~+{+]+^+$+$+%+                                ",
"                                /+(+Q.R.O S._+B.:+, &+*+<+<+[+}+|+1+2+|.|.3+4+M 5+6+6+]+^+$+7+%+                                ",
"                                8+9+Q.R.O S.0+C a+b+c+*+<+<+d+e+e+f+g+|.|.h+.+M 5+i+j+k+^+l+7+m+                                ",
"                                n+o+Q.0 p+S.0+C q+r+s+t+u+u+v+w+x+f+y+y+|.z+z A+B+i+j+k+^+$+$+m+                                ",
"                                C+D+9+! O S.S.E+q+F+G+t+u+u+v+H+I+J+y+y+K+L+M+N+B+i+i+k+O+$+7+%+                                ",
"                                C+D+P+Q+R+S.S.S+S+F+T+t+t+t+U+V+V+E.y+y+K+W+X+B+B+Y+Z+`+ @$+$+%+                                ",
"                                .@+@D+Q+C+@@#@$@$@F+G+t+t+%@'+J+E.&@y+y+L+W+*@B+=@-@$+;@>@$+$+%+                                ",
"                                ,@+@+@Q+- '@@@)@)@} G+!@!@!@!@~@&@y+y+K+L+W+*@B+=@-@$+{@]@$+$+^@                                ",
"                                ,@+@+@E+/@0+0+(@(@i.G+!@!@u+u+y+y+y+K+W+W+W+*@B+=@-@$+{@]@_@$+%+                                ",
"                                :@9++@<@= 0+|+(@(@[@}@u+u+u+u+y+y+K+W+W+W+W+|@B+=@-@$+]+1@-@$+^@                                ",
"                                2@9+9+3@4@5@+@(@(@[@6@u+u+7@7@K+K+L+W+W+W+8@|@B+=@-@_@]+9@-@$+0@                                ",
"                                a@b@b@c@- d@e@f@f@g@6@h@i@i@i@j@L+W+W+W+8@k@X+B+=@j+l@m@n@o@-@0@                                ",
"                                p@5@5@q@r@s@t@u@v@g@6@i@i@i@w@x@x@x@W+W+k@k@y@B+=@i+o@m@7 o@o@0@                                ",
"                                z@5@5@q@A@x+B@C@C@D@E@w@x@x@x@x@x@F@8@k@k@k@y@=@=@~+G@m@7 o@o@P.                                ",
"                                z@d@5@H@I@J@K@L@L@M@N@O@P@x@x@x@x@x@Q@k@k@k@y@=@R@G@G@k+7 o@o@P.                                ",
"                                S@T@T@U@,@V@K@W@u@X@E@Y@Z@P@`@ #Q@Q@k@k@k@k@y@B+.#+#G@k+7 o@o@P.                                ",
"                                S@T@T@U@,@@###$#W@%#&#*#=#=#=#-#;#>#k@k@k@,#y@'#'#G@G@`+7 o@o@P.                                ",
"                                S@T@T@U@)#!#~#{#{#]#n.^#/#(#_#:#<#[#}#|#1#2#3#4#4#G@G@k+7 o@o@P.                                ",
"                                S@T@T@U@A@!#~#v@v@5#6#7#8#9#0#a#b#8#c#g+2#d#e#C@C@G@G@f#7 o@o@P.                                ",
"                                S@g#T@U@A@!#B@)@)@5#<#h#i#j#k#l#m#n#m#o#p#q#r#$#$#G@G@s#t#o@o@P.                                ",
"                                )#g#g#4 A@u#u#)@(@v#w#x#y#z#A#A#B#C#D#E#F#G#|@H#H#G@1@]+I#o@o@P.                                ",
"                                J#K#g#^ I@L#M#N#O#v#[#P#Q#~# #R#S#T#K+7@U#V#w v@v@W#X#]+Y#o@o@P.                                ",
"                                Z#K#K#`# $L#.$+$@$v##$$$P#%$&$*$=$=$-$;$>$,$w '$'$W#X#]+)$o@o@P.                                ",
"                                Z#K#K#`#!$~#~$'${$]$^$/$y@($($x _$_$:$<$S@S@J#'$'$W#W#]+)$o@o@P.                                ",
"                                Z#K#K#`#[$~#}$'${${${${${${${${${${${${${${$'$'$'$W#W#|$)$o@o@P.                                ",
"                                Z#K#K#`#1$2$3$4$4$5$6$7$8$9$9$9$9$9$9$0$a$b$b$c$c$d$e$P.f$o@o@P.                                ",
"                                g$K#}$`#h$i$j$j$j$j$j$j$j$j$j$j$j$k$k$l$l$l$l$l$m$6$n$0@o$$+$+P.                                ",
"                                x K#}$`#p$q$j$j$j$r$s$s$s$s$j$k$k$l$l$l$l$l$l$l$l$m$6$0@o$$+$+0@                                ",
"                                x K#}$`#t$u$v$v$v$v$v$v$v$v$v$w$x$x$x$x$x$x$x$x$x$x$y$^@o$$+$+0@                                ",
"                                z$K#}$`#A$k#v$v$v$v$v$B$B$C$x$x$x$x$x$x$x$D$D$D$D$w$E$%+F$$+$+^@                                ",
"                                !$}$}$U@G$H$P.P.P.P.P.P.P.P.0@0@0@^@^@%+%+%+%+m+m+m+%+I$I$J$7+%+                                ",
"                                K$}$}$q$v@L$M$N$O$P$Q$R$S$T$U$V$W$X$Y$X$U$U$T$Z$`$Z$m+I$I$ %J$%+                                ",
"                                .%}$}$l$(@g@+%O$@%O$#%$%S$%%&%V$*%=%X$-%U$T$T$Z$`$Z$m+;%;% % %m+                                ",
"                                z }$}$k$'$g@>%,%'%)%x$!%x$~%{%]%^%/%/%(%(%_%_%_%(%:%m+;%;% % %m+                                ",
"                                <%}$}$j$'$g@[%,%}%!%!%x$|%1%2%3%3%/%4%5%_%_%6%6%6%7%m+8%9%0%0%m+                                ",
"                                a%}$}$:+'$g@[%b%!%!%x$|%|%{%3%3%/%5%_%_%c%c%c%d%e%f%g%9%9%h%0%m+                                ",
"                                m i%i%j%'$g@[%k%!%x$|%|%{%l%/%4%5%m%m%c%n%o%p%d%d%f%q%9%9%h%h%m+                                ",
"                                h$i%i%8$'$r%[%s%|%|%|%~%]%/%4%4%_%m%t%o%u%u%u%d%v%w%x%9%9%y%y%g%                                ",
"                                h$i%i%8$(@z%} A%B%C%C%C%A%D%D%E%F%G%G%H%m I%G$G$G$G$G$J%K%y%y%L%                                ",
"                                M%i%i%N%l$O%P%Q%R%S%T%U%V%W%X%Y%Z%`% &.&.&+&@&W%#&$&%&&&K%y%y%L%                                ",
"                                t$i%i%k%k%k%k%s%!%!%!%!%)%|%|%1%1%2%2%*&*&*&*&*&*&*&]%]%]%y%y%L%                                ",
"                                P.i%k%k%k%k%k%=&!%!%!%!%-&|%|%1%1%2%2%2%*&*&*&*&*&*&]%]%]%]%y%L%                                ",
"                                P.k%k%k%k%k%k%=&!%!%!%!%)%|%|%1%1%1%2%2%*&*&*&*&*&*&]%]%]%]%]%L%                                ",
"                                P.P.P.P.P.P.P.P.0@0@^@^@%+%+m+m+m+m+m+m+m+g%g%g%L%L%L%L%L%L%L%L%                                ",
"                                                                                                                                ",
"                                                                                                                                ",
"                                                                                                                                ",
"                                                                                                                                "};
