/* XPM */
static char * exit4_xpm[] = {
"64 64 739 2",
"  	c #9CDB43",
". 	c #9CDC43",
"+ 	c #9DDC43",
"@ 	c #9DDD43",
"# 	c #9DDE43",
"$ 	c #9EDE43",
"% 	c #9EDF43",
"& 	c #9EE043",
"* 	c #9FE143",
"= 	c #9FE242",
"- 	c #A0E243",
"; 	c #9FE043",
"> 	c #A0E443",
", 	c #A0E543",
"' 	c #A1E542",
") 	c #A1E642",
"! 	c #A2E643",
"~ 	c #A1E543",
"{ 	c #A1E443",
"] 	c #A0E143",
"^ 	c #A0E343",
"/ 	c #A2E743",
"( 	c #A2E842",
"_ 	c #A2E942",
": 	c #A3EA42",
"< 	c #A4EA43",
"[ 	c #A4E943",
"} 	c #A3E844",
"| 	c #A2E644",
"1 	c #A1E444",
"2 	c #A0E244",
"3 	c #9FDF43",
"4 	c #00000D",
"5 	c #00002F",
"6 	c #5F004A",
"7 	c #9C6B5C",
"8 	c #96615E",
"9 	c #730056",
"0 	c #520048",
"a 	c #270041",
"b 	c #000038",
"c 	c #000020",
"d 	c #669431",
"e 	c #A2E444",
"f 	c #A2E544",
"g 	c #A1E344",
"h 	c #A3E743",
"i 	c #630049",
"j 	c #9E755B",
"k 	c #996D5E",
"l 	c #762D56",
"m 	c #570048",
"n 	c #320041",
"o 	c #000039",
"p 	c #6A9B31",
"q 	c #A4E844",
"r 	c #A1E343",
"s 	c #650049",
"t 	c #9F7D5B",
"u 	c #9A765E",
"v 	c #784356",
"w 	c #5B0048",
"x 	c #390041",
"y 	c #6DA131",
"z 	c #A6EB44",
"A 	c #A6EC44",
"B 	c #A4EA44",
"C 	c #A0E344",
"D 	c #671649",
"E 	c #A0835B",
"F 	c #9C7C5E",
"G 	c #7A4F55",
"H 	c #5E0448",
"I 	c #3F0041",
"J 	c #6FA430",
"K 	c #A5EC43",
"L 	c #A6ED44",
"M 	c #A5EB44",
"N 	c #A3E843",
"O 	c #A3E744",
"P 	c #692749",
"Q 	c #A1865B",
"R 	c #9C805D",
"S 	c #7C5655",
"T 	c #602547",
"U 	c #430041",
"V 	c #090038",
"W 	c #00001D",
"X 	c #3D6B20",
"Y 	c #6EA42D",
"Z 	c #6DA42F",
"` 	c #6BA32E",
" .	c #6AA12E",
"..	c #69A02E",
"+.	c #699F2E",
"@.	c #689F2E",
"#.	c #A5EC44",
"$.	c #692F49",
"%.	c #A2885B",
"&.	c #9D835D",
"*.	c #7D5B55",
"=.	c #623147",
"-.	c #41003F",
";.	c #010036",
">.	c #000025",
",.	c #32002C",
"'.	c #0C002A",
").	c #000028",
"!.	c #000027",
"~.	c #0B002A",
"{.	c #6A3349",
"].	c #A28A5B",
"^.	c #9D855D",
"/.	c #7D5E55",
"(.	c #613847",
"_.	c #36003A",
":.	c #000031",
"<.	c #140038",
"[.	c #765D4A",
"}.	c #967E57",
"|.	c #7D5954",
"1.	c #714251",
"2.	c #714152",
"3.	c #713F52",
"4.	c #713E52",
"5.	c #713D52",
"6.	c #6A3649",
"7.	c #A28B5B",
"8.	c #9E865D",
"9.	c #7D6055",
"0.	c #623C47",
"a.	c #310036",
"b.	c #00002E",
"c.	c #29003C",
"d.	c #897454",
"e.	c #AC9660",
"f.	c #92725D",
"g.	c #855F5B",
"h.	c #86605B",
"i.	c #865F5B",
"j.	c #865E5B",
"k.	c #6A3749",
"l.	c #7E6155",
"m.	c #623E47",
"n.	c #320036",
"o.	c #836D51",
"p.	c #A38E5D",
"q.	c #8A6C59",
"r.	c #7C5B56",
"s.	c #7E5C56",
"t.	c #7D5C56",
"u.	c #7D5B56",
"v.	c #7D5C55",
"w.	c #6A3849",
"x.	c #9E875D",
"y.	c #623F47",
"z.	c #330836",
"A.	c #28003A",
"B.	c #70554F",
"C.	c #896F58",
"D.	c #704C4C",
"E.	c #653A47",
"F.	c #643B47",
"G.	c #643A47",
"H.	c #643947",
"I.	c #896F57",
"J.	c #A5ED44",
"K.	c #6B3849",
"L.	c #7E6255",
"M.	c #634047",
"N.	c #340B36",
"O.	c #2A003B",
"P.	c #6A4B4E",
"Q.	c #806157",
"R.	c #673F48",
"S.	c #5B2942",
"T.	c #5C2744",
"U.	c #5C2644",
"V.	c #5C2544",
"W.	c #5D2544",
"X.	c #5D2644",
"Y.	c #5D2643",
"Z.	c #5C2543",
"`.	c #5C2443",
" +	c #5C2743",
".+	c #663F48",
"++	c #806156",
"@+	c #340937",
"#+	c #2C003B",
"$+	c #66444D",
"%+	c #7B5954",
"&+	c #613347",
"*+	c #551743",
"=+	c #571243",
"-+	c #570F43",
";+	c #570D43",
">+	c #570C43",
",+	c #570E43",
"'+	c #571043",
")+	c #570F42",
"!+	c #570D42",
"~+	c #560A42",
"{+	c #560842",
"]+	c #560942",
"^+	c #560B42",
"/+	c #560F42",
"(+	c #571342",
"_+	c #551742",
":+	c #633F47",
"<+	c #360237",
"[+	c #2A003C",
"}+	c #531E45",
"|+	c #602D48",
"1+	c #450042",
"2+	c #38003F",
"3+	c #37003F",
"4+	c #36003F",
"5+	c #36003E",
"6+	c #35003E",
"7+	c #35003D",
"8+	c #34003D",
"9+	c #643D47",
"0+	c #40023C",
"a+	c #050035",
"b+	c #1D0030",
"c+	c #250030",
"d+	c #00002D",
"e+	c #00002C",
"f+	c #00002B",
"g+	c #00002A",
"h+	c #260030",
"i+	c #40033C",
"j+	c #7E6055",
"k+	c #490041",
"l+	c #220039",
"m+	c #00001F",
"n+	c #00291B",
"o+	c #395B22",
"p+	c #355724",
"q+	c #325224",
"r+	c #304E24",
"s+	c #2E4B24",
"t+	c #2D4924",
"u+	c #2D4824",
"v+	c #2C4824",
"w+	c #2E4924",
"x+	c #2E4923",
"y+	c #2F4A22",
"z+	c #2F4A21",
"A+	c #52653E",
"B+	c #51643D",
"C+	c #50633D",
"D+	c #29471C",
"E+	c #50643D",
"F+	c #51653D",
"G+	c #52663E",
"H+	c #304F21",
"I+	c #335322",
"J+	c #365823",
"K+	c #395C21",
"L+	c #002A1B",
"M+	c #00001E",
"N+	c #7E5F55",
"O+	c #633947",
"P+	c #480041",
"Q+	c #1E0039",
"R+	c #689A2C",
"S+	c #99DC3E",
"T+	c #99DC3F",
"U+	c #98DA3F",
"V+	c #97D83F",
"W+	c #96D73F",
"X+	c #96D63F",
"Y+	c #96D73E",
"Z+	c #97D73E",
"`+	c #007A30",
" @	c #007A2F",
".@	c #C2F779",
"+@	c #C2F778",
"@@	c #95D63A",
"#@	c #97D83C",
"$@	c #97D93D",
"%@	c #98DA3E",
"&@	c #99DC3D",
"*@	c #689B2B",
"=@	c #7D5F55",
"-@	c #633647",
";@	c #470041",
">@	c #1A0039",
",@	c #000021",
"'@	c #76AE33",
")@	c #ACF545",
"!@	c #AAF245",
"~@	c #A9F045",
"{@	c #A8EF45",
"]@	c #A8EE45",
"^@	c #A7ED45",
"/@	c #A7EC45",
"(@	c #A7ED44",
"_@	c #A8ED43",
":@	c #008834",
"<@	c #008833",
"[@	c #D7FF85",
"}@	c #A6EC40",
"|@	c #008933",
"1@	c #008B34",
"2@	c #A9EF43",
"3@	c #AAF144",
"4@	c #ABF344",
"5@	c #77AE32",
"6@	c #633547",
"7@	c #460041",
"8@	c #170039",
"9@	c #74AB32",
"0@	c #AAF145",
"a@	c #A9F145",
"b@	c #A6EC45",
"c@	c #A6EA44",
"d@	c #A5EA44",
"e@	c #A6EB43",
"f@	c #A6EB42",
"g@	c #A5EA41",
"h@	c #D6FF85",
"i@	c #008432",
"j@	c #008633",
"k@	c #A7EC42",
"l@	c #A8EF44",
"m@	c #160039",
"n@	c #A7EC44",
"o@	c #A5EA43",
"p@	c #A5EA42",
"q@	c #A5EB41",
"r@	c #A6EC43",
"s@	c #A7ED43",
"t@	c #A9F144",
"u@	c #75AD32",
"v@	c #ABF445",
"w@	c #A9F244",
"x@	c #A8F044",
"y@	c #A7EE44",
"z@	c #A6EC42",
"A@	c #A7ED42",
"B@	c #A7EE43",
"C@	c #A8EF43",
"D@	c #AAF244",
"E@	c #ABF544",
"F@	c #76AD32",
"G@	c #633847",
"H@	c #190038",
"I@	c #66992A",
"J@	c #97DB3D",
"K@	c #97DB3E",
"L@	c #96D83C",
"M@	c #95D63C",
"N@	c #94D53C",
"O@	c #94D43C",
"P@	c #94D43B",
"Q@	c #94D43A",
"R@	c #94D53B",
"S@	c #95D63B",
"T@	c #98DB3D",
"U@	c #669A2A",
"V@	c #633A47",
"W@	c #1B0038",
"X@	c #002518",
"Y@	c #365A21",
"Z@	c #315521",
"`@	c #294D21",
" #	c #264820",
".#	c #234520",
"+#	c #214320",
"@#	c #204220",
"##	c #204120",
"$#	c #20421F",
"%#	c #21421F",
"&#	c #20421E",
"*#	c #21431E",
"=#	c #22441E",
"-#	c #23451E",
";#	c #25471F",
">#	c #274A1F",
",#	c #2A4E20",
"'#	c #633C47",
")#	c #3E003C",
"!#	c #000034",
"~#	c #000030",
"{#	c #56383B",
"]#	c #705744",
"^#	c #582841",
"/#	c #4C003F",
"(#	c #4C0041",
"_#	c #4B0041",
":#	c #4B0040",
"<#	c #4A0040",
"[#	c #4C0040",
"}#	c #4D0040",
"|#	c #582941",
"1#	c #340036",
"2#	c #27003B",
"3#	c #866F51",
"4#	c #A8915F",
"5#	c #8E6E5C",
"6#	c #815959",
"7#	c #815859",
"8#	c #815758",
"9#	c #815858",
"0#	c #815958",
"a#	c #825A59",
"b#	c #815A59",
"c#	c #A8925F",
"d#	c #876F51",
"e#	c #A28C5B",
"f#	c #320336",
"g#	c #2B003C",
"h#	c #887452",
"i#	c #AA9660",
"j#	c #90725B",
"k#	c #83625A",
"l#	c #84625A",
"m#	c #84615A",
"n#	c #90735B",
"o#	c #624047",
"p#	c #330A36",
"q#	c #7A6351",
"r#	c #977F5A",
"s#	c #7E5F53",
"t#	c #724D4F",
"u#	c #734E4E",
"v#	c #734D4E",
"w#	c #734E4F",
"x#	c #724E4F",
"y#	c #330E36",
"z#	c #2A003A",
"A#	c #6B4D4E",
"B#	c #816456",
"C#	c #684249",
"D#	c #5C2D43",
"E#	c #5D2E43",
"F#	c #5D2D43",
"G#	c #5D2C43",
"H#	c #5D2C42",
"I#	c #5D2B42",
"J#	c #5D2B43",
"K#	c #5E2D43",
"L#	c #5E2E43",
"M#	c #340E36",
"N#	c #5C2642",
"O#	c #5B2643",
"P#	c #5B2543",
"Q#	c #5B2443",
"R#	c #5B2343",
"S#	c #5B2243",
"T#	c #5B2444",
"U#	c #5C2444",
"V#	c #5C2643",
"W#	c #673F49",
"X#	c #340E37",
"Y#	c #2C003D",
"Z#	c #5F3849",
"`#	c #70494F",
" $	c #561D46",
".$	c #4A0041",
"+$	c #490040",
"@$	c #4B0042",
"#$	c #4A0042",
"$$	c #571D46",
"%$	c #2D003D",
"&$	c #350A37",
"*$	c #3B063A",
"=$	c #000033",
"-$	c #1E0037",
";$	c #42003C",
">$	c #4B003E",
",$	c #2D003A",
"'$	c #170038",
")$	c #180038",
"!$	c #160037",
"~$	c #140036",
"{$	c #120036",
"]$	c #100036",
"^$	c #0D0035",
"/$	c #0C0035",
"($	c #0C0036",
"_$	c #0E0036",
":$	c #100037",
"<$	c #130037",
"[$	c #17003A",
"}$	c #18003A",
"|$	c #19003A",
"1$	c #1A003A",
"2$	c #2E003B",
"3$	c #4C003E",
"4$	c #42003D",
"5$	c #1F0037",
"6$	c #3B073A",
"7$	c #460D3F",
"8$	c #1D0037",
"9$	c #000026",
"0$	c #000022",
"a$	c #00001C",
"b$	c #00001B",
"c$	c #000019",
"d$	c #000016",
"e$	c #000017",
"f$	c #000018",
"g$	c #000024",
"h$	c #210039",
"i$	c #497623",
"j$	c #75AC2F",
"k$	c #73AA2F",
"l$	c #72A82E",
"m$	c #71A72C",
"n$	c #71A62B",
"o$	c #97C260",
"p$	c #97C25F",
"q$	c #97C15F",
"r$	c #6FA529",
"s$	c #6FA52A",
"t$	c #97C160",
"u$	c #98C261",
"v$	c #71A62F",
"w$	c #71A630",
"x$	c #71A631",
"y$	c #71A632",
"z$	c #72A632",
"A$	c #72A733",
"B$	c #73A933",
"C$	c #74AA33",
"D$	c #75AC31",
"E$	c #497624",
"F$	c #75AD30",
"G$	c #A9F242",
"H$	c #AAF343",
"I$	c #A9F142",
"J$	c #A9F041",
"K$	c #A8EF40",
"L$	c #008F2F",
"M$	c #008E2E",
"N$	c #D5FF83",
"O$	c #A6ED3E",
"P$	c #D5FF84",
"Q$	c #A8EE41",
"R$	c #A8EE42",
"S$	c #A8EE43",
"T$	c #A8EE44",
"U$	c #A9EF45",
"V$	c #ABF345",
"W$	c #75AD31",
"X$	c #1C0039",
"Y$	c #76AE31",
"Z$	c #ABF444",
"`$	c #ABF443",
" %	c #AAF242",
".%	c #D8FF85",
"+%	c #D8FF84",
"@%	c #D7FF84",
"#%	c #008C2D",
"$%	c #A7EE3D",
"%%	c #008D30",
"&%	c #008D32",
"*%	c #A8EF42",
"=%	c #76AE32",
"-%	c #77B031",
";%	c #ACF643",
">%	c #ABF442",
",%	c #A9F241",
"'%	c #A9F140",
")%	c #A7EF3D",
"!%	c #A7EF3E",
"~%	c #008D2F",
"{%	c #008D31",
"]%	c #A8F041",
"^%	c #A8F042",
"/%	c #A8F043",
"(%	c #A9F044",
"_%	c #ACF645",
":%	c #77B032",
"<%	c #1B0039",
"[%	c #1C0038",
"}%	c #679B29",
"|%	c #98DD3B",
"1%	c #98DD3C",
"2%	c #97DA39",
"3%	c #007E2B",
"4%	c #007C29",
"5%	c #C1F877",
"6%	c #94D635",
"7%	c #94D636",
"8%	c #95D737",
"9%	c #95D738",
"0%	c #96D739",
"a%	c #96D73A",
"b%	c #96D73B",
"c%	c #95D73C",
"d%	c #96D73C",
"e%	c #97DA3D",
"f%	c #98DD3E",
"g%	c #98DD3D",
"h%	c #679B2B",
"i%	c #633B47",
"j%	c #480040",
"k%	c #1D0038",
"l%	c #002B17",
"m%	c #385D1F",
"n%	c #33591E",
"o%	c #2D521C",
"p%	c #294E19",
"q%	c #000010",
"r%	c #4D643B",
"s%	c #214714",
"t%	c #214715",
"u%	c #224716",
"v%	c #234817",
"w%	c #254919",
"x%	c #264A1A",
"y%	c #274A1C",
"z%	c #274A1D",
"A%	c #27491E",
"B%	c #27491F",
"C%	c #274920",
"D%	c #264920",
"E%	c #274A20",
"F%	c #284B20",
"G%	c #2A4E21",
"H%	c #2D5221",
"I%	c #345821",
"J%	c #385C22",
"K%	c #002B19",
"L%	c #573A3B",
"M%	c #715944",
"N%	c #592E40",
"O%	c #4D003E",
"P%	c #4B003D",
"Q%	c #4D003F",
"R%	c #4D0041",
"S%	c #592D41",
"T%	c #623D47",
"U%	c #877051",
"V%	c #A9925E",
"W%	c #8E6F5B",
"X%	c #815B58",
"Y%	c #825B58",
"Z%	c #815A57",
"`%	c #815957",
" &	c #815857",
".&	c #825958",
"+&	c #825B59",
"@&	c #A9925F",
"#&	c #340037",
"$&	c #836259",
"%&	c #846359",
"&&	c #846259",
"*&	c #84635A",
"=&	c #887352",
"-&	c #7A6251",
";&	c #724D4E",
">&	c #6A3449",
",&	c #9E855D",
"'&	c #320037",
")&	c #28003C",
"!&	c #816356",
"~&	c #674049",
"{&	c #5C2B43",
"]&	c #5E2C43",
"^&	c #6A3049",
"/&	c #A2895B",
"(&	c #9D845D",
"_&	c #7D5D55",
":&	c #310037",
"<&	c #29003B",
"[&	c #68474F",
"}&	c #805E57",
"|&	c #673C49",
"1&	c #5B2142",
"2&	c #5B2344",
"3&	c #5B2244",
"4&	c #5B2144",
"5&	c #5B2143",
"6&	c #692949",
"7&	c #A1875B",
"8&	c #9D825D",
"9&	c #7C5955",
"0&	c #613047",
"a&	c #2F0037",
"b&	c #552442",
"c&	c #6E424F",
"d&	c #550946",
"e&	c #490042",
"f&	c #681949",
"g&	c #A1835B",
"h&	c #9C7E5E",
"i&	c #7B5355",
"j&	c #5F2048",
"k&	c #33003B",
"l&	c #22002E",
"m&	c #48003E",
"n&	c #28003B",
"o&	c #0E003A",
"p&	c #12003A",
"q&	c #11003A",
"r&	c #660049",
"s&	c #9F7E5B",
"t&	c #9B785E",
"u&	c #794756",
"v&	c #5E0048",
"w&	c #3B0040",
"x&	c #000037",
"y&	c #9E765B",
"z&	c #996F5E",
"A&	c #773356",
"B&	c #5A0048",
"C&	c #380041",
"D&	c #3C6024",
"E&	c #6FA231",
"F&	c #70A431",
"G&	c #6FA332",
"H&	c #6FA232",
"I&	c #6FA132",
"J&	c #6EA132",
"K&	c #60004A",
"L&	c #9C6C5C",
"M&	c #97635E",
"N&	c #740056",
"O&	c #540048",
"P&	c #2D0041",
"Q&	c #6B9B30",
"R&	c #A6EA45",
"S&	c #A5E945",
"T&	c #A2EA42",
"U&	c #A3EB42",
"V&	c #A4EB42",
"W&	c #A5EB43",
"X&	c #A5E944",
"Y&	c #A4E744",
"Z&	c #A3E644",
"`&	c #9FE243",
" *	c #A0E144",
".*	c #9FE044",
"+*	c #9EDD43",
"                        . . . .                                                                 . . . .                         ",
"                . . . . . . . . . . .                                                     . . . . . . . . . . .                 ",
"            . . + + + @ @ @ @ @ + + + + .                                             . + + + + @ @ @ @ @ + + + . .             ",
"          . + + @ @ @ # # # # # # @ @ + + + .                                     . + + + @ @ # # # # # # @ @ @ + + .           ",
"        . + @ @ $ % % % & & & & % % $ @ @ + + + . . . . . . . . . . . . . . . . + + + @ @ $ % % & & & & % % % $ @ @ + .         ",
"      . + @ # % & * * = = = - - - * ; % $ @ @ + + + + + + + + + + + + + + + + + + @ @ $ % ; * - - - = = = * * & % # @ + .       ",
"    . + @ $ % * - > , ' ) ) ) ! ~ { - ] ; % $ @ @ @ @ @ @ @ @ @ @ @ @ @ @ @ @ @ @ $ % ; ] - { ~ ! ) ) ) ' , > - * % $ @ + .     ",
"    + + @ % * ^ ~ / ( _ : : : < [ } | 1 2 ; 3 % $ $ $ $ $ $ $ $ $ $ $ $ $ $ $ $ % 3 ; 2 1 | } [ < : : : _ ( / ~ ^ * % @ @ + .   ",
"  . + @ $ ; - ~ 4 5 6 7 8 9 0 a b c d e f g 2 * ; ; ; ; ; ; ; ; ; ; ; ; ; ; ; ; * - g f e d c b a 0 9 8 7 6 5 4 ~ - ; $ @ + . . ",
"  . + @ % * { h 4 5 i j k l m n o c p q q | f { r ^ - - - - - - - - - - - - ^ r { f | q q p c o n m l k j i 5 4 h { * % @ @ + . ",
"  + @ $ 3 - f [ 4 5 s t u v w x o c y z A B q h h ! ! ! ! ! ! ! ! ! ! ! ! ! ! h h q B A z y c o x w v u t s 5 4 [ f - ; $ @ + . ",
". + @ $ ; C | B 4 5 D E F G H I b c J K L M < [ N N N N N N N N N N N N N N N N [ < M L K J c b I H G F E D 5 4 B | C ; $ @ + . ",
". + @ $ ; g O M 4 5 P Q R S T U V W X Y Z `  ...+.+.+.@.@.@.@.@.@.@.@.@.@.@.+.+... .` Z Y X W V U T S R Q P 5 4 M O g ; $ @ + + ",
". + @ $ ; g O #.4 5 $.%.&.*.=.-.;.>.>.,.'.).!.!.!.!.!.!.!.!.!.!.!.!.!.!.!.!.!.!.!.!.).~.,.>.>.;.-.=.*.&.%.$.5 4 #.O g ; $ @ + + ",
". + @ $ ; g O #.4 5 {.].^./.(._.:.<.[.}.|.1.2.3.4.4.5.5.5.5.5.5.5.5.5.5.5.5.4.4.3.2.1.|.}.[.<.:._.(./.^.].{.5 4 #.O 1 * $ @ + + ",
". + @ $ ; 1 } #.4 5 6.7.8.9.0.a.b.c.d.e.f.g.h.i.i.j.j.j.j.j.j.j.j.j.j.j.j.j.j.i.i.h.g.f.e.d.c.b.a.0.9.8.7.6.5 4 #.} 1 * % @ + + ",
". + @ $ * 1 } #.4 5 k.7.8.l.m.n.b.c.o.p.q.r.s.t.u.u.u.u.*.*.*.*.*.*.*.*.*.*.*.*.v.v.r.q.p.o.c.b.n.m.l.8.7.k.5 4 #.} 1 * % @ + + ",
". + @ $ * 1 } #.4 5 w.7.x.l.y.z.b.A.B.C.D.E.F.G.G.G.G.G.G.G.G.E.G.G.G.G.G.H.H.G.G.F.E.D.I.B.A.b.z.y.l.x.7.w.5 4 J.} 1 * % @ + + ",
". + @ $ * 1 } J.4 5 K.7.x.L.M.N.5 O.P.Q.R.S.T.U.V.V.V.W.X.X.X.Y.Y.Y.Z.Z.`.`.`.Z.Z. +S..+++P.O.5 N.M.L.x.7.K.5 4 J.} 1 * % @ + + ",
". + @ $ * 1 } J.4 5 K.7.x.L.M.@+5 #+$+%+&+*+=+-+;+>+>+;+;+,+-+'+'+)+!+~+{+{+]+^+/+(+_+&+%+$+#+5 @+M.L.x.7.K.5 4 J.} 1 * % @ + + ",
". + @ $ * 1 } J.4 5 K.7.x.l.:+<+:.[+}+|+1+2+3+4+4+4+4+4+4+4+3+3+3+5+6+7+8+8+8+7+6+5+3+1+|+}+[+:.<+:+l.x.7.K.5 4 J.} 1 * % @ + + ",
". + @ $ * 1 } J.4 5 K.7.x.l.9+0+a+5 b+c+5 5 5 5 5 5 5 5 5 b.b.b.d+e+f+g+g+g+g+f+e+e+d+b.h+b+5 a+i+9+l.x.7.K.5 4 J.} 1 * % @ + + ",
". + @ $ * 1 } J.4 5 K.7.8.j+F.k+l+m+n+o+p+q+r+s+t+u+v+u+u+w+x+y+z+A+B+C+D+D+E+F+G+H+I+J+K+L+M+l+k+F.j+8.7.K.5 4 J.} 1 * % @ + + ",
". + @ $ * 1 } J.4 5 k.7.8.N+O+P+Q+m+R+S+T+U+V+W+W+W+X+X+X+W+Y+Z+`+ @.@+@@@+@+@.@#@$@%@S+&@*@m+Q+P+O+N+8.7.k.5 4 J.} 1 * % @ + + ",
". + @ $ * 1 } J.4 5 k.7.8.=@-@;@>@,@'@)@!@~@{@]@^@^@/@/@/@(@(@(@_@:@<@[@}@[@[@|@1@2@3@4@)@5@,@>@;@-@=@8.7.k.5 4 J.} 1 * % @ + + ",
". + @ $ * 1 } J.4 5 k.7.8./.6@7@8@,@9@0@a@]@^@b@z c@d@d@c@c@c@z e@f@f@g@g@h@i@j@k@_@l@3@0@9@,@8@7@6@/.8.7.k.5 4 J.} 1 * % @ + + ",
". + @ $ * 1 } J.4 5 k.7.8./.6@7@m@,@9@a@~@]@n@z M d@d@d@d@d@d@o@o@o@p@g@g@g@q@f@r@s@l@t@0@9@,@m@7@6@/.8.7.k.5 4 J.} 1 * % @ + + ",
". + @ $ * 1 } J.4 5 k.7.8./.-@7@8@,@u@v@w@x@y@L A A A A A A r@r@r@r@z@z@z@z@z@A@B@C@x@D@E@F@,@8@7@-@/.8.7.k.5 4 J.} 1 * % @ + + ",
". + @ $ * 1 } J.4 5 k.7.8.=@G@;@H@M+I@J@K@L@M@N@O@O@O@O@O@O@O@P@P@P@P@Q@Q@Q@Q@R@S@S@L@K@T@U@M+H@;@G@=@8.7.k.5 4 J.} 1 * % @ + + ",
". + @ $ * 1 } J.4 5 w.7.8.9.V@;@W@W X@Y@Z@`@ #.#+#@#@#@###$#$#%#%#%#&#&#&#*#=#-#;#>#,#Z@Y@X@W W@;@V@9.8.7.w.5 4 J.} 1 * % @ + + ",
". + @ $ * 1 } J.4 5 w.7.8.j+'#)#!#~#{#]#^#/#(#_#:#:#<#<#<#<#:#:#:#:#:#:#:#:#:#:#[#}#/#|#]#{#~#!#)#'#j+8.7.w.5 4 J.} 1 * % @ + + ",
". + @ $ * 1 } J.4 5 K.7.x.l.m.1#~#2#3#4#5#6#6#7#7#8#8#8#8#8#8#8#8#8#8#8#8#9#9#9#0#a#b#5#c#d#2#~#1#m.l.x.7.K.5 4 J.} 1 * % @ + + ",
". + @ $ * 1 } J.4 5 K.e#x.l.y.f#b.g#h#i#j#k#l#l#m#m#m#m#m#m#m#m#m#m#m#m#m#m#m#l#l#l#k#n#i#h#g#b.f#y.l.x.e#K.5 4 J.} 1 * % @ + + ",
". + @ $ * 1 } J.4 5 K.e#x.L.o#p#b.[+q#r#s#t#u#u#u#v#v#v#v#v#v#v#v#u#u#u#u#u#u#u#w#w#x#s#r#q#[+b.p#o#L.x.e#K.5 4 J.} 1 * % @ + + ",
". + @ $ * 1 } J.4 5 K.e#x.L.M.y#b.z#A#B#C#D#E#F#G#G#H#I#I#I#J#G#G#G#G#G#K#K#F#F#F#L#D#C#B#A#O.b.y#M.L.x.e#K.5 4 J.} 1 * % @ + + ",
". + @ $ * 1 } J.4 5 K.e#x.L.M.M#5 #+P.Q.R.N#O#P#Q#Q#R#S#S#S#S#R#R#Q#T#T#U#V.V.V.U.T.V#W#Q.P.#+5 X#M.L.x.e#K.5 4 J.} 1 * % @ + + ",
". + @ $ * 1 } J.4 5 K.e#x.L.M.@+5 Y#Z#`# $.$_#.$<#<#<#+$+$+$+$<#.$.$_#@$@$@$@$@$@$@$#$$$`#Z#%$5 &$M.L.x.e#K.5 4 J.} 1 * % @ + + ",
". + @ $ * 1 } J.4 5 K.e#x.l.:+*$=$-$;$>$,$'$)$!$~${$]$^$/$($_$:$<$<.m@8@8@[$}$}$|$1$|$2$3$4$5$=$6$:+l.x.e#K.5 4 J.} 1 * % @ + + ",
". + @ $ * 1 } J.4 5 K.7.x.l.9+7$8$9$M+0$m+M+a$b$c$W a$d$d$e$f$c$a$W m+c ,@0$0$0$0$0$0$0$g$m+!.-$7$9+l.x.7.K.5 4 J.} 1 * % @ + + ",
". + @ $ * 1 } J.4 5 K.7.8.j+F.k+h$M+i$j$j$k$l$m$n$o$p$q$r$s$t$o$u$v$w$x$y$z$z$A$A$B$C$D$D$E$m+h$k+F.j+8.7.K.5 4 J.} 1 * % @ + + ",
". + @ $ * 1 } J.4 5 k.7.8.N+O+P+Q+c F$G$H$I$J$K$L$M$N$N$O$N$N$P$Q$R$S$T$T$]@]@{@U$~@0@V$w@W$,@Q+P+O+N+8.7.w.5 4 J.} 1 * % @ + + ",
". + @ $ * 1 } J.4 5 k.7.8.=@G@;@X$c Y$Z$`$ %.%+%@%#%#%@%$%@%@%%%&%*%C@l@l@l@l@~@~@a@!@v@v@=%,@X$;@G@N+8.7.k.5 4 J.} 1 * % @ + + ",
". + @ $ * 1 } J.4 5 k.7.8.=@G@;@W@c -%;%>%,%'%@%@%@%)%)%!%@%~%{%]%^%/%C@l@l@x@x@(%t@!@v@_%:%,@<%;@G@=@8.7.k.5 4 J.} 1 * % @ + + ",
". + @ $ * 1 } J.4 5 k.7.8.=@O+;@[%W }%|%1%2%3%4%5%5%6%6%7%7%8%9%0%a%b%b%c%c%c%d%L@L@e%f%g%h%M+X$;@O+=@8.7.k.5 4 J.} 1 * % @ + + ",
". + @ $ * 1 } #.4 5 k.7.8.j+i%j%k%a$l%m%n%o%p%q%4 r%s%t%u%v%w%x%y%z%A%B%C%D%C%E%F%G%H%I%J%K%W k%;@V@j+8.7.k.5 4 J.} 1 * % @ + + ",
". + @ $ * 1 } #.4 5 k.7.8.j+'#)#!#5 L%M%N%O%O%3$P%P%P%P%>$>$3$/#Q%}#[#[#[#[#(#(#R%R%Q%S%M%L%~#!#)#'#j+8.7.k.5 4 J.} 1 * % @ + + ",
". + @ $ * 1 } #.4 5 k.7.8.l.T%1#~#2#U%V%W%X%Y%Z%`%`% & &`%`%0#.&.&.&.&.&6#6#6#6#a#+&b#5#@&d#2#~##&T%l.8.7.k.5 4 #.} 1 * % @ + + ",
". + @ $ * 1 } #.4 5 k.7.8.l.m.n.b.g#h#i#n#$&%&&&&&&&&&&&&&&&&&&&&&l#l#l#l#l#l#l#l#*&k#n#i#=&g#b.n.m.l.8.7.k.5 4 #.} 1 * % @ + + ",
". + @ $ ; 1 } #.4 5 6.7.8.j+m.n.b.[+-&r#s#;&u#u#u#u#u#u#u#u#u#u#u#u#w#w#w#w#w#w#w#w#t#s#r#-&[+b.n.m.j+8.7.6.5 4 #.} 1 * % @ + + ",
". + @ $ ; g O #.4 5 >&].,&=@0.'&5 )&P.!&~&{&G#G#G#J#J#J#G#G#G#]&]&]&]&G#G#G#G#G#G#G#{&~&!&P.)&5 '&0.=@,&].>&5 4 #.O 1 * $ @ + + ",
". + @ $ ; g O #.4 5 ^&/&(&_&(.:&5 <&[&}&|&1&2&3&3&3&4&3&3&3&3&3&3&3&3&3&3&3&3&3&3&2&5&|&}&[&<&5 :&(._&(&/&^&5 4 #.O g ; $ @ + + ",
". + @ $ ; g O M 4 5 6&7&8&9&0&a&e+5 b&c&d&e&#$#$#$#$#$#$#$#$#$#$#$#$#$#$#$#$#$#$#$#$e&d&c&b&5 e+a&0&9&8&7&6&5 4 M O g ; $ @ + + ",
". + @ $ ; C | B 4 5 f&g&h&i&j&k&d+b$l&m&n&o&p&p&q&q&q&q&q&q&q&q&q&q&q&q&q&q&q&q&p&p&o&n&m&l&b$d+k&j&i&h&g&f&5 4 B | C ; $ @ + . ",
"  + @ $ 3 - f [ 4 5 r&s&t&u&v&w&x&a$f$g$0$0$0$0$0$0$0$0$0$0$0$0$0$0$0$0$0$0$0$0$0$0$0$0$g$f$a$x&w&v&u&t&s&r&5 4 [ f - ; $ @ + . ",
"  . + @ % * { h 4 5 i y&z&A&B&C&o m+D&E&F&G&H&I&J&J&J&J&J&J&J&J&J&J&J&J&J&J&J&J&I&H&G&F&E&D&m+o C&B&A&z&y&i 5 4 h { * % @ @ + . ",
"  . + @ $ ; - ~ 4 5 K&L&M&N&O&P&o ,@Q&[ R&R&S&S&S&S&S&S&S&S&S&S&S&S&S&S&S&S&S&S&S&S&R&R&[ Q&,@o P&O&N&M&L&K&5 4 ~ - ; $ @ + . . ",
"    + + @ % * ^ ~ / ( T&: U&V&W&M M d@X&q q Y&Y&O O O Z&Z&Z&Z&Z&Z&Z&Z&Z&Z&O O O Y&Y&q q X&d@M M W&V&U&: T&( / ~ ^ * % @ @ + .   ",
"    . + @ $ % * - > , ' ) ) / / ! Z&f f e 1 g g g g g g g g g g g g g g g g g g g g 1 e f f Z&! / / ) ) ' , > - * % $ @ + .     ",
"      . + @ # % & * `&`&= ^ ^ ^ ^ - 2  * * *.*.*.*.*.*.*.*.*.*.*.*.*.*.*.*.*.*.*.*.* * * *2 - ^ ^ ^ ^ = `&`&* & % # @ + .       ",
"        . + @ @ $ % % & & & & ; ; ; 3 % % $ $ $ $ $ $ $ $ $ $ $ $ $ $ $ $ $ $ $ $ $ $ % % 3 ; ; ; & & & & % % $ @ @ + .         ",
"          . + @ @ @ # # # # $ $ $ $ $ +*@ @ @ @ @ @ @ @ @ @ @ @ @ @ @ @ @ @ @ @ @ @ @ @ +*$ $ $ $ $ # # # # @ @ @ + .           ",
"            . . + + @ @ @ @ @ @ @ @ @ + + + + + + + + + + + + + + + + + + + + + + + + + + @ @ @ @ @ @ @ @ @ + + . .             ",
"              . . . . . + + + + + + + + + + . . . . . . . . . . . . . . . . . . . . + + + + + + + + + + . . . . .               ",
"                . . . . . . . . . . . . . .                                         . . . . . . . . . . . . . .                 "};
