/* XPM */
static char * anim1_xpm[] = {
"64 64 668 2",
"  	c #9CDB43",
". 	c #5A361F",
"+ 	c #5F3E29",
"@ 	c #60402B",
"# 	c #61422D",
"$ 	c #62432F",
"% 	c #634632",
"& 	c #624632",
"* 	c #624530",
"= 	c #61432F",
"- 	c #60432F",
"; 	c #5F412D",
"> 	c #5E402B",
", 	c #5B3B26",
"' 	c #888479",
") 	c #949389",
"! 	c #939187",
"~ 	c #908E84",
"{ 	c #8F8D82",
"] 	c #8F8D83",
"^ 	c #8E8C83",
"/ 	c #8E8C80",
"( 	c #8D8C82",
"_ 	c #8D8B82",
": 	c #8C8B82",
"< 	c #8C8B81",
"[ 	c #6E665B",
"} 	c #583722",
"| 	c #644936",
"1 	c #7E776D",
"2 	c #908E85",
"3 	c #8F8E83",
"4 	c #8E8D83",
"5 	c #8E8C81",
"6 	c #695E51",
"7 	c #685E52",
"8 	c #644734",
"9 	c #7D766C",
"0 	c #949288",
"a 	c #939186",
"b 	c #64594C",
"c 	c #65594C",
"d 	c #655A4C",
"e 	c #66594B",
"f 	c #66594C",
"g 	c #66584B",
"h 	c #65584B",
"i 	c #645749",
"j 	c #645649",
"k 	c #695D4F",
"l 	c #695C4F",
"m 	c #583723",
"n 	c #634733",
"o 	c #7C766C",
"p 	c #5E3F2B",
"q 	c #5D3E29",
"r 	c #604533",
"s 	c #604534",
"t 	c #604535",
"u 	c #5F4332",
"v 	c #5F4331",
"w 	c #5F4230",
"x 	c #5E422F",
"y 	c #5C3C2A",
"z 	c #5C3F2C",
"A 	c #5A3C2A",
"B 	c #624430",
"C 	c #939188",
"D 	c #68594F",
"E 	c #695A4E",
"F 	c #6A5C51",
"G 	c #6A5E54",
"H 	c #6B5E54",
"I 	c #6B5F55",
"J 	c #6C6056",
"K 	c #6C5F55",
"L 	c #5A3D2C",
"M 	c #868479",
"N 	c #685C50",
"O 	c #624531",
"P 	c #7D776D",
"Q 	c #929087",
"R 	c #5D3F29",
"S 	c #68594E",
"T 	c #73665C",
"U 	c #73675D",
"V 	c #74675D",
"W 	c #62412B",
"X 	c #61412A",
"Y 	c #736D63",
"Z 	c #746D63",
"` 	c #736C61",
" .	c #736C62",
"..	c #726C62",
"+.	c #5C3E2D",
"@.	c #87847A",
"#.	c #685C4F",
"$.	c #634631",
"%.	c #7F776D",
"&.	c #5E3E2A",
"*.	c #73675C",
"=.	c #68503D",
"-.	c #8D8B7F",
";.	c #8E8B7F",
">.	c #62412A",
",.	c #756D65",
"'.	c #5C3F2D",
").	c #685C4E",
"!.	c #675B4E",
"~.	c #5E3E28",
"{.	c #6A5B50",
"].	c #70675D",
"^.	c #685040",
"/.	c #6A513F",
"(.	c #6A513E",
"_.	c #8D8A7D",
":.	c #8C8A7D",
"<.	c #63422C",
"[.	c #62422B",
"}.	c #61402A",
"|.	c #79756D",
"1.	c #86847A",
"2.	c #685B4D",
"3.	c #675A4C",
"4.	c #807A6F",
"5.	c #5D3C26",
"6.	c #6A5D50",
"7.	c #5A3823",
"8.	c #8C897D",
"9.	c #8B887C",
"0.	c #8C887C",
"a.	c #8C887B",
"b.	c #8B887B",
"c.	c #89887B",
"d.	c #8B897B",
"e.	c #8A887B",
"f.	c #5C3B25",
"g.	c #675A4D",
"h.	c #665A4C",
"i.	c #583721",
"j.	c #827D72",
"k.	c #827C72",
"l.	c #929186",
"m.	c #5D3C27",
"n.	c #6B5D51",
"o.	c #928F84",
"p.	c #929084",
"q.	c #939086",
"r.	c #8C897C",
"s.	c #8A867B",
"t.	c #928E84",
"u.	c #908D84",
"v.	c #8F8B81",
"w.	c #5D3D27",
"x.	c #675B4D",
"y.	c #512C17",
"z.	c #5B3B24",
"A.	c #5D3E28",
"B.	c #939288",
"C.	c #5C3D27",
"D.	c #6D5F53",
"E.	c #532C15",
"F.	c #686056",
"G.	c #696157",
"H.	c #6A6157",
"I.	c #89857A",
"J.	c #696057",
"K.	c #685F56",
"L.	c #5C3C26",
"M.	c #5C3E2C",
"N.	c #512B16",
"O.	c #502B16",
"P.	c #4F2913",
"Q.	c #817D73",
"R.	c #949289",
"S.	c #827F74",
"T.	c #5C3D28",
"U.	c #6F6356",
"V.	c #5A351E",
"W.	c #5A351D",
"X.	c #5A371E",
"Y.	c #858276",
"Z.	c #868276",
"`.	c #573017",
" +	c #56321B",
".+	c #5B3E2C",
"++	c #65584A",
"@+	c #64584A",
"#+	c #675C4E",
"$+	c #605548",
"%+	c #4E2812",
"&+	c #706153",
"*+	c #797369",
"=+	c #73695E",
"-+	c #736A5F",
";+	c #5A3923",
">+	c #848074",
",+	c #562F16",
"'+	c #72695E",
")+	c #73685D",
"!+	c #78736B",
"~+	c #63584A",
"{+	c #63574A",
"]+	c #512C16",
"^+	c #63584B",
"/+	c #5D3E2A",
"(+	c #807D73",
"_+	c #827E73",
":+	c #94938A",
"<+	c #7B746C",
"[+	c #58331D",
"}+	c #817D72",
"|+	c #807D72",
"1+	c #552E16",
"2+	c #7A756F",
"3+	c #78736C",
"4+	c #5B3E2B",
"5+	c #858379",
"6+	c #635749",
"7+	c #605547",
"8+	c #5D3F2A",
"9+	c #807B72",
"0+	c #827E74",
"a+	c #8E8D81",
"b+	c #5A3A24",
"c+	c #6F6153",
"d+	c #57321A",
"e+	c #7E796E",
"f+	c #542D15",
"g+	c #807C74",
"h+	c #79746D",
"i+	c #625749",
"j+	c #625649",
"k+	c #522D18",
"l+	c #61564A",
"m+	c #4D2812",
"n+	c #5E402C",
"o+	c #817C73",
"p+	c #624631",
"q+	c #8D8C80",
"r+	c #593822",
"s+	c #716153",
"t+	c #7F7B73",
"u+	c #7E7A72",
"v+	c #563018",
"w+	c #7D7A6F",
"x+	c #7D796F",
"y+	c #7F7C74",
"z+	c #78746D",
"A+	c #868478",
"B+	c #858478",
"C+	c #60432E",
"D+	c #817C72",
"E+	c #918F86",
"F+	c #593722",
"G+	c #706051",
"H+	c #8B887F",
"I+	c #8B867E",
"J+	c #532D15",
"K+	c #7F7B74",
"L+	c #7E7B74",
"M+	c #5D3F2D",
"N+	c #868578",
"O+	c #63594B",
"P+	c #807B71",
"Q+	c #919086",
"R+	c #614430",
"S+	c #8C8B7F",
"T+	c #716051",
"U+	c #56321A",
"V+	c #63584D",
"W+	c #7E7B73",
"X+	c #5D402D",
"Y+	c #625648",
"Z+	c #625548",
"`+	c #522E18",
" @	c #645A4C",
".@	c #60422E",
"+@	c #807C72",
"@@	c #837E75",
"#@	c #837F75",
"$@	c #8C8A7F",
"%@	c #7F7A73",
"&@	c #71685D",
"*@	c #5E412E",
"=@	c #858477",
"-@	c #615648",
";@	c #532E18",
">@	c #665B4E",
",@	c #604430",
"'@	c #837E74",
")@	c #8B8A7F",
"!@	c #7F7A72",
"~@	c #3600B3",
"{@	c #72685D",
"]@	c #512B15",
"^@	c #665C4E",
"/@	c #4E2813",
"(@	c #61442F",
"_@	c #8B8A7E",
":@	c #6616CF",
"<@	c #8C2BDC",
"[@	c #615548",
"}@	c #614632",
"|@	c #918F85",
"1@	c #583621",
"2@	c #705F51",
"3@	c #6C19D1",
"4@	c #9832E1",
"5@	c #3700B5",
"6@	c #5E402E",
"7@	c #675D50",
"8@	c #624634",
"9@	c #908F85",
"0@	c #60442F",
"a@	c #7F7B71",
"b@	c #6F5F51",
"c@	c #7D7972",
"d@	c #922FDF",
"e@	c #7E7A73",
"f@	c #685D51",
"g@	c #4E2913",
"h@	c #614634",
"i@	c #7F7B72",
"j@	c #8F8E85",
"k@	c #7F7A71",
"l@	c #7E7A6F",
"m@	c #8B897E",
"n@	c #573520",
"o@	c #7E7972",
"p@	c #7D7872",
"q@	c #8829DB",
"r@	c #7C7771",
"s@	c #4905C5",
"t@	c #7D7A73",
"u@	c #605549",
"v@	c #522D17",
"w@	c #695E52",
"x@	c #615649",
"y@	c #614633",
"z@	c #8F8E84",
"A@	c #604531",
"B@	c #7F7970",
"C@	c #7E796F",
"D@	c #88867B",
"E@	c #8A897E",
"F@	c #3100AB",
"G@	c #5A0FCB",
"H@	c #3B00BB",
"I@	c #5C3D2A",
"J@	c #614532",
"K@	c #5F4431",
"L@	c #7C786F",
"M@	c #87867B",
"N@	c #57341E",
"O@	c #6E5E51",
"P@	c #7C7872",
"Q@	c #7C7871",
"R@	c #4302C3",
"S@	c #62574A",
"T@	c #8F8D84",
"U@	c #5F4430",
"V@	c #7D786E",
"W@	c #7C786E",
"X@	c #87867A",
"Y@	c #55321D",
"Z@	c #6E5E50",
"`@	c #777068",
" #	c #787068",
".#	c #2A00A1",
"+#	c #7B7771",
"@#	c #858377",
"##	c #604432",
"$#	c #7E7A71",
"%#	c #8E8D84",
"&#	c #7C786D",
"*#	c #89877B",
"=#	c #54301A",
"-#	c #786F68",
";#	c #787269",
">#	c #787169",
",#	c #7C776F",
"'#	c #848378",
")#	c #62574B",
"!#	c #7D776E",
"~#	c #7C776D",
"{#	c #89887C",
"]#	c #512B14",
"^#	c #6C5D50",
"/#	c #746E66",
"(#	c #777169",
"_#	c #797670",
":#	c #7A7770",
"<#	c #7A7671",
"[#	c #79756F",
"}#	c #858479",
"|#	c #604431",
"1#	c #7C776E",
"2#	c #7A766D",
"3#	c #89887D",
"4#	c #512A14",
"5#	c #746D64",
"6#	c #5D493A",
"7#	c #5E4C3D",
"8#	c #625347",
"9#	c #66594E",
"0#	c #675A4F",
"a#	c #66594D",
"b#	c #65584C",
"c#	c #584436",
"d#	c #78746E",
"e#	c #78736E",
"f#	c #5C3D29",
"g#	c #868579",
"h#	c #502A14",
"i#	c #695B51",
"j#	c #716961",
"k#	c #838179",
"l#	c #86847B",
"m#	c #88867C",
"n#	c #88867E",
"o#	c #85837A",
"p#	c #827F77",
"q#	c #77726D",
"r#	c #5C3C29",
"s#	c #512D17",
"t#	c #7E7A70",
"u#	c #6F685D",
"v#	c #716A61",
"w#	c #736E65",
"x#	c #746F67",
"y#	c #767069",
"z#	c #76716B",
"A#	c #76726A",
"B#	c #76726C",
"C#	c #76716C",
"D#	c #75716C",
"E#	c #5E402D",
"F#	c #502C16",
"G#	c #695F53",
"H#	c #7B776E",
"I#	c #502A13",
"J#	c #66594F",
"K#	c #696259",
"L#	c #5D4D3F",
"M#	c #5D4C3F",
"N#	c #615246",
"O#	c #605246",
"P#	c #615245",
"Q#	c #594739",
"R#	c #574131",
"S#	c #756F6B",
"T#	c #74706B",
"U#	c #89887E",
"V#	c #6A6054",
"W#	c #604331",
"X#	c #7D7970",
"Y#	c #7B776D",
"Z#	c #7B776C",
"`#	c #8C8A7E",
" $	c #8C8B7E",
".$	c #696258",
"+$	c #78746B",
"@$	c #7D7870",
"#$	c #817D76",
"$$	c #7F7A74",
"%$	c #726E69",
"&$	c #736E69",
"*$	c #665C4F",
"=$	c #675D4F",
"-$	c #6B6155",
";$	c #5E4331",
">$	c #8D8C83",
",$	c #5E422D",
"'$	c #7A766C",
")$	c #8C8A80",
"!$	c #8C8A81",
"~$	c #65574D",
"{$	c #696158",
"]$	c #6A6259",
"^$	c #6A635A",
"/$	c #6B645B",
"($	c #6F6962",
"_$	c #716B64",
":$	c #716B66",
"<$	c #716D67",
"[$	c #726D69",
"}$	c #8B8A80",
"|$	c #6D645A",
"1$	c #5D412E",
"2$	c #7A756C",
"3$	c #8B8A81",
"4$	c #502913",
"5$	c #5B3A26",
"6$	c #5A3A26",
"7$	c #5F422F",
"8$	c #5F412F",
"9$	c #624432",
"0$	c #614432",
"a$	c #5C3F2B",
"b$	c #79756C",
"c$	c #502A15",
"d$	c #5B3C28",
"e$	c #7A756D",
"f$	c #79756B",
"g$	c #9C9B94",
"h$	c #9B9A93",
"i$	c #9A9991",
"j$	c #999890",
"k$	c #97968E",
"l$	c #98978F",
"m$	c #99988F",
"n$	c #9A9990",
"o$	c #9B9A92",
"p$	c #9B9A91",
"q$	c #696154",
"r$	c #675D4E",
"s$	c #6D6459",
"t$	c #5E4230",
"u$	c #573723",
"v$	c #78736A",
"w$	c #93928A",
"x$	c #939289",
"y$	c #929189",
"z$	c #8F8E86",
"A$	c #655B4E",
"B$	c #6C6359",
"C$	c #55331F",
"D$	c #919088",
"E$	c #96958D",
"F$	c #94938B",
"G$	c #54321D",
"H$	c #767068",
"I$	c #686159",
"J$	c #686158",
"K$	c #665F57",
"L$	c #716C64",
"M$	c #5D412F",
"N$	c #54311D",
"O$	c #676058",
"P$	c #676057",
"Q$	c #665F56",
"R$	c #706A61",
"S$	c #6C6358",
"T$	c #54321E",
"U$	c #512D18",
"V$	c #6A6156",
"W$	c #5F5547",
"X$	c #5D402E",
"Y$	c #56331E",
"Z$	c #5D5043",
"`$	c #5E4F43",
" %	c #5E4F44",
".%	c #5F5044",
"+%	c #5F4F43",
"@%	c #5E4F41",
"#%	c #5D4E41",
"$%	c #5C4C3F",
"%%	c #5C4B3E",
"&%	c #5D4C3E",
"*%	c #5C4B3D",
"=%	c #5B4B3D",
"-%	c #5B4A3D",
";%	c #5C4D40",
">%	c #5C4C41",
",%	c #5F5447",
"'%	c #5C402D",
")%	c #5D5044",
"!%	c #5E5044",
"~%	c #5E5042",
"{%	c #5E4E42",
"]%	c #5D4D41",
"^%	c #5D4D3E",
"/%	c #5C4C3E",
"(%	c #5B4C3D",
"_%	c #5B4A3E",
":%	c #6A6155",
"<%	c #6E6860",
"[%	c #6D675E",
"}%	c #6C665D",
"|%	c #666057",
"1%	c #666058",
"2%	c #655E56",
"3%	c #655E55",
"4%	c #645E55",
"5%	c #645D55",
"6%	c #635C54",
"7%	c #635C53",
"8%	c #625B52",
"9%	c #6C665C",
"0%	c #5B3D2A",
"a%	c #6E685F",
"b%	c #6D675D",
"c%	c #655F57",
"d%	c #655F56",
"e%	c #645F56",
"f%	c #635D55",
"g%	c #625C54",
"h%	c #625C53",
"i%	c #615B52",
"j%	c #6B655C",
"k%	c #6A6257",
"l%	c #726B5F",
"m%	c #5F5446",
"n%	c #593925",
"o%	c #6D675F",
"p%	c #605A51",
"q%	c #605951",
"r%	c #615A52",
"s%	c #6A635B",
"t%	c #4D2712",
"u%	c #5E5446",
"v%	c #767168",
"w%	c #95948C",
"x%	c #676159",
"y%	c #635E55",
"z%	c #615A51",
"A%	c #53493F",
"B%	c #54493F",
"C%	c #53493E",
"D%	c #522F1B",
"E%	c #56351F",
"F%	c #676158",
"G%	c #564C41",
"H%	c #574E43",
"I%	c #5F5850",
"J%	c #69625A",
"K%	c #54331E",
"L%	c #5E5346",
"M%	c #573621",
"N%	c #5A3A25",
"O%	c #593A25",
"P%	c #593924",
"Q%	c #593B26",
"R%	c #5A3B27",
"S%	c #5B3C27",
"T%	c #583823",
"U%	c #593824",
"V%	c #563521",
"W%	c #716A5D",
"X%	c #8A897F",
"Y%	c #4C2712",
"Z%	c #573622",
"`%	c #989790",
" &	c #8B887D",
".&	c #898578",
"+&	c #878377",
"@&	c #878275",
"#&	c #878174",
"$&	c #868072",
"%&	c #868071",
"&&	c #857F72",
"*&	c #847E70",
"=&	c #847E6F",
"-&	c #847C6E",
";&	c #847C6D",
">&	c #837B6D",
",&	c #837B6E",
"'&	c #837D6E",
")&	c #847D6F",
"!&	c #847E6E",
"~&	c #847F70",
"{&	c #847F71",
"]&	c #858175",
"^&	c #858275",
"/&	c #645E56",
"(&	c #666158",
"_&	c #656057",
"                                                                                                                                ",
"                                                                                                                                ",
"                                                                                                                                ",
"                                          . + + @ # $ $ $ % % & & & & * = - - - ; > ,                                           ",
"                                        & ' ' ) ! ! ! ~ { { ] ] ] ^ / ( ( ( _ : < [ [ }                                         ",
"                                        | 1 1 ) ! ! ! 2 ] ] 3 3 4 5 5 ( ( ( _ : < 6 7 }                                         ",
"                                        8 9 1 0 a b b c d e e f f f g h i j h < < k l m                                         ",
"                                        n o 1 ! a p q r s s s t u v w x y z A < < k l }                                         ",
"                                        B 9 1 0 C > D E F G H I J J J J K I L _ M k N }                                         ",
"                                        O P 1 Q 3 R S T T U V W X Y Z `  ...+.@.M k #.}                                         ",
"                                        $.1 %.3 3 &.S T *.V =.-.;.>.,.Z  ...'.@.M ).!.}                                         ",
"                                        $.1 %.3 3 ~.{.].^./.(._.:.<.[.}.|.|.z 1.M 2.3.}                                         ",
"                                        $.4.%.3 3 5.6.7.8.9.0.a.b.c.d.e.f.|.z 1.M g.h.i.                                        ",
"                                        $.j.k.l.3 m.n.f.o.p.q.r.s.t.u.v.w.|.z 1.M x.h.y.                                        ",
"                                    z.A.$.j.k.B.B.C.D.E.F.G.H.I.' H.J.K.L.|.M.M M e e N.O.P.                                    ",
"                                  ; Q.R.O S.S.) ) T.U.U.V.W.X.Y.Z.`. + +|.|..+M M ++@+N.#+$+%+                                  ",
"                                , Q.Q.R.O S.S.) ) C.&+*+=+-+;+>+>+,+'+)+|.!+.+M M ~+{+]+^+$+$+%+                                ",
"                                /+(+Q.R.O S._+B.:+, &+*+<+<+[+}+|+1+2+|.|.3+4+M 5+6+6+]+^+$+7+%+                                ",
"                                8+9+Q.R.O S.0+C a+b+c+*+<+<+d+e+e+f+g+|.|.h+.+M 5+i+j+k+^+l+7+m+                                ",
"                                n+o+Q.0 p+S.0+C q+r+s+t+u+u+v+w+x+f+y+y+|.z+z A+B+i+j+k+^+$+$+m+                                ",
"                                C+D+9+! O S.S.E+q+F+G+t+u+u+v+H+I+J+y+y+K+L+M+N+B+i+i+k+O+$+7+%+                                ",
"                                C+D+P+Q+R+S.S.S+S+F+T+t+t+t+U+V+V+E.y+y+K+W+X+B+B+Y+Z+`+ @$+$+%+                                ",
"                                .@+@D+Q+C+@@#@$@$@F+G+t+t+%@'+J+E.&@y+y+L+W+*@B+=@-@$+;@>@$+$+%+                                ",
"                                ,@+@+@Q+- '@@@)@)@} G+!@!@!@~@{@&@y+y+K+L+W+*@B+=@-@$+]@^@$+$+/@                                ",
"                                ,@+@+@E+(@0+0+_@_@i.G+!@!@u+:@<@y+y+K+W+W+W+*@B+=@-@$+]@^@[@$+%+                                ",
"                                }@9++@|@= 0+|+_@_@1@2@u+u+u+3@4@3@3@3@5@W+W+6@B+=@-@$+]+7@-@$+/@                                ",
"                                8@9+9+9@0@a@+@_@_@1@b@u+u+c@3@K+K+d@<@W+W+e@6@B+=@-@[@]+f@-@$+g@                                ",
"                                h@i@i@j@- k@l@m@m@n@b@o@p@q@q@r@L+s@W+W+e@t@X+B+=@j+u@v@w@x@-@g@                                ",
"                                y@a@a@z@A@B@C@D@E@n@b@p@F@:@G@s@s@H@W+W+t@t@I@B+=@i+x@v@7 x@x@g@                                ",
"                                J@a@a@z@K@x+L@M@M@N@O@P@Q@Q@Q@Q@R@5@e@t@t@t@I@=@=@~+S@v@7 x@x@P.                                ",
"                                J@k@a@T@U@V@W@X@X@Y@Z@`@ #Q@Q@Q@Q@.#+#t@t@t@I@=@@#S@S@k+7 x@x@P.                                ",
"                                ##$#$#%#,@&#W@*#D@=#O@-#;# #>#,#+#+#t@t@t@t@I@B+'#)#S@k+7 x@x@P.                                ",
"                                ##$#$#%#,@!#~#{#*#]#^#/#(#(#(#_#:#<#t@t@t@[#I@}#}#S@S@`+7 x@x@P.                                ",
"                                ##$#$#%#|#1#2#3#3#4#n.5#6#7#8#9#0#a#b#c#d#e#f#g#g#S@S@k+7 x@x@P.                                ",
"                                ##$#$#%#K@1#2#E@E@h#i#j#k#l#m#n#o#k#p#g+e#q#r#M@M@S@S@s#7 x@x@P.                                ",
"                                ##t#$#%#K@1#L@)@)@h#0#u#v#w#x#y#z#A#z#B#C#D#E#{#{#S@S@F#G#x@x@P.                                ",
"                                |#t#t#4 K@H#H#)@_@I#J#K#L#M#N#N#O#P#Q#R#S#T#6@U#U#S@7@]+V#x@x@P.                                ",
"                                W#X#t#^ U@Y#Z#`# $I#a#.$+$2#,#@$#$$$K+c@%$&$w E@E@*$=$]+-$x@x@P.                                ",
"                                ;$X#X#>$,$Y#'$)$!$I#~${$.$]$^$/$($($_$:$<$[$w }$}$*$=$]+|$x@x@P.                                ",
"                                ;$X#X#>$1$2#2$}$3$4$5$6$I@7$7$x 8$8$9$0$####W#}$}$*$*$]+|$x@x@P.                                ",
"                                ;$X#X#>$a$2#b$}$3$3$3$3$3$3$3$3$3$3$3$3$3$3$}$}$}$*$*$c$|$x@x@P.                                ",
"                                ;$X#X#>$d$e$f$g$g$h$i$j$k$l$l$l$l$l$l$m$n$o$o$p$p$q$r$P.s$x@x@P.                                ",
"                                t$X#b$>$u$v$w$w$w$w$w$w$w$w$w$w$w$x$x$y$y$y$y$y$z$i$A$g@B$$+$+P.                                ",
"                                x X#b$>$C$D$w$w$w$E$F$F$F$F$w$x$x$y$y$y$y$y$y$y$y$z$i$g@B$$+$+g@                                ",
"                                x X#b$>$G$H$I$I$I$I$I$I$I$I$I$J$K$K$K$K$K$K$K$K$K$K$L$/@B$$+$+g@                                ",
"                                M$X#b$>$N$x#I$I$I$I$I$O$O$P$K$K$K$K$K$K$K$Q$Q$Q$Q$J$R$%+S$$+$+/@                                ",
"                                1$b$b$%#T$U$P.P.P.P.P.P.P.P.g@g@g@/@/@%+%+%+%+m+m+m+%+V$V$W$7+%+                                ",
"                                X$b$b$D$E@Y$Z$`$ %.%+%@%#%$%%%&%*%=%-%=%%%%%$%;%>%;%m+V$V$,%W$%+                                ",
"                                '%b$b$y$_@n@)% %!% %~%{%#%]%^%&%/%(%=%_%%%$%$%;%>%;%m+:%:%,%,%m+                                ",
"                                z b$b$x$}$n@<%[%}%|%K$1%K$2%3%4%5%6%6%7%7%8%8%8%7%9%m+:%:%,%,%m+                                ",
"                                0%b$b$w$}$n@a%[%b%1%1%K$c%d%e%f%f%6%g%h%8%8%i%i%i%j%m+k%l%m%m%m+                                ",
"                                n%b$b$:+}$n@a%o%1%1%K$c%c%3%f%f%6%h%8%8%p%p%p%q%r%s%t%l%l%u%m%m+                                ",
"                                m v%v%w%}$n@a%x%1%K$c%c%3%y%6%g%h%z%z%p%A%B%C%q%q%s%D%l%l%u%u%m+                                ",
"                                u$v%v%k$}$E%a%F%c%c%c%2%4%6%g%g%8%z%G%B%H%H%H%q%I%J%K%l%l%L%L%t%                                ",
"                                u$v%v%k$_@M%} N%O%P%P%P%N%Q%Q%R%S%T%T%U%m V%T$T$T$T$T$W%X%L%L%Y%                                ",
"                                Z%v%v%`%y$ &.&+&@&#&$&%&&&*&=&-&;&>&,&'&'&)&!&*&~&{&]&^&X%L%L%Y%                                ",
"                                G$v%v%x%x%x%x%F%1%1%1%1%|%c%c%d%d%e%e%/&/&/&/&/&/&/&4%4%4%L%L%Y%                                ",
"                                P.v%x%x%x%x%x%(&1%1%1%1%_&c%c%d%d%e%e%e%/&/&/&/&/&/&4%4%4%4%L%Y%                                ",
"                                P.x%x%x%x%x%x%(&1%1%1%1%|%c%c%d%d%d%e%e%/&/&/&/&/&/&4%4%4%4%4%Y%                                ",
"                                P.P.P.P.P.P.P.P.g@g@/@/@%+%+m+m+m+m+m+m+m+t%t%t%Y%Y%Y%Y%Y%Y%Y%Y%                                ",
"                                                                                                                                ",
"                                                                                                                                ",
"                                                                                                                                ",
"                                                                                                                                "};
