/* XPM */
static char * anim10_xpm[] = {
"64 64 712 2",
"  	c #9CDB43",
". 	c #9CDC43",
"+ 	c #9DDC43",
"@ 	c #9DDD43",
"# 	c #9DDE43",
"$ 	c #9EDE43",
"% 	c #9EDF43",
"& 	c #9EE043",
"* 	c #9FE143",
"= 	c #9FE242",
"- 	c #A0E243",
"; 	c #9FE043",
"> 	c #A0E443",
", 	c #A0E543",
"' 	c #A1E542",
") 	c #A1E642",
"! 	c #A2E643",
"~ 	c #A1E543",
"{ 	c #A1E443",
"] 	c #A0E143",
"^ 	c #A0E343",
"/ 	c #A2E743",
"( 	c #A2E842",
"_ 	c #A2E942",
": 	c #A3EA42",
"< 	c #A4EA43",
"[ 	c #A4E943",
"} 	c #A3E844",
"| 	c #A2E644",
"1 	c #A1E444",
"2 	c #A0E244",
"3 	c #9FDF43",
"4 	c #00000D",
"5 	c #00002F",
"6 	c #5F004A",
"7 	c #9C6B5C",
"8 	c #96615E",
"9 	c #730056",
"0 	c #520048",
"a 	c #270041",
"b 	c #000038",
"c 	c #000020",
"d 	c #669431",
"e 	c #A2E444",
"f 	c #A2E544",
"g 	c #A1E344",
"h 	c #A3E743",
"i 	c #630049",
"j 	c #9E755B",
"k 	c #996D5E",
"l 	c #762D56",
"m 	c #570048",
"n 	c #320041",
"o 	c #000039",
"p 	c #6A9B31",
"q 	c #A4E844",
"r 	c #A1E343",
"s 	c #650049",
"t 	c #9F7D5B",
"u 	c #9A765E",
"v 	c #784356",
"w 	c #5B0048",
"x 	c #390041",
"y 	c #6DA131",
"z 	c #A6EB44",
"A 	c #A6EC44",
"B 	c #A4EA44",
"C 	c #A0E344",
"D 	c #671649",
"E 	c #A0835B",
"F 	c #9C7C5E",
"G 	c #7A4F55",
"H 	c #5E0448",
"I 	c #3F0041",
"J 	c #6FA430",
"K 	c #A5EC43",
"L 	c #A6ED44",
"M 	c #A5EB44",
"N 	c #A3E843",
"O 	c #A3E744",
"P 	c #692749",
"Q 	c #A1865B",
"R 	c #9C805D",
"S 	c #7C5655",
"T 	c #602547",
"U 	c #430041",
"V 	c #090038",
"W 	c #00001D",
"X 	c #3D6B20",
"Y 	c #6EA42D",
"Z 	c #6DA42F",
"` 	c #6BA32E",
" .	c #6AA12E",
"..	c #69A02E",
"+.	c #699F2E",
"@.	c #689F2E",
"#.	c #7B22D7",
"$.	c #9B34E2",
"%.	c #4704C4",
"&.	c #2D00A5",
"*.	c #A5EC44",
"=.	c #692F49",
"-.	c #A2885B",
";.	c #9D835D",
">.	c #7D5B55",
",.	c #623147",
"'.	c #41003F",
").	c #010036",
"!.	c #000025",
"~.	c #32002C",
"{.	c #0C002A",
"].	c #000028",
"^.	c #000027",
"/.	c #240098",
"(.	c #3700B5",
"_.	c #8326D9",
":.	c #E75FFC",
"<.	c #F067FE",
"[.	c #C14AEF",
"}.	c #0B002A",
"|.	c #6A3349",
"1.	c #A28A5B",
"2.	c #9D855D",
"3.	c #7D5E55",
"4.	c #613847",
"5.	c #36003A",
"6.	c #000031",
"7.	c #140038",
"8.	c #765D4A",
"9.	c #967E57",
"0.	c #7D5954",
"a.	c #714251",
"b.	c #714152",
"c.	c #713F52",
"d.	c #713E52",
"e.	c #713D52",
"f.	c #530BC9",
"g.	c #8528DA",
"h.	c #6414CE",
"i.	c #6A3649",
"j.	c #A28B5B",
"k.	c #9E865D",
"l.	c #7D6055",
"m.	c #623C47",
"n.	c #310036",
"o.	c #00002E",
"p.	c #29003C",
"q.	c #897454",
"r.	c #AC9660",
"s.	c #92725D",
"t.	c #855F5B",
"u.	c #86605B",
"v.	c #865F5B",
"w.	c #865E5B",
"x.	c #4302C3",
"y.	c #5009C7",
"z.	c #6A3749",
"A.	c #7E6155",
"B.	c #623E47",
"C.	c #320036",
"D.	c #836D51",
"E.	c #A38E5D",
"F.	c #8A6C59",
"G.	c #7C5B56",
"H.	c #7E5C56",
"I.	c #7D5C56",
"J.	c #7D5B56",
"K.	c #3D00BD",
"L.	c #5A0FCB",
"M.	c #7D5C55",
"N.	c #6A3849",
"O.	c #9E875D",
"P.	c #623F47",
"Q.	c #330836",
"R.	c #28003A",
"S.	c #70554F",
"T.	c #896F58",
"U.	c #704C4C",
"V.	c #653A47",
"W.	c #643B47",
"X.	c #643A47",
"Y.	c #643947",
"Z.	c #896F57",
"`.	c #A5ED44",
" +	c #6B3849",
".+	c #7E6255",
"++	c #634047",
"@+	c #340B36",
"#+	c #2A003B",
"$+	c #6A4B4E",
"%+	c #673F48",
"&+	c #5B2942",
"*+	c #5C2744",
"=+	c #5C2644",
"-+	c #5C2544",
";+	c #5D2544",
">+	c #5D2644",
",+	c #5D2643",
"'+	c #5C2543",
")+	c #5C2443",
"!+	c #5C2743",
"~+	c #663F48",
"{+	c #806156",
"]+	c #340937",
"^+	c #2C003B",
"/+	c #66444D",
"(+	c #7B5954",
"_+	c #613347",
":+	c #551743",
"<+	c #571243",
"[+	c #570F43",
"}+	c #570D43",
"|+	c #570C43",
"1+	c #570E43",
"2+	c #571043",
"3+	c #570F42",
"4+	c #570D42",
"5+	c #560A42",
"6+	c #560842",
"7+	c #560942",
"8+	c #560B42",
"9+	c #560F42",
"0+	c #571342",
"a+	c #551742",
"b+	c #633F47",
"c+	c #360237",
"d+	c #2A003C",
"e+	c #531E45",
"f+	c #602D48",
"g+	c #450042",
"h+	c #38003F",
"i+	c #37003F",
"j+	c #36003F",
"k+	c #36003E",
"l+	c #35003E",
"m+	c #35003D",
"n+	c #34003D",
"o+	c #643D47",
"p+	c #40023C",
"q+	c #050035",
"r+	c #1D0030",
"s+	c #250030",
"t+	c #00002D",
"u+	c #00002C",
"v+	c #00002B",
"w+	c #00002A",
"x+	c #260030",
"y+	c #40033C",
"z+	c #7E6055",
"A+	c #490041",
"B+	c #220039",
"C+	c #00001F",
"D+	c #00291B",
"E+	c #395B22",
"F+	c #355724",
"G+	c #325224",
"H+	c #304E24",
"I+	c #2E4B24",
"J+	c #2D4924",
"K+	c #3100AB",
"L+	c #2D4824",
"M+	c #2E4924",
"N+	c #2E4923",
"O+	c #4B06C6",
"P+	c #6C19D1",
"Q+	c #6917D0",
"R+	c #50643D",
"S+	c #51653D",
"T+	c #52663E",
"U+	c #304F21",
"V+	c #335322",
"W+	c #365823",
"X+	c #395C21",
"Y+	c #002A1B",
"Z+	c #00001E",
"`+	c #7E5F55",
" @	c #633947",
".@	c #480041",
"+@	c #1E0039",
"@@	c #689A2C",
"#@	c #99DC3E",
"$@	c #99DC3F",
"%@	c #98DA3F",
"&@	c #97D83F",
"*@	c #96D63F",
"=@	c #96D73F",
"-@	c #96D73E",
";@	c #97D73E",
">@	c #007A30",
",@	c #BB46ED",
"'@	c #9430DF",
")@	c #C2F778",
"!@	c #97D83C",
"~@	c #97D93D",
"{@	c #98DA3E",
"]@	c #99DC3D",
"^@	c #689B2B",
"/@	c #7D5F55",
"(@	c #633647",
"_@	c #470041",
":@	c #1A0039",
"<@	c #000021",
"[@	c #76AE33",
"}@	c #ACF545",
"|@	c #AAF245",
"1@	c #A9F045",
"2@	c #A8EF45",
"3@	c #8C2BDC",
"4@	c #A7ED45",
"5@	c #A7EC45",
"6@	c #A7ED44",
"7@	c #008833",
"8@	c #D7FF85",
"9@	c #A6EC40",
"0@	c #AAF144",
"a@	c #ABF344",
"b@	c #77AE32",
"c@	c #2900A0",
"d@	c #460041",
"e@	c #170039",
"f@	c #74AB32",
"g@	c #AAF145",
"h@	c #A9F145",
"i@	c #A8EE45",
"j@	c #A6EA44",
"k@	c #A5EA44",
"l@	c #A6EB43",
"m@	c #A6EB42",
"n@	c #A5EA41",
"o@	c #D6FF85",
"p@	c #008432",
"q@	c #008633",
"r@	c #A8EF44",
"s@	c #633547",
"t@	c #160039",
"u@	c #C049EF",
"v@	c #F888F3",
"w@	c #A5EA43",
"x@	c #A5EA42",
"y@	c #A5EB41",
"z@	c #A6EC43",
"A@	c #A9F144",
"B@	c #75AD32",
"C@	c #ABF445",
"D@	c #A9F244",
"E@	c #A6EC42",
"F@	c #A7ED42",
"G@	c #A7EE43",
"H@	c #A8EF43",
"I@	c #3600B3",
"J@	c #AAF244",
"K@	c #ABF544",
"L@	c #76AD32",
"M@	c #633847",
"N@	c #66992A",
"O@	c #97DB3D",
"P@	c #97DB3E",
"Q@	c #94D53C",
"R@	c #94D43C",
"S@	c #94D43B",
"T@	c #94D43A",
"U@	c #95D63B",
"V@	c #96D83C",
"W@	c #98DB3D",
"X@	c #669A2A",
"Y@	c #190038",
"Z@	c #633A47",
"`@	c #1B0038",
" #	c #002518",
".#	c #365A21",
"+#	c #315521",
"@#	c #264820",
"##	c #234520",
"$#	c #214320",
"%#	c #204220",
"&#	c #204120",
"*#	c #20421F",
"=#	c #21421F",
"-#	c #20421E",
";#	c #F16DFC",
">#	c #25471F",
",#	c #274A1F",
"'#	c #2A4E20",
")#	c #AB3DE7",
"!#	c #633C47",
"~#	c #3E003C",
"{#	c #000034",
"]#	c #000030",
"^#	c #56383B",
"/#	c #705744",
"(#	c #582841",
"_#	c #4B0041",
":#	c #4B0040",
"<#	c #4A0040",
"[#	c #FFA4E9",
"}#	c #4C0040",
"|#	c #4D0040",
"1#	c #4C003F",
"2#	c #582941",
"3#	c #D354F5",
"4#	c #340036",
"5#	c #27003B",
"6#	c #866F51",
"7#	c #A8915F",
"8#	c #8E6E5C",
"9#	c #815859",
"0#	c #815758",
"a#	c #B342EA",
"b#	c #815958",
"c#	c #825A59",
"d#	c #815A59",
"e#	c #A8925F",
"f#	c #876F51",
"g#	c #761FD5",
"h#	c #320336",
"i#	c #2B003C",
"j#	c #887452",
"k#	c #AA9660",
"l#	c #90725B",
"m#	c #84625A",
"n#	c #84615A",
"o#	c #90735B",
"p#	c #A28C5B",
"q#	c #624047",
"r#	c #330A36",
"s#	c #7A6351",
"t#	c #977F5A",
"u#	c #7E5F53",
"v#	c #734E4E",
"w#	c #734D4E",
"x#	c #734E4F",
"y#	c #330E36",
"z#	c #2A003A",
"A#	c #6B4D4E",
"B#	c #816456",
"C#	c #684249",
"D#	c #5C2D43",
"E#	c #5D2E43",
"F#	c #5D2D43",
"G#	c #5D2B42",
"H#	c #5D2B43",
"I#	c #5D2C43",
"J#	c #5E2D43",
"K#	c #28009E",
"L#	c #340E36",
"M#	c #806157",
"N#	c #5C2642",
"O#	c #5B2643",
"P#	c #5B2543",
"Q#	c #5B2243",
"R#	c #5B2343",
"S#	c #5B2443",
"T#	c #5B2444",
"U#	c #5C2444",
"V#	c #673F49",
"W#	c #340E37",
"X#	c #2C003D",
"Y#	c #5F3849",
"Z#	c #70494F",
"`#	c #561D46",
" $	c #4A0041",
".$	c #490040",
"+$	c #4B0042",
"@$	c #571D46",
"#$	c #350A37",
"$$	c #3B063A",
"%$	c #000033",
"&$	c #1E0037",
"*$	c #42003C",
"=$	c #4B003E",
"-$	c #2D003A",
";$	c #170038",
">$	c #180038",
",$	c #160037",
"'$	c #100036",
")$	c #0D0035",
"!$	c #0C0035",
"~$	c #0C0036",
"{$	c #0E0036",
"]$	c #100037",
"^$	c #130037",
"/$	c #17003A",
"($	c #18003A",
"_$	c #19003A",
":$	c #2E003B",
"<$	c #4C003E",
"[$	c #42003D",
"}$	c #1F0037",
"|$	c #460D3F",
"1$	c #1D0037",
"2$	c #000026",
"3$	c #000022",
"4$	c #3200AE",
"5$	c #00001C",
"6$	c #00001B",
"7$	c #000019",
"8$	c #000016",
"9$	c #000017",
"0$	c #000018",
"a$	c #6012CD",
"b$	c #000024",
"c$	c #210039",
"d$	c #497623",
"e$	c #75AC2F",
"f$	c #71A72C",
"g$	c #71A62B",
"h$	c #97C260",
"i$	c #97C25F",
"j$	c #97C15F",
"k$	c #6FA529",
"l$	c #6FA52A",
"m$	c #97C160",
"n$	c #98C261",
"o$	c #F57CF7",
"p$	c #72A632",
"q$	c #72A733",
"r$	c #74AA33",
"s$	c #75AC31",
"t$	c #497624",
"u$	c #75AD30",
"v$	c #A9F242",
"w$	c #AAF343",
"x$	c #A9F142",
"y$	c #008F2F",
"z$	c #008E2E",
"A$	c #D5FF83",
"B$	c #A6ED3E",
"C$	c #D5FF84",
"D$	c #ABF345",
"E$	c #75AD31",
"F$	c #1C0039",
"G$	c #76AE31",
"H$	c #ABF444",
"I$	c #ABF443",
"J$	c #AAF242",
"K$	c #008C2D",
"L$	c #D7FF84",
"M$	c #A7EE3D",
"N$	c #008D32",
"O$	c #A8EF42",
"P$	c #76AE32",
"Q$	c #77B031",
"R$	c #ACF643",
"S$	c #ABF442",
"T$	c #A9F241",
"U$	c #A9F140",
"V$	c #A7EF3E",
"W$	c #008D31",
"X$	c #A8F041",
"Y$	c #A8F042",
"Z$	c #A8F043",
"`$	c #ACF645",
" %	c #77B032",
".%	c #1B0039",
"+%	c #1C0038",
"@%	c #679B29",
"#%	c #98DD3B",
"$%	c #98DD3C",
"%%	c #97DA39",
"&%	c #007E2B",
"*%	c #007C29",
"=%	c #C1F877",
"-%	c #96D73A",
";%	c #96D73B",
">%	c #95D73C",
",%	c #96D73C",
"'%	c #97DA3D",
")%	c #98DD3E",
"!%	c #98DD3D",
"~%	c #679B2B",
"{%	c #633B47",
"]%	c #480040",
"^%	c #1D0038",
"/%	c #002B17",
"(%	c #385D1F",
"_%	c #2D521C",
":%	c #294E19",
"<%	c #000010",
"[%	c #4D643B",
"}%	c #214714",
"|%	c #214715",
"1%	c #224716",
"2%	c #234817",
"3%	c #254919",
"4%	c #264A1A",
"5%	c #274A1C",
"6%	c #274A1D",
"7%	c #27491E",
"8%	c #27491F",
"9%	c #274920",
"0%	c #264920",
"a%	c #274A20",
"b%	c #284B20",
"c%	c #2A4E21",
"d%	c #2D5221",
"e%	c #385C22",
"f%	c #002B19",
"g%	c #573A3B",
"h%	c #715944",
"i%	c #592E40",
"j%	c #4D003E",
"k%	c #4B003D",
"l%	c #4D003F",
"m%	c #4C0041",
"n%	c #4D0041",
"o%	c #592D41",
"p%	c #623D47",
"q%	c #877051",
"r%	c #A9925E",
"s%	c #8E6F5B",
"t%	c #815B58",
"u%	c #825B58",
"v%	c #815A57",
"w%	c #815957",
"x%	c #815857",
"y%	c #825958",
"z%	c #815959",
"A%	c #825B59",
"B%	c #A9925F",
"C%	c #340037",
"D%	c #836259",
"E%	c #846359",
"F%	c #846259",
"G%	c #84635A",
"H%	c #83625A",
"I%	c #887352",
"J%	c #7A6251",
"K%	c #724D4E",
"L%	c #724D4F",
"M%	c #6A3449",
"N%	c #9E855D",
"O%	c #320037",
"P%	c #28003C",
"Q%	c #816356",
"R%	c #674049",
"S%	c #5C2B43",
"T%	c #5E2C43",
"U%	c #6A3049",
"V%	c #A2895B",
"W%	c #9D845D",
"X%	c #7D5D55",
"Y%	c #310037",
"Z%	c #29003B",
"`%	c #68474F",
" &	c #805E57",
".&	c #673C49",
"+&	c #5B2142",
"@&	c #5B2344",
"#&	c #5B2244",
"$&	c #5B2143",
"%&	c #692949",
"&&	c #A1875B",
"*&	c #9D825D",
"=&	c #7C5955",
"-&	c #613047",
";&	c #2F0037",
">&	c #552442",
",&	c #6E424F",
"'&	c #550946",
")&	c #490042",
"!&	c #4A0042",
"~&	c #681949",
"{&	c #A1835B",
"]&	c #9C7E5E",
"^&	c #7B5355",
"/&	c #5F2048",
"(&	c #33003B",
"_&	c #22002E",
":&	c #48003E",
"<&	c #28003B",
"[&	c #0E003A",
"}&	c #12003A",
"|&	c #11003A",
"1&	c #660049",
"2&	c #9F7E5B",
"3&	c #9B785E",
"4&	c #794756",
"5&	c #5E0048",
"6&	c #3B0040",
"7&	c #000037",
"8&	c #9E765B",
"9&	c #996F5E",
"0&	c #773356",
"a&	c #5A0048",
"b&	c #380041",
"c&	c #3C6024",
"d&	c #6FA231",
"e&	c #70A431",
"f&	c #6FA332",
"g&	c #6FA232",
"h&	c #6FA132",
"i&	c #6EA132",
"j&	c #60004A",
"k&	c #9C6C5C",
"l&	c #97635E",
"m&	c #740056",
"n&	c #540048",
"o&	c #2D0041",
"p&	c #6B9B30",
"q&	c #A6EA45",
"r&	c #A5E945",
"s&	c #A2EA42",
"t&	c #A3EB42",
"u&	c #A4EB42",
"v&	c #A5EB43",
"w&	c #A5E944",
"x&	c #A4E744",
"y&	c #A3E644",
"z&	c #9FE243",
"A&	c #A0E144",
"B&	c #9FE044",
"C&	c #9EDD43",
"                        . . . .                                                                 . . . .                         ",
"                . . . . . . . . . . .                                                     . . . . . . . . . . .                 ",
"            . . + + + @ @ @ @ @ + + + + .                                             . + + + + @ @ @ @ @ + + + . .             ",
"          . + + @ @ @ # # # # # # @ @ + + + .                                     . + + + @ @ # # # # # # @ @ @ + + .           ",
"        . + @ @ $ % % % & & & & % % $ @ @ + + + . . . . . . . . . . . . . . . . + + + @ @ $ % % & & & & % % % $ @ @ + .         ",
"      . + @ # % & * * = = = - - - * ; % $ @ @ + + + + + + + + + + + + + + + + + + @ @ $ % ; * - - - = = = * * & % # @ + .       ",
"    . + @ $ % * - > , ' ) ) ) ! ~ { - ] ; % $ @ @ @ @ @ @ @ @ @ @ @ @ @ @ @ @ @ @ $ % ; ] - { ~ ! ) ) ) ' , > - * % $ @ + .     ",
"    + + @ % * ^ ~ / ( _ : : : < [ } | 1 2 ; 3 % $ $ $ $ $ $ $ $ $ $ $ $ $ $ $ $ % 3 ; 2 1 | } [ < : : : _ ( / ~ ^ * % @ @ + .   ",
"  . + @ $ ; - ~ 4 5 6 7 8 9 0 a b c d e f g 2 * ; ; ; ; ; ; ; ; ; ; ; ; ; ; ; ; * - g f e d c b a 0 9 8 7 6 5 4 ~ - ; $ @ + . . ",
"  . + @ % * { h 4 5 i j k l m n o c p q q | f { r ^ - - - - - - - - - - - - ^ r { f | q q p c o n m l k j i 5 4 h { * % @ @ + . ",
"  + @ $ 3 - f [ 4 5 s t u v w x o c y z A B q h h ! ! ! ! ! ! ! ! ! ! ! ! ! ! h h q B A z y c o x w v u t s 5 4 [ f - ; $ @ + . ",
". + @ $ ; C | B 4 5 D E F G H I b c J K L M < [ N N N N N N N N N N N N N N N N [ < M L K J c b I H G F E D 5 4 B | C ; $ @ + . ",
". + @ $ ; g O M 4 5 P Q R S T U V W X Y Z `  ...+.+.+.@.@.@.@.@.#.$.$.#.%.&.+.+... .` Z Y X W V U T S R Q P 5 4 M O g ; $ @ + + ",
". + @ $ ; g O *.4 5 =.-.;.>.,.'.).!.!.~.{.].^.^.^.^.^.^.^./.(._.:.<.[.#.^.^.^.^.^.^.].}.~.!.!.).'.,.>.;.-.=.5 4 *.O g ; $ @ + + ",
". + @ $ ; g O *.4 5 |.1.2.3.4.5.6.7.8.9.0.a.b.c.d.d.e.e.e.e.e.f.g.h.e.e.e.e.d.d.c.b.a.0.9.8.7.6.5.4.3.2.1.|.5 4 *.O 1 * $ @ + + ",
". + @ $ ; 1 } *.4 5 i.j.k.l.m.n.o.p.q.r.s.t.u.v.v.w.w.w.w.w.w.w.w.w.w.w.w.x.y.&.v.u.t.s.r.q.p.o.n.m.l.k.j.i.5 4 *.} 1 * % @ + + ",
". + @ $ * 1 } *.4 5 z.j.k.A.B.C.o.p.D.E.F.G.H.I.J.J.J.J.>.>.>.>.>.>.>.>.K.L.>.>.M.M.G.F.E.D.p.o.C.B.A.k.j.z.5 4 *.} 1 * % @ + + ",
". + @ $ * 1 } *.4 5 N.j.O.A.P.Q.o.R.S.T.U.V.W.X.X.X.X.X.X.X.X.V.X.X.X.X.(.Y.Y.X.X.W.V.U.Z.S.R.o.Q.P.A.O.j.N.5 4 `.} 1 * % @ + + ",
". + @ $ * 1 } `.4 5  +j.O..+++@+5 #+$+/.%+&+*+=+-+-+-+;+>+>+>+,+,+,+'+/.)+)+)+'+'+!+&+~+{+$+#+5 @+++.+O.j. +5 4 `.} 1 * % @ + + ",
". + @ $ * 1 } `.4 5  +j.O..+++]+5 ^+/+(+_+:+<+[+}+|+|+}+}+1+[+2+2+3+4+5+6+6+7+8+9+0+a+_+(+/+^+5 ]+++.+O.j. +5 4 `.} 1 * % @ + + ",
". + @ $ * 1 } `.4 5  +j.O.A.b+c+6.d+e+f+g+h+i+j+j+j+j+j+j+j+i+i+i+k+l+m+n+n+n+m+l+k+i+g+f+e+/.6.c+b+A.O.j. +5 4 `.} 1 * % @ + + ",
". + @ $ * 1 } `.4 5  +j.O.A.o+p+q+5 r+s+/.5 5 5 5 5 5 5 5 o.o.o.t+u+v+w+w+w+w+v+u+u+t+/.x+r+5 q+y+o+A.O.j. +5 4 `.} 1 * % @ + + ",
". + @ $ * 1 } `.4 5  +j.k.z+W.A+B+C+D+E+F+G+H+I+J+K.K+L+L+M+N+&.O+P+P+Q+Q+Q+R+S+T+U+V+W+X+Y+Z+B+A+W.z+k.j. +5 4 `.} 1 * % @ + + ",
". + @ $ * 1 } `.4 5 z.j.k.`+ @.@+@C+@@#@$@%@&@x._.L.*@*@*@=@-@;@>@,@'@)@Q+Q+h.K.!@~@{@#@]@^@C++@.@ @`+k.j.z.5 4 `.} 1 * % @ + + ",
". + @ $ * 1 } `.4 5 z.j.k./@(@_@:@<@[@}@|@1@2@g.3@4@5@5@5@6@6@6@x.h.7@8@9@8@8@f.#.x.0@a@}@b@<@:@_@(@/@k.j.z.5 4 `.} 1 * % @ + + ",
". + @ $ * 1 } `.4 5 z.j.k.3.c@d@e@<@f@g@h@i@K.f.z j@k@K._.'@P+%.l@m@&.n@n@o@p@q@_.3@r@0@g@f@<@e@d@s@3.k.j.z.5 4 `.} 1 * % @ + + ",
". + @ $ * 1 } `.4 5 z.j.k.3.K.d@t@<@f@h@1@i@L.z M k@k@O+u@v@,@w@w@w@x@n@n@n@y@m@z@L.x.A@g@f@<@t@d@s@3.k.j.z.5 4 `.} 1 * % @ + + ",
". + @ $ * 1 } `.4 5 z./.k.3.%.L.e@<@B@C@D@L.L.L A A A A h.,@P+z@z@z@E@E@E@E@E@F@G@H@I@J@K@L@<@e@d@(@3.k.j.z.5 4 `.} 1 * % @ + + ",
". + @ $ * 1 } `.4 5 z.(.k./@M@x.K.Z+N@O@P@h.h.Q@R@R@R@R@R@x.(.S@S@S@S@T@T@T@Q+%.U@U@V@P@W@X@Z+Y@_@M@/@k.j.z.5 4 `.} 1 * % @ + + ",
". + @ $ * 1 } `.4 5 N.h.h.l.Z@_@`@/. #.#+#h.@###$#%#%#%#&#*#*#=#=#=#-#-#-#'@;#'@>#,#'#+#.# #W `@_@Z@l.k.j.N.5 4 `.} 1 * % @ + + ",
". + @ $ * 1 } `.4 5 N._.)#z+!#~#{#]#^#/#(#h.g._#&.:#<#<#<#<#:#:#:#:#:#:#Q+<.[#'@}#|#1#2#/#^#]#{#~#!#z+&.j.N.5 4 `.} 1 * % @ + + ",
". + @ $ * 1 } `.4 5  +_.3#L.B.4#]#5#6#7#8#f.)#P+9#0#0#0#0#0#0#&.0#0#0#0#O+3@a#h.b#c#d#8#e#f#5#]#4#B.A.x.j. +5 4 `.} 1 * % @ + + ",
". + @ $ * 1 } `.4 5  +f.[.g#P.h#o.i#j#k#l#(.m#y.n#n#n#n#n#n#n#x.x.&.n#n#n#n#n#x.m#m#K+o#k#j#i#o.h#P.h.g.p# +5 4 `.} 1 * % @ + + ",
". + @ $ * 1 } `.4 5  +p##.f.q#r#o.d+s#t#u#/.v#v#%.w#w#w#w#w#&.x.x.v#v#v#v#v#v#v#O+x#y.u#t#s#d+o.r#q#3@:.h. +5 4 `.} 1 * % @ + + ",
". + @ $ * 1 } `.4 5  +p#(..+++y#o.z#A#B#C#D#E#F#y.3@h.(.G#G#H#I#&.I#I#I#J#J#F#F#P+3#P+C#B#A##+o.y#++f.u@P+ +5 4 `.} 1 * % @ + + ",
". + @ $ * 1 } `.4 5  +p#K#.+++L#5 ^+$+M#%+N#O#P#f.a#'@x.Q#Q#Q#R#R#S#T#T#U#-+-+K+=+$.P+V#M#$+^+5 W#++.+g.h. +5 4 `.} 1 * % @ + + ",
". + @ $ * 1 } `.4 5  +p#O..+++]+5 X#Y#Z#`# $_# $x.P+x..$.$.$.$<# $ $_#+$+$+$+$+$+$+$P+@$Z#Y#K+5 #$++.+(.(. +5 4 `.} 1 * % @ + + ",
". + @ $ * 1 } `.4 5  +p#O.A.b+$$%$&$*$=$-$;$>$,$K+(.'$)$!$~${$]$^$K.y.e@e@/$($($_$h.h.:$<$[$}$y.y.b+A.O.K+ +5 4 `.} 1 * % @ + + ",
". + @ $ * 1 } `.4 5  +j.O.A.o+|$1$2$Z+3$C+4$5$6$7$W 5$8$8$9$0$7$5$g.u@a$<@3$3$3$3$L.L.3$b$C+^.&$Q+x.A.O./. +5 4 `.} 1 * % @ + + ",
". + @ $ * 1 } `.4 5  +j.k.z+W.A+c$Z+d$e$e$x.h.f$g$h$i$j$k$l$m$h$n$u@o$a#O+p$p$q$q$O+r$s$s$t$C+c$A+O+z+k.j. +5 4 `.} 1 * % @ + + ",
". + @ $ * 1 } `.4 5 z.j.k.`+ @.@+@c u$v$w$x$_._.y$z$A$A$B$c@A$C$%.P+3@#.(.i@i@2@f.(.g@D$D@E$<@+@.@&.`+k.j.N.5 4 `.} 1 * % @ + + ",
". + @ $ * 1 } `.4 5 z.j.k./@M@_@F$c G$H$I$J$x.Q+x.K$K$L$M$L$y.K.N$O$H@r@r@r@r@g._.h@|@C@C@P$<@F$_@M@`+k.j.z.5 4 `.} 1 * % @ + + ",
". + @ $ * 1 } `.4 5 z.j.k./@M@_@`@c Q$R$S$T$U$L$K+(.(.K.V$g.)#W$X$Y$Z$H@r@r@O+#.x.A@|@C@`$ %<@.%_@M@/@k.j.z.5 4 `.} 1 * % @ + + ",
". + @ $ * 1 } `.4 5 z.j.k./@ @_@+%W @%#%$%%%&%*%=%=%(.K.f.h.h.K.&.-%;%;%>%&.I@,%V@V@'%)%!%~%Z+F$_@ @/@k.j.z.5 4 `.} 1 * % @ + + ",
". + @ $ * 1 } *.4 5 z.j.k.z+{%]%^%5$/%(%/._%:%<%4 [%}%|%1%2%3%4%5%6%7%8%9%0%9%a%b%c%d%/.e%f%W ^%_@Z@z+k.j.z.5 4 `.} 1 * % @ + + ",
". + @ $ * 1 } *.4 5 z.j.k.z+!#~#{#/.g%h%i%j%j%<$k%k%k%k%=$=$<$1#l%|#}#}#}#}#m%m%n%n%l%o%h%g%]#{#~#!#z+k.j.z.5 4 `.} 1 * % @ + + ",
". + @ $ * 1 } *.4 5 z.j.k.A.p%4#]#5#q%r%s%t%u%v%w%w%x%x%w%w%b#y%y%y%y%y%z%z%z%z%c#A%d#8#B%f#5#]#C%p%A.k.j.z.5 4 *.} 1 * % @ + + ",
". + @ $ * 1 } *.4 5 z.j.k.A.B.C.o.i#j#k#o#D%E%F%F%F%F%F%/.F%F%F%F%m#m#m#m#m#m#m#m#G%H%o#/.I%i#o.C.B.A.k.j.z.5 4 *.} 1 * % @ + + ",
". + @ $ ; 1 } *.4 5 i.j.k.z+B.C.o.d+J%t#u#K%v#v#v#v#v#K.v#v#v#v#v#v#x#x#x#x#x#x#x#x#L%u#t#J%d+o.C.B.z+k.j.i.5 4 *.} 1 * % @ + + ",
". + @ $ ; g O *.4 5 M%1.N%/@m.O%5 P%$+Q%R%S%I#I#I#H#Q+%.I#I#I#T%T%T%T%I#I#I#I#I#I#I#S%R%Q%$+P%5 O%m./@N%1.M%5 4 *.O 1 * $ @ + + ",
". + @ $ ; g O *.4 5 U%V%W%X%4.Y%5 Z%`% &.&+&@&#&&.y.y.#&#&#&#&#&#&#&#&#&#&#&#&#&#&@&$&.& &`%Z%5 Y%4.X%W%V%U%5 4 *.O g ; $ @ + + ",
". + @ $ ; g O M 4 5 %&&&*&=&-&;&u+5 >&,&'&)&!&!&!&!&!&!&!&!&f.g.h.!&!&!&!&!&!&!&!&!&)&'&,&>&5 u+;&-&=&*&&&%&5 4 M O g ; $ @ + + ",
". + @ $ ; C | B 4 5 ~&{&]&^&/&(&t+6$_&:&<&[&}&}&|&|&|&|&(.Q+)#[.#.K./.|&|&|&|&|&}&}&[&<&:&_&6$t+(&/&^&]&{&~&5 4 B | C ; $ @ + . ",
"  + @ $ 3 - f [ 4 5 1&2&3&4&5&6&7&5$0$b$3$3$3$3$3$3$/.K+(.x.y.O+3$3$3$3$3$3$3$3$3$3$3$3$b$0$5$7&6&5&4&3&2&1&5 4 [ f - ; $ @ + . ",
"  . + @ % * { h 4 5 i 8&9&0&a&b&o C+c&d&e&f&g&h&i&i&i&i&i&i&i&i&i&i&i&i&i&i&i&i&h&g&f&e&d&c&C+o b&a&0&9&8&i 5 4 h { * % @ @ + . ",
"  . + @ $ ; - ~ 4 5 j&k&l&m&n&o&o <@p&[ q&q&r&r&r&r&r&r&r&r&r&r&r&r&r&r&r&r&r&r&r&r&q&q&[ p&<@o o&n&m&l&k&j&5 4 ~ - ; $ @ + . . ",
"    + + @ % * ^ ~ / ( s&: t&u&v&M M k@w&q q x&x&O O O y&y&y&y&y&y&y&y&y&y&O O O x&x&q q w&k@M M v&u&t&: s&( / ~ ^ * % @ @ + .   ",
"    . + @ $ % * - > , ' ) ) / / ! y&f f e 1 g g g g g g g g g g g g g g g g g g g g 1 e f f y&! / / ) ) ' , > - * % $ @ + .     ",
"      . + @ # % & * z&z&= ^ ^ ^ ^ - 2 A&A&A&B&B&B&B&B&B&B&B&B&B&B&B&B&B&B&B&B&B&B&B&A&A&A&2 - ^ ^ ^ ^ = z&z&* & % # @ + .       ",
"        . + @ @ $ % % & & & & ; ; ; 3 % % $ $ $ $ $ $ $ $ $ $ $ $ $ $ $ $ $ $ $ $ $ $ % % 3 ; ; ; & & & & % % $ @ @ + .         ",
"          . + @ @ @ # # # # $ $ $ $ $ C&@ @ @ @ @ @ @ @ @ @ @ @ @ @ @ @ @ @ @ @ @ @ @ @ C&$ $ $ $ $ # # # # @ @ @ + .           ",
"            . . + + @ @ @ @ @ @ @ @ @ + + + + + + + + + + + + + + + + + + + + + + + + + + @ @ @ @ @ @ @ @ @ + + . .             ",
"              . . . . . + + + + + + + + + + . . . . . . . . . . . . . . . . . . . . + + + + + + + + + + . . . . .               ",
"                . . . . . . . . . . . . . .                                         . . . . . . . . . . . . . .                 "};
