/* XPM */
static char * anim11_xpm[] = {
"64 64 728 2",
"  	c #9CDB43",
". 	c #9CDC43",
"+ 	c #9DDC43",
"@ 	c #9DDD43",
"# 	c #9DDE43",
"$ 	c #9EDE43",
"% 	c #9EDF43",
"& 	c #9EE043",
"* 	c #9FE143",
"= 	c #9FE242",
"- 	c #A0E243",
"; 	c #9FE043",
"> 	c #A0E443",
", 	c #A0E543",
"' 	c #A1E542",
") 	c #A1E642",
"! 	c #A2E643",
"~ 	c #A1E543",
"{ 	c #A1E443",
"] 	c #A0E143",
"^ 	c #A0E343",
"/ 	c #A2E743",
"( 	c #A2E842",
"_ 	c #A2E942",
": 	c #A3EA42",
"< 	c #A4EA43",
"[ 	c #A4E943",
"} 	c #A3E844",
"| 	c #A2E644",
"1 	c #A1E444",
"2 	c #A0E244",
"3 	c #9FDF43",
"4 	c #00000D",
"5 	c #00002F",
"6 	c #5F004A",
"7 	c #9C6B5C",
"8 	c #96615E",
"9 	c #730056",
"0 	c #520048",
"a 	c #270041",
"b 	c #000038",
"c 	c #000020",
"d 	c #669431",
"e 	c #A2E444",
"f 	c #A2E544",
"g 	c #A1E344",
"h 	c #A3E743",
"i 	c #630049",
"j 	c #9E755B",
"k 	c #996D5E",
"l 	c #762D56",
"m 	c #570048",
"n 	c #320041",
"o 	c #000039",
"p 	c #6A9B31",
"q 	c #A4E844",
"r 	c #A1E343",
"s 	c #650049",
"t 	c #9F7D5B",
"u 	c #9A765E",
"v 	c #784356",
"w 	c #5B0048",
"x 	c #390041",
"y 	c #6DA131",
"z 	c #A6EB44",
"A 	c #A6EC44",
"B 	c #A4EA44",
"C 	c #A0E344",
"D 	c #671649",
"E 	c #A0835B",
"F 	c #9C7C5E",
"G 	c #7A4F55",
"H 	c #5E0448",
"I 	c #3F0041",
"J 	c #6FA430",
"K 	c #A5EC43",
"L 	c #A6ED44",
"M 	c #A5EB44",
"N 	c #A3E843",
"O 	c #A3E744",
"P 	c #692749",
"Q 	c #A1865B",
"R 	c #9C805D",
"S 	c #7C5655",
"T 	c #602547",
"U 	c #430041",
"V 	c #090038",
"W 	c #00001D",
"X 	c #3D6B20",
"Y 	c #6EA42D",
"Z 	c #6DA42F",
"` 	c #6BA32E",
" .	c #6AA12E",
"..	c #69A02E",
"+.	c #699F2E",
"@.	c #689F2E",
"#.	c #A5EC44",
"$.	c #692F49",
"%.	c #A2885B",
"&.	c #9D835D",
"*.	c #7D5B55",
"=.	c #623147",
"-.	c #41003F",
";.	c #010036",
">.	c #000025",
",.	c #32002C",
"'.	c #0C002A",
").	c #000028",
"!.	c #000027",
"~.	c #5009C7",
"{.	c #3800B6",
"].	c #0B002A",
"^.	c #6A3349",
"/.	c #A28A5B",
"(.	c #9D855D",
"_.	c #7D5E55",
":.	c #613847",
"<.	c #36003A",
"[.	c #000031",
"}.	c #140038",
"|.	c #765D4A",
"1.	c #967E57",
"2.	c #7D5954",
"3.	c #714251",
"4.	c #714152",
"5.	c #713F52",
"6.	c #713E52",
"7.	c #713D52",
"8.	c #2D00A5",
"9.	c #6A3649",
"0.	c #A28B5B",
"a.	c #9E865D",
"b.	c #7D6055",
"c.	c #623C47",
"d.	c #310036",
"e.	c #00002E",
"f.	c #29003C",
"g.	c #897454",
"h.	c #AC9660",
"i.	c #92725D",
"j.	c #855F5B",
"k.	c #86605B",
"l.	c #865F5B",
"m.	c #865E5B",
"n.	c #6A3749",
"o.	c #7E6155",
"p.	c #623E47",
"q.	c #320036",
"r.	c #836D51",
"s.	c #A38E5D",
"t.	c #8A6C59",
"u.	c #7C5B56",
"v.	c #7E5C56",
"w.	c #7D5C56",
"x.	c #7D5B56",
"y.	c #2B00A3",
"z.	c #7D5C55",
"A.	c #6A3849",
"B.	c #9E875D",
"C.	c #623F47",
"D.	c #330836",
"E.	c #28003A",
"F.	c #70554F",
"G.	c #896F58",
"H.	c #704C4C",
"I.	c #653A47",
"J.	c #643B47",
"K.	c #643A47",
"L.	c #643947",
"M.	c #896F57",
"N.	c #A5ED44",
"O.	c #6B3849",
"P.	c #7E6255",
"Q.	c #634047",
"R.	c #340B36",
"S.	c #2A003B",
"T.	c #6A4B4E",
"U.	c #806157",
"V.	c #673F48",
"W.	c #5B2942",
"X.	c #5C2744",
"Y.	c #5C2644",
"Z.	c #5C2544",
"`.	c #5D2544",
" +	c #5D2644",
".+	c #5D2643",
"++	c #5C2543",
"@+	c #5C2443",
"#+	c #5C2743",
"$+	c #663F48",
"%+	c #806156",
"&+	c #340937",
"*+	c #2C003B",
"=+	c #66444D",
"-+	c #7B5954",
";+	c #613347",
">+	c #551743",
",+	c #571243",
"'+	c #570F43",
")+	c #570D43",
"!+	c #570C43",
"~+	c #570E43",
"{+	c #571043",
"]+	c #570F42",
"^+	c #570D42",
"/+	c #560A42",
"(+	c #560842",
"_+	c #560942",
":+	c #560B42",
"<+	c #560F42",
"[+	c #571342",
"}+	c #551742",
"|+	c #633F47",
"1+	c #360237",
"2+	c #2A003C",
"3+	c #531E45",
"4+	c #602D48",
"5+	c #450042",
"6+	c #38003F",
"7+	c #37003F",
"8+	c #36003F",
"9+	c #36003E",
"0+	c #35003E",
"a+	c #35003D",
"b+	c #34003D",
"c+	c #643D47",
"d+	c #40023C",
"e+	c #050035",
"f+	c #1D0030",
"g+	c #250030",
"h+	c #00002D",
"i+	c #00002C",
"j+	c #00002B",
"k+	c #00002A",
"l+	c #260030",
"m+	c #40033C",
"n+	c #7E6055",
"o+	c #490041",
"p+	c #220039",
"q+	c #00001F",
"r+	c #00291B",
"s+	c #395B22",
"t+	c #355724",
"u+	c #325224",
"v+	c #304E24",
"w+	c #2E4B24",
"x+	c #2D4924",
"y+	c #2D4824",
"z+	c #2C4824",
"A+	c #2E4924",
"B+	c #2E4923",
"C+	c #2F4A22",
"D+	c #2F4A21",
"E+	c #52653E",
"F+	c #51643D",
"G+	c #50633D",
"H+	c #29471C",
"I+	c #50643D",
"J+	c #51653D",
"K+	c #52663E",
"L+	c #304F21",
"M+	c #335322",
"N+	c #365823",
"O+	c #395C21",
"P+	c #002A1B",
"Q+	c #00001E",
"R+	c #7E5F55",
"S+	c #633947",
"T+	c #480041",
"U+	c #1E0039",
"V+	c #689A2C",
"W+	c #99DC3E",
"X+	c #99DC3F",
"Y+	c #98DA3F",
"Z+	c #97D83F",
"`+	c #96D73F",
" @	c #96D63F",
".@	c #4100C2",
"+@	c #6C19D1",
"@@	c #731DD4",
"#@	c #3600B3",
"$@	c #C2F778",
"%@	c #C2F779",
"&@	c #97D83C",
"*@	c #97D93D",
"=@	c #98DA3E",
"-@	c #99DC3D",
";@	c #689B2B",
">@	c #7D5F55",
",@	c #633647",
"'@	c #470041",
")@	c #1A0039",
"!@	c #000021",
"~@	c #76AE33",
"{@	c #ACF545",
"]@	c #AAF245",
"^@	c #A9F045",
"/@	c #A8EF45",
"(@	c #240098",
"_@	c #A7ED45",
":@	c #A7EC45",
"<@	c #A7ED44",
"[@	c #008833",
"}@	c #D7FF85",
"|@	c #A6EC40",
"1@	c #008933",
"2@	c #008B34",
"3@	c #A9EF43",
"4@	c #AAF144",
"5@	c #ABF344",
"6@	c #77AE32",
"7@	c #633547",
"8@	c #460041",
"9@	c #170039",
"0@	c #74AB32",
"a@	c #AAF145",
"b@	c #A9F145",
"c@	c #A8EE45",
"d@	c #A6EC45",
"e@	c #A6EA44",
"f@	c #A5EA44",
"g@	c #A6EB43",
"h@	c #A6EB42",
"i@	c #A5EA41",
"j@	c #D6FF85",
"k@	c #008432",
"l@	c #008633",
"m@	c #A7EC42",
"n@	c #A8EF44",
"o@	c #160039",
"p@	c #A7EC44",
"q@	c #A5EA43",
"r@	c #A5EA42",
"s@	c #A5EB41",
"t@	c #A6EC43",
"u@	c #A7ED43",
"v@	c #A9F144",
"w@	c #75AD32",
"x@	c #ABF445",
"y@	c #A9F244",
"z@	c #A8F044",
"A@	c #A7EE44",
"B@	c #A6EC42",
"C@	c #A7ED42",
"D@	c #A7EE43",
"E@	c #A8EF43",
"F@	c #AAF244",
"G@	c #ABF544",
"H@	c #76AD32",
"I@	c #190038",
"J@	c #66992A",
"K@	c #97DB3D",
"L@	c #97DB3E",
"M@	c #96D83C",
"N@	c #95D63C",
"O@	c #94D53C",
"P@	c #94D43C",
"Q@	c #6917D0",
"R@	c #94D43B",
"S@	c #94D43A",
"T@	c #94D53B",
"U@	c #95D63B",
"V@	c #98DB3D",
"W@	c #669A2A",
"X@	c #633847",
"Y@	c #633A47",
"Z@	c #1B0038",
"`@	c #002518",
" #	c #365A21",
".#	c #315521",
"+#	c #264820",
"@#	c #234520",
"##	c #214320",
"$#	c #204220",
"%#	c #204120",
"&#	c #20421F",
"*#	c #21421F",
"=#	c #20421E",
"-#	c #21431E",
";#	c #4905C5",
">#	c #23451E",
",#	c #25471F",
"'#	c #274A1F",
")#	c #2A4E20",
"!#	c #633C47",
"~#	c #3E003C",
"{#	c #000034",
"]#	c #000030",
"^#	c #56383B",
"/#	c #705744",
"(#	c #582841",
"_#	c #3200AE",
":#	c #4C0041",
"<#	c #4B0041",
"[#	c #4B0040",
"}#	c #4A0040",
"|#	c #4402C3",
"1#	c #4C0040",
"2#	c #4D0040",
"3#	c #4C003F",
"4#	c #582941",
"5#	c #340036",
"6#	c #27003B",
"7#	c #866F51",
"8#	c #A8915F",
"9#	c #8E6E5C",
"0#	c #815959",
"a#	c #815859",
"b#	c #815758",
"c#	c #815858",
"d#	c #815958",
"e#	c #825A59",
"f#	c #815A59",
"g#	c #A8925F",
"h#	c #876F51",
"i#	c #3F00C0",
"j#	c #A28C5B",
"k#	c #320336",
"l#	c #2B003C",
"m#	c #887452",
"n#	c #AA9660",
"o#	c #90725B",
"p#	c #530BC9",
"q#	c #84625A",
"r#	c #84615A",
"s#	c #90735B",
"t#	c #624047",
"u#	c #330A36",
"v#	c #7A6351",
"w#	c #977F5A",
"x#	c #7E5F53",
"y#	c #734E4E",
"z#	c #734D4E",
"A#	c #734E4F",
"B#	c #330E36",
"C#	c #2A003A",
"D#	c #6B4D4E",
"E#	c #816456",
"F#	c #684249",
"G#	c #3100AB",
"H#	c #5D2E43",
"I#	c #5D2D43",
"J#	c #5D2C43",
"K#	c #5D2C42",
"L#	c #5D2B42",
"M#	c #5D2B43",
"N#	c #5E2D43",
"O#	c #7920D6",
"P#	c #340E36",
"Q#	c #5B2643",
"R#	c #5B2543",
"S#	c #5B2443",
"T#	c #5B2343",
"U#	c #5B2243",
"V#	c #5B2444",
"W#	c #5C2444",
"X#	c #673F49",
"Y#	c #340E37",
"Z#	c #2C003D",
"`#	c #5F3849",
" $	c #70494F",
".$	c #561D46",
"+$	c #4A0041",
"@$	c #490040",
"#$	c #4B0042",
"$$	c #571D46",
"%$	c #2D003D",
"&$	c #350A37",
"*$	c #3B063A",
"=$	c #000033",
"-$	c #1E0037",
";$	c #42003C",
">$	c #4B003E",
",$	c #2D003A",
"'$	c #170038",
")$	c #180038",
"!$	c #160037",
"~$	c #140036",
"{$	c #0D0035",
"]$	c #0C0035",
"^$	c #0C0036",
"/$	c #0E0036",
"($	c #100037",
"_$	c #130037",
":$	c #17003A",
"<$	c #18003A",
"[$	c #19003A",
"}$	c #1A003A",
"|$	c #2E003B",
"1$	c #4C003E",
"2$	c #42003D",
"3$	c #1F0037",
"4$	c #3B073A",
"5$	c #460D3F",
"6$	c #1D0037",
"7$	c #000026",
"8$	c #000022",
"9$	c #00001C",
"0$	c #00001B",
"a$	c #000019",
"b$	c #000016",
"c$	c #000017",
"d$	c #000018",
"e$	c #000024",
"f$	c #210039",
"g$	c #497623",
"h$	c #75AC2F",
"i$	c #73AA2F",
"j$	c #72A82E",
"k$	c #71A72C",
"l$	c #71A62B",
"m$	c #97C260",
"n$	c #97C25F",
"o$	c #97C15F",
"p$	c #6FA529",
"q$	c #6FA52A",
"r$	c #97C160",
"s$	c #98C261",
"t$	c #71A632",
"u$	c #72A632",
"v$	c #72A733",
"w$	c #73A933",
"x$	c #74AA33",
"y$	c #75AC31",
"z$	c #497624",
"A$	c #75AD30",
"B$	c #A9F242",
"C$	c #AAF343",
"D$	c #A9F142",
"E$	c #A9F041",
"F$	c #A8EF40",
"G$	c #008F2F",
"H$	c #008E2E",
"I$	c #D5FF83",
"J$	c #A6ED3E",
"K$	c #D5FF84",
"L$	c #A8EE41",
"M$	c #A8EE42",
"N$	c #A8EE43",
"O$	c #A8EE44",
"P$	c #A9EF45",
"Q$	c #ABF345",
"R$	c #75AD31",
"S$	c #1C0039",
"T$	c #76AE31",
"U$	c #ABF444",
"V$	c #ABF443",
"W$	c #AAF242",
"X$	c #D8FF85",
"Y$	c #D8FF84",
"Z$	c #D7FF84",
"`$	c #008C2D",
" %	c #A7EE3D",
".%	c #008D30",
"+%	c #008D32",
"@%	c #A8EF42",
"#%	c #76AE32",
"$%	c #77B031",
"%%	c #ACF643",
"&%	c #ABF442",
"*%	c #A9F241",
"=%	c #A7EF3D",
"-%	c #A7EF3E",
";%	c #008D2F",
">%	c #008D31",
",%	c #A8F041",
"'%	c #A8F042",
")%	c #A8F043",
"!%	c #A9F044",
"~%	c #ACF645",
"{%	c #77B032",
"]%	c #1B0039",
"^%	c #1C0038",
"/%	c #679B29",
"(%	c #98DD3B",
"_%	c #98DD3C",
":%	c #97DA39",
"<%	c #007E2B",
"[%	c #007C29",
"}%	c #C1F877",
"|%	c #94D635",
"1%	c #94D636",
"2%	c #6616CF",
"3%	c #96D739",
"4%	c #96D73A",
"5%	c #96D73B",
"6%	c #95D73C",
"7%	c #96D73C",
"8%	c #97DA3D",
"9%	c #98DD3E",
"0%	c #98DD3D",
"a%	c #679B2B",
"b%	c #633B47",
"c%	c #480040",
"d%	c #1D0038",
"e%	c #002B17",
"f%	c #385D1F",
"g%	c #33591E",
"h%	c #2D521C",
"i%	c #294E19",
"j%	c #000010",
"k%	c #4D643B",
"l%	c #214714",
"m%	c #27491E",
"n%	c #27491F",
"o%	c #274920",
"p%	c #264920",
"q%	c #274A20",
"r%	c #284B20",
"s%	c #2A4E21",
"t%	c #2D5221",
"u%	c #345821",
"v%	c #385C22",
"w%	c #002B19",
"x%	c #573A3B",
"y%	c #715944",
"z%	c #592E40",
"A%	c #4D003E",
"B%	c #4B003D",
"C%	c #4D003F",
"D%	c #4D0041",
"E%	c #592D41",
"F%	c #623D47",
"G%	c #877051",
"H%	c #A9925E",
"I%	c #8E6F5B",
"J%	c #815B58",
"K%	c #825B58",
"L%	c #815A57",
"M%	c #815957",
"N%	c #815857",
"O%	c #825958",
"P%	c #825B59",
"Q%	c #A9925F",
"R%	c #340037",
"S%	c #836259",
"T%	c #846359",
"U%	c #846259",
"V%	c #84635A",
"W%	c #83625A",
"X%	c #887352",
"Y%	c #7A6251",
"Z%	c #724D4E",
"`%	c #724D4F",
" &	c #6A3449",
".&	c #9E855D",
"+&	c #320037",
"@&	c #28003C",
"#&	c #816356",
"$&	c #674049",
"%&	c #5C2B43",
"&&	c #5E2C43",
"*&	c #6A3049",
"=&	c #A2895B",
"-&	c #9D845D",
";&	c #7D5D55",
">&	c #310037",
",&	c #29003B",
"'&	c #68474F",
")&	c #805E57",
"!&	c #673C49",
"~&	c #5B2142",
"{&	c #5B2344",
"]&	c #5B2244",
"^&	c #5B2144",
"/&	c #5B2143",
"(&	c #692949",
"_&	c #A1875B",
":&	c #9D825D",
"<&	c #7C5955",
"[&	c #613047",
"}&	c #2F0037",
"|&	c #552442",
"1&	c #6E424F",
"2&	c #550946",
"3&	c #490042",
"4&	c #4A0042",
"5&	c #681949",
"6&	c #A1835B",
"7&	c #9C7E5E",
"8&	c #7B5355",
"9&	c #5F2048",
"0&	c #33003B",
"a&	c #22002E",
"b&	c #48003E",
"c&	c #28003B",
"d&	c #0E003A",
"e&	c #12003A",
"f&	c #11003A",
"g&	c #660049",
"h&	c #9F7E5B",
"i&	c #9B785E",
"j&	c #794756",
"k&	c #5E0048",
"l&	c #3B0040",
"m&	c #000037",
"n&	c #9E765B",
"o&	c #996F5E",
"p&	c #773356",
"q&	c #5A0048",
"r&	c #380041",
"s&	c #3C6024",
"t&	c #6FA231",
"u&	c #70A431",
"v&	c #6FA332",
"w&	c #6FA232",
"x&	c #6FA132",
"y&	c #6EA132",
"z&	c #60004A",
"A&	c #9C6C5C",
"B&	c #97635E",
"C&	c #740056",
"D&	c #540048",
"E&	c #2D0041",
"F&	c #6B9B30",
"G&	c #A6EA45",
"H&	c #A5E945",
"I&	c #A2EA42",
"J&	c #A3EB42",
"K&	c #A4EB42",
"L&	c #A5EB43",
"M&	c #A5E944",
"N&	c #A4E744",
"O&	c #A3E644",
"P&	c #9FE243",
"Q&	c #A0E144",
"R&	c #9FE044",
"S&	c #9EDD43",
"                        . . . .                                                                 . . . .                         ",
"                . . . . . . . . . . .                                                     . . . . . . . . . . .                 ",
"            . . + + + @ @ @ @ @ + + + + .                                             . + + + + @ @ @ @ @ + + + . .             ",
"          . + + @ @ @ # # # # # # @ @ + + + .                                     . + + + @ @ # # # # # # @ @ @ + + .           ",
"        . + @ @ $ % % % & & & & % % $ @ @ + + + . . . . . . . . . . . . . . . . + + + @ @ $ % % & & & & % % % $ @ @ + .         ",
"      . + @ # % & * * = = = - - - * ; % $ @ @ + + + + + + + + + + + + + + + + + + @ @ $ % ; * - - - = = = * * & % # @ + .       ",
"    . + @ $ % * - > , ' ) ) ) ! ~ { - ] ; % $ @ @ @ @ @ @ @ @ @ @ @ @ @ @ @ @ @ @ $ % ; ] - { ~ ! ) ) ) ' , > - * % $ @ + .     ",
"    + + @ % * ^ ~ / ( _ : : : < [ } | 1 2 ; 3 % $ $ $ $ $ $ $ $ $ $ $ $ $ $ $ $ % 3 ; 2 1 | } [ < : : : _ ( / ~ ^ * % @ @ + .   ",
"  . + @ $ ; - ~ 4 5 6 7 8 9 0 a b c d e f g 2 * ; ; ; ; ; ; ; ; ; ; ; ; ; ; ; ; * - g f e d c b a 0 9 8 7 6 5 4 ~ - ; $ @ + . . ",
"  . + @ % * { h 4 5 i j k l m n o c p q q | f { r ^ - - - - - - - - - - - - ^ r { f | q q p c o n m l k j i 5 4 h { * % @ @ + . ",
"  + @ $ 3 - f [ 4 5 s t u v w x o c y z A B q h h ! ! ! ! ! ! ! ! ! ! ! ! ! ! h h q B A z y c o x w v u t s 5 4 [ f - ; $ @ + . ",
". + @ $ ; C | B 4 5 D E F G H I b c J K L M < [ N N N N N N N N N N N N N N N N [ < M L K J c b I H G F E D 5 4 B | C ; $ @ + . ",
". + @ $ ; g O M 4 5 P Q R S T U V W X Y Z `  ...+.+.+.@.@.@.@.@.@.@.@.@.@.@.+.+... .` Z Y X W V U T S R Q P 5 4 M O g ; $ @ + + ",
". + @ $ ; g O #.4 5 $.%.&.*.=.-.;.>.>.,.'.).!.!.!.!.!.!.!.!.!.~.{.!.!.!.!.!.!.!.!.!.).].,.>.>.;.-.=.*.&.%.$.5 4 #.O g ; $ @ + + ",
". + @ $ ; g O #.4 5 ^./.(._.:.<.[.}.|.1.2.3.4.5.6.6.7.7.7.8.~.~.7.7.7.7.7.7.6.6.5.4.3.2.1.|.}.[.<.:._.(./.^.5 4 #.O 1 * $ @ + + ",
". + @ $ ; 1 } #.4 5 9.0.a.b.c.d.e.f.g.h.i.j.k.l.l.m.m.m.m.m.m.m.m.m.m.m.m.m.m.l.l.k.j.i.h.g.f.e.d.c.b.a.0.9.5 4 #.} 1 * % @ + + ",
". + @ $ * 1 } #.4 5 n.0.a.o.p.q.e.f.r.s.t.u.v.w.x.x.x.x.*.*.*.*.*.*.*.*.*.y.*.*.z.z.u.t.s.r.f.e.q.p.o.a.0.n.5 4 #.} 1 * % @ + + ",
". + @ $ * 1 } #.4 5 A.0.B.o.C.D.e.E.F.G.H.I.J.K.K.K.K.K.K.K.K.I.K.K.K.K.y.L.L.K.K.J.I.H.M.F.E.e.D.C.o.B.0.A.5 4 N.} 1 * % @ + + ",
". + @ $ * 1 } N.4 5 O.0.B.P.Q.R.5 S.T.U.V.W.X.Y.Z.Z.Z.`. + + +.+.+.+++++@+@+@+++++#+W.$+%+T.S.5 R.Q.P.B.0.O.5 4 N.} 1 * % @ + + ",
". + @ $ * 1 } N.4 5 O.0.B.P.Q.&+5 *+=+-+;+>+,+'+)+!+!+)+)+~+'+{+{+]+^+/+(+(+_+:+<+[+}+;+-+=+*+5 &+Q.P.B.0.O.5 4 N.} 1 * % @ + + ",
". + @ $ * 1 } N.4 5 O.0.B.o.|+1+[.2+3+4+5+6+7+8+8+8+8+8+8+8+7+7+7+9+0+a+b+b+b+a+0+9+7+5+4+3+2+[.1+|+o.B.0.O.5 4 N.} 1 * % @ + + ",
". + @ $ * 1 } N.4 5 O.0.B.o.c+d+e+5 f+g+5 5 5 5 5 5 5 5 5 e.e.e.h+i+j+k+k+k+k+j+i+i+h+e.l+f+5 e+m+c+o.B.0.O.5 4 N.} 1 * % @ + + ",
". + @ $ * 1 } N.4 5 O.0.a.n+J.o+p+q+r+s+t+u+v+w+x+y+z+y+y+A+B+C+D+E+F+G+H+H+I+J+K+L+M+N+O+P+Q+p+o+J.n+a.0.O.5 4 N.} 1 * % @ + + ",
". + @ $ * 1 } N.4 5 n.0.a.R+S+T+U+q+V+W+X+Y+Z+`+`+`+ @ @ @`+y..@+@@@~.#@y.$@$@%@&@*@=@W+-@;@q+U+T+S+R+a.0.n.5 4 N.} 1 * % @ + + ",
". + @ $ * 1 } N.4 5 n.0.a.>@,@'@)@!@~@{@]@^@/@(@_@_@:@:@:@<@<@<@+@@@[@}@|@}@}@1@2@3@4@5@{@6@!@)@'@,@>@a.0.n.5 4 N.} 1 * % @ + + ",
". + @ $ * 1 } N.4 5 n.0.a._.7@8@9@!@0@a@b@c@_@d@z e@f@f@e@e@e@z g@h@h@i@i@j@k@l@m@(@n@4@a@0@!@9@8@7@_.a.0.n.5 4 N.} 1 * % @ + + ",
". + @ $ * 1 } N.4 5 n.0.a._.7@8@o@!@0@b@^@c@p@z M f@f@f@f@f@f@q@q@q@r@i@i@i@s@h@t@u@n@v@a@0@!@o@8@7@_.a.0.n.5 4 N.} 1 * % @ + + ",
". + @ $ * 1 } N.4 5 n.0.a._.,@8@9@!@w@x@y@z@A@L A A A {.~.{.t@t@t@t@B@B@B@B@B@C@D@E@z@F@G@H@!@9@8@,@_.a.0.n.5 4 N.} 1 * % @ + + ",
". + @ $ * 1 } N.4 5 n.0.a.>@y.'@I@Q+J@K@L@M@N@O@P@P@P@P@Q@P@P@R@R@R@R@S@S@S@S@T@U@U@M@L@V@W@Q+I@'@X@>@a.0.n.5 4 N.} 1 * % @ + + ",
". + @ $ * 1 } N.4 5 A.0.a.b.Y@y.Z@W `@ #.#y.+#@###$#$#$#%#y.&#*#*#*#=#=#=#-#;#>#,#'#)#.# #`@W Z@'@Y@b.a.0.A.5 4 N.} 1 * % @ + + ",
". + @ $ * 1 } N.4 5 A.0.a.n+!#~#{#]#^#/#(#_#:#<#[#[#}#}#}#}#[#[#[#[#[#[#[#|#;#{.1#2#3#4#/#^#]#{#~#!#n+(@0.A.5 4 N.} 1 * % @ + + ",
". + @ $ * 1 } N.4 5 O.0.B.o.p.5#]#6#7#8#9#;#0#a#a#b#b#b#b#b#b#b#b#b#b#b#y.c#c#c#d#e#f#9#g#h#6#]#5#p.o.i#0.O.5 4 N.} 1 * % @ + + ",
". + @ $ * 1 } N.4 5 O.j#B.o.C.k#e.l#m#n#o#p#p#q#r#r#r#r#r#r#r#r#r#r#r#r#r#r#r#q#q#q#8.s#n#m#l#e.k#C.o.i#i#O.5 4 N.} 1 * % @ + + ",
". + @ $ * 1 } N.4 5 O.j#B.P.t#u#e.2+v#w#x#~.~.y#y#z#z#z#z#z#z#z#z#y#y#y#y#y#y#y#A#A#~.x#w#v#2+e.u#t#P.B.#@O.5 4 N.} 1 * % @ + + ",
". + @ $ * 1 } N.4 5 O.y.B.P.Q.B#e.C#D#E#F#G#H#I#J#J#K#L#L#L#M#J#J#J#J#J#N#N#I#I#I#O#O#F#E#D#S.e.B#Q.P.B.j#O.5 4 N.} 1 * % @ + + ",
". + @ $ * 1 } N.4 5 O.G#G#P.Q.P#5 *+T.U.V.(@Q#R#S#S#T#U#U#U#U#T#T#S#V#V#W#Z.Z.Z.Y.O#O#X#U.T.*+5 Y#Q.P.B.j#O.5 4 N.} 1 * % @ + + ",
". + @ $ * 1 } N.4 5 O.j#G#P.Q.&+5 Z#`# $.$+$<#+$}#y.}#(@@$@$@$}#+$+$<##$#$#$#$#$#$#$~.$$ $`#%$5 &$Q.P.B.j#O.5 4 N.} 1 * % @ + + ",
". + @ $ * 1 } N.4 5 O.j#(@o.|+*$=$-$;$>$,$'$)$!$~$G#{.{$]$^$/$($_$}.o@9@9@:$<$<$[$}${.|$1$2$3$=$4$|+o.B.j#O.5 4 N.} 1 * % @ + + ",
". + @ $ * 1 } N.4 5 O.0.B.o.c+5$6$7$Q+8$q+Q+9$0$a$y.9$b$b$c$d$a$9$W ;#c !@8$8$8$8$8$y.8$e$q+!.-$y.c+o.B.0.O.5 4 N.} 1 * % @ + + ",
". + @ $ * 1 } N.4 5 O.0.a.n+J.o+f$Q+g$h$h$i$j$k$l$m$n$o$p$q$r$m$s$#@;#i#t$u$u$v$v$w$x$y$y$z$q+f$o+y.n+a.0.O.5 4 N.} 1 * % @ + + ",
". + @ $ * 1 } N.4 5 n.0.a.R+S+T+U+c A$B$C$D$E$F$G$H$I$I$J$I$I$K$L$M$N$O$y.c@c@/@P$^@a@Q$y@R$!@U+T+S+R+a.0.A.5 4 N.} 1 * % @ + + ",
". + @ $ * 1 } N.4 5 n.0.a.>@X@'@S$c T$U$V$W$X$Y$Z$`$`$Z$ %Z$Z$.%+%@%E@n@n@n@n@^@^@b@]@x@x@#%!@S$'@X@R+a.0.n.5 4 N.} 1 * % @ + + ",
". + @ $ * 1 } N.4 5 n.0.a.>@X@'@Z@c $%%%&%*%(@Z$Z$Z$=%=%-%Z$;%>%,%'%)%E@n@n@z@z@!%v@]@x@~%{%!@]%'@X@>@a.0.n.5 4 N.} 1 * % @ + + ",
". + @ $ * 1 } N.4 5 n.0.a.>@S+'@^%W /%(%_%:%<%[%}%}%|%|%1%1%2%p#3%4%5%5%6%6%6%7%(@M@8%9%0%a%Q+S$'@S+>@a.0.n.5 4 N.} 1 * % @ + + ",
". + @ $ * 1 } #.4 5 n.0.a.n+b%c%d%9$e%f%g%h%i%j%4 k%l%y.{.|#2%p#{.(@m%n%o%p%o%q%r%s%t%u%v%w%W d%'@Y@n+a.0.n.5 4 N.} 1 * % @ + + ",
". + @ $ * 1 } #.4 5 n.0.a.n+!#~#{#5 x%y%z%A%A%1$B%B%B%B%>$>$1$3#C%2#1#1#1#1#:#:#D%D%C%E%y%x%]#{#~#!#n+a.0.n.5 4 N.} 1 * % @ + + ",
". + @ $ * 1 } #.4 5 n.0.a.o.F%5#]#6#G%H%I%J%K%L%M%M%N%N%M%M%d#O%O%O%O%O%0#0#0#0#e#P%f#9#Q%h#6#]#R%F%o.a.0.n.5 4 #.} 1 * % @ + + ",
". + @ $ * 1 } #.4 5 n.0.a.o.p.q.e.l#m#n#s#S%T%U%U%U%U%U%U%U%U%U%U%q#q#q#q#q#q#q#q#V%W%s#n#X%l#e.q.p.o.a.0.n.5 4 #.} 1 * % @ + + ",
". + @ $ ; 1 } #.4 5 9.0.a.n+p.q.e.2+Y%w#x#Z%y#y#y#y#y#y#y#y#y#y#y#y#A#A#A#A#A#A#A#A#`%x#w#Y%2+e.q.p.n+a.0.9.5 4 #.} 1 * % @ + + ",
". + @ $ ; g O #.4 5  &/..&>@c.+&5 @&T.#&$&%&J#J#J#M#M#M#J#J#J#&&&&&&&&J#J#J#J#J#J#J#%&$&#&T.@&5 +&c.>@.&/. &5 4 #.O 1 * $ @ + + ",
". + @ $ ; g O #.4 5 *&=&-&;&:.>&5 ,&'&)&!&~&{&]&]&]&^&8.]&]&]&]&]&]&]&]&]&]&]&]&]&{&/&!&)&'&,&5 >&:.;&-&=&*&5 4 #.O g ; $ @ + + ",
". + @ $ ; g O M 4 5 (&_&:&<&[&}&i+5 |&1&2&3&4&4&4&4&8.4&4&4&4&4&4&4&4&4&4&4&4&4&4&4&3&2&1&|&5 i+}&[&<&:&_&(&5 4 M O g ; $ @ + + ",
". + @ $ ; C | B 4 5 5&6&7&8&9&0&h+0$a&b&c&d&e&e&f&f&f&f&f&f&f&f&f&f&f&f&f&f&f&f&e&e&d&c&b&a&0$h+0&9&8&7&6&5&5 4 B | C ; $ @ + . ",
"  + @ $ 3 - f [ 4 5 g&h&i&j&k&l&m&9$d$e$8$8$8$8$8$8$8$8$8$8$8$8$8${.y.8$8$8$8$8$8$8$8$8$e$d$9$m&l&k&j&i&h&g&5 4 [ f - ; $ @ + . ",
"  . + @ % * { h 4 5 i n&o&p&q&r&o q+s&t&u&v&w&x&y&y&y&y&y&y&y&y.{.{.y&y&y&y&y&y&x&w&v&u&t&s&q+o r&q&p&o&n&i 5 4 h { * % @ @ + . ",
"  . + @ $ ; - ~ 4 5 z&A&B&C&D&E&o !@F&[ G&G&H&H&H&H&H&H&H&H&H&H&H&H&H&H&H&H&H&H&H&H&G&G&[ F&!@o E&D&C&B&A&z&5 4 ~ - ; $ @ + . . ",
"    + + @ % * ^ ~ / ( I&: J&K&L&M M f@M&q q N&N&O O O O&O&O&O&O&O&O&O&O&O&O O O N&N&q q M&f@M M L&K&J&: I&( / ~ ^ * % @ @ + .   ",
"    . + @ $ % * - > , ' ) ) / / ! O&f f e 1 g g g g g g g g g g g g g g g g g g g g 1 e f f O&! / / ) ) ' , > - * % $ @ + .     ",
"      . + @ # % & * P&P&= ^ ^ ^ ^ - 2 Q&Q&Q&R&R&R&R&R&R&R&R&R&R&R&R&R&R&R&R&R&R&R&R&Q&Q&Q&2 - ^ ^ ^ ^ = P&P&* & % # @ + .       ",
"        . + @ @ $ % % & & & & ; ; ; 3 % % $ $ $ $ $ $ $ $ $ $ $ $ $ $ $ $ $ $ $ $ $ $ % % 3 ; ; ; & & & & % % $ @ @ + .         ",
"          . + @ @ @ # # # # $ $ $ $ $ S&@ @ @ @ @ @ @ @ @ @ @ @ @ @ @ @ @ @ @ @ @ @ @ @ S&$ $ $ $ $ # # # # @ @ @ + .           ",
"            . . + + @ @ @ @ @ @ @ @ @ + + + + + + + + + + + + + + + + + + + + + + + + + + @ @ @ @ @ @ @ @ @ + + . .             ",
"              . . . . . + + + + + + + + + + . . . . . . . . . . . . . . . . . . . . + + + + + + + + + + . . . . .               ",
"                . . . . . . . . . . . . . .                                         . . . . . . . . . . . . . .                 "};
