/* XPM */
static char * anim12_xpm[] = {
"64 64 735 2",
"  	c #9CDB43",
". 	c #9CDC43",
"+ 	c #9DDC43",
"@ 	c #9DDD43",
"# 	c #9DDE43",
"$ 	c #9EDE43",
"% 	c #9EDF43",
"& 	c #9EE043",
"* 	c #9FE143",
"= 	c #9FE242",
"- 	c #A0E243",
"; 	c #9FE043",
"> 	c #A0E443",
", 	c #A0E543",
"' 	c #A1E542",
") 	c #A1E642",
"! 	c #A2E643",
"~ 	c #A1E543",
"{ 	c #A1E443",
"] 	c #A0E143",
"^ 	c #A0E343",
"/ 	c #A2E743",
"( 	c #A2E842",
"_ 	c #A2E942",
": 	c #A3EA42",
"< 	c #A4EA43",
"[ 	c #A4E943",
"} 	c #A3E844",
"| 	c #A2E644",
"1 	c #A1E444",
"2 	c #A0E244",
"3 	c #9FDF43",
"4 	c #00000D",
"5 	c #00002F",
"6 	c #5F004A",
"7 	c #9C6B5C",
"8 	c #96615E",
"9 	c #730056",
"0 	c #520048",
"a 	c #270041",
"b 	c #000038",
"c 	c #000020",
"d 	c #669431",
"e 	c #A2E444",
"f 	c #A2E544",
"g 	c #A1E344",
"h 	c #A3E743",
"i 	c #630049",
"j 	c #9E755B",
"k 	c #996D5E",
"l 	c #762D56",
"m 	c #570048",
"n 	c #320041",
"o 	c #000039",
"p 	c #6A9B31",
"q 	c #A4E844",
"r 	c #A1E343",
"s 	c #650049",
"t 	c #9F7D5B",
"u 	c #9A765E",
"v 	c #784356",
"w 	c #5B0048",
"x 	c #390041",
"y 	c #6DA131",
"z 	c #A6EB44",
"A 	c #A6EC44",
"B 	c #A4EA44",
"C 	c #A0E344",
"D 	c #671649",
"E 	c #A0835B",
"F 	c #9C7C5E",
"G 	c #7A4F55",
"H 	c #5E0448",
"I 	c #3F0041",
"J 	c #6FA430",
"K 	c #A5EC43",
"L 	c #A6ED44",
"M 	c #A5EB44",
"N 	c #A3E843",
"O 	c #A3E744",
"P 	c #692749",
"Q 	c #A1865B",
"R 	c #9C805D",
"S 	c #7C5655",
"T 	c #602547",
"U 	c #430041",
"V 	c #090038",
"W 	c #00001D",
"X 	c #3D6B20",
"Y 	c #6EA42D",
"Z 	c #6DA42F",
"` 	c #6BA32E",
" .	c #6AA12E",
"..	c #69A02E",
"+.	c #699F2E",
"@.	c #689F2E",
"#.	c #A5EC44",
"$.	c #692F49",
"%.	c #A2885B",
"&.	c #9D835D",
"*.	c #7D5B55",
"=.	c #623147",
"-.	c #41003F",
";.	c #010036",
">.	c #000025",
",.	c #32002C",
"'.	c #0C002A",
").	c #000028",
"!.	c #000027",
"~.	c #0B002A",
"{.	c #6A3349",
"].	c #A28A5B",
"^.	c #9D855D",
"/.	c #7D5E55",
"(.	c #613847",
"_.	c #36003A",
":.	c #000031",
"<.	c #140038",
"[.	c #765D4A",
"}.	c #967E57",
"|.	c #7D5954",
"1.	c #714251",
"2.	c #714152",
"3.	c #713F52",
"4.	c #713E52",
"5.	c #713D52",
"6.	c #240098",
"7.	c #6A3649",
"8.	c #A28B5B",
"9.	c #9E865D",
"0.	c #7D6055",
"a.	c #623C47",
"b.	c #310036",
"c.	c #00002E",
"d.	c #29003C",
"e.	c #897454",
"f.	c #AC9660",
"g.	c #92725D",
"h.	c #855F5B",
"i.	c #86605B",
"j.	c #865F5B",
"k.	c #865E5B",
"l.	c #6A3749",
"m.	c #7E6155",
"n.	c #623E47",
"o.	c #320036",
"p.	c #836D51",
"q.	c #A38E5D",
"r.	c #8A6C59",
"s.	c #7C5B56",
"t.	c #7E5C56",
"u.	c #7D5C56",
"v.	c #7D5B56",
"w.	c #7D5C55",
"x.	c #6A3849",
"y.	c #9E875D",
"z.	c #623F47",
"A.	c #330836",
"B.	c #28003A",
"C.	c #70554F",
"D.	c #896F58",
"E.	c #704C4C",
"F.	c #653A47",
"G.	c #643B47",
"H.	c #643A47",
"I.	c #643947",
"J.	c #896F57",
"K.	c #A5ED44",
"L.	c #6B3849",
"M.	c #7E6255",
"N.	c #634047",
"O.	c #340B36",
"P.	c #2A003B",
"Q.	c #6A4B4E",
"R.	c #806157",
"S.	c #673F48",
"T.	c #5B2942",
"U.	c #5C2744",
"V.	c #5C2644",
"W.	c #5C2544",
"X.	c #5D2544",
"Y.	c #5D2644",
"Z.	c #5D2643",
"`.	c #5C2543",
" +	c #5C2443",
".+	c #5C2743",
"++	c #663F48",
"@+	c #806156",
"#+	c #340937",
"$+	c #2C003B",
"%+	c #66444D",
"&+	c #7B5954",
"*+	c #613347",
"=+	c #551743",
"-+	c #571243",
";+	c #570F43",
">+	c #570D43",
",+	c #570C43",
"'+	c #570E43",
")+	c #571043",
"!+	c #570F42",
"~+	c #570D42",
"{+	c #560A42",
"]+	c #560842",
"^+	c #560942",
"/+	c #560B42",
"(+	c #560F42",
"_+	c #571342",
":+	c #551742",
"<+	c #633F47",
"[+	c #360237",
"}+	c #2A003C",
"|+	c #531E45",
"1+	c #602D48",
"2+	c #450042",
"3+	c #38003F",
"4+	c #37003F",
"5+	c #36003F",
"6+	c #36003E",
"7+	c #35003E",
"8+	c #35003D",
"9+	c #34003D",
"0+	c #643D47",
"a+	c #40023C",
"b+	c #050035",
"c+	c #1D0030",
"d+	c #250030",
"e+	c #00002D",
"f+	c #00002C",
"g+	c #00002B",
"h+	c #00002A",
"i+	c #260030",
"j+	c #40033C",
"k+	c #7E6055",
"l+	c #490041",
"m+	c #220039",
"n+	c #00001F",
"o+	c #00291B",
"p+	c #395B22",
"q+	c #355724",
"r+	c #325224",
"s+	c #304E24",
"t+	c #2E4B24",
"u+	c #2D4924",
"v+	c #2D4824",
"w+	c #2C4824",
"x+	c #2E4924",
"y+	c #2E4923",
"z+	c #2F4A22",
"A+	c #2F4A21",
"B+	c #52653E",
"C+	c #51643D",
"D+	c #50633D",
"E+	c #29471C",
"F+	c #50643D",
"G+	c #51653D",
"H+	c #52663E",
"I+	c #304F21",
"J+	c #335322",
"K+	c #365823",
"L+	c #395C21",
"M+	c #002A1B",
"N+	c #00001E",
"O+	c #7E5F55",
"P+	c #633947",
"Q+	c #480041",
"R+	c #1E0039",
"S+	c #689A2C",
"T+	c #99DC3E",
"U+	c #99DC3F",
"V+	c #98DA3F",
"W+	c #97D83F",
"X+	c #96D73F",
"Y+	c #96D63F",
"Z+	c #96D73E",
"`+	c #007A30",
" @	c #007A2F",
".@	c #C2F779",
"+@	c #C2F778",
"@@	c #95D63A",
"#@	c #97D83C",
"$@	c #97D93D",
"%@	c #98DA3E",
"&@	c #99DC3D",
"*@	c #689B2B",
"=@	c #7D5F55",
"-@	c #633647",
";@	c #470041",
">@	c #1A0039",
",@	c #000021",
"'@	c #76AE33",
")@	c #ACF545",
"!@	c #AAF245",
"~@	c #A9F045",
"{@	c #A8EF45",
"]@	c #A8EE45",
"^@	c #A7ED45",
"/@	c #A7EC45",
"(@	c #A7ED44",
"_@	c #A8ED43",
":@	c #008834",
"<@	c #008833",
"[@	c #D7FF85",
"}@	c #A6EC40",
"|@	c #008933",
"1@	c #008B34",
"2@	c #A9EF43",
"3@	c #AAF144",
"4@	c #ABF344",
"5@	c #77AE32",
"6@	c #633547",
"7@	c #460041",
"8@	c #170039",
"9@	c #74AB32",
"0@	c #AAF145",
"a@	c #A9F145",
"b@	c #A6EC45",
"c@	c #A6EA44",
"d@	c #A5EA44",
"e@	c #A6EB43",
"f@	c #A6EB42",
"g@	c #A5EA41",
"h@	c #D6FF85",
"i@	c #008432",
"j@	c #008633",
"k@	c #A7EC42",
"l@	c #A8EF44",
"m@	c #160039",
"n@	c #A7EC44",
"o@	c #A5EA43",
"p@	c #A5EA42",
"q@	c #A5EB41",
"r@	c #A6EC43",
"s@	c #A7ED43",
"t@	c #A9F144",
"u@	c #75AD32",
"v@	c #ABF445",
"w@	c #A9F244",
"x@	c #A8F044",
"y@	c #A7EE44",
"z@	c #A6EC42",
"A@	c #A7ED42",
"B@	c #A7EE43",
"C@	c #A8EF43",
"D@	c #AAF244",
"E@	c #ABF544",
"F@	c #76AD32",
"G@	c #633847",
"H@	c #190038",
"I@	c #66992A",
"J@	c #97DB3D",
"K@	c #97DB3E",
"L@	c #96D83C",
"M@	c #95D63C",
"N@	c #94D53C",
"O@	c #94D43C",
"P@	c #94D43B",
"Q@	c #94D43A",
"R@	c #94D53B",
"S@	c #95D63B",
"T@	c #98DB3D",
"U@	c #669A2A",
"V@	c #633A47",
"W@	c #1B0038",
"X@	c #002518",
"Y@	c #365A21",
"Z@	c #315521",
"`@	c #294D21",
" #	c #264820",
".#	c #234520",
"+#	c #214320",
"@#	c #204220",
"##	c #204120",
"$#	c #20421F",
"%#	c #21421F",
"&#	c #20421E",
"*#	c #21431E",
"=#	c #22441E",
"-#	c #23451E",
";#	c #25471F",
">#	c #274A1F",
",#	c #2A4E20",
"'#	c #633C47",
")#	c #3E003C",
"!#	c #000034",
"~#	c #000030",
"{#	c #56383B",
"]#	c #705744",
"^#	c #582841",
"/#	c #4C003F",
"(#	c #4C0041",
"_#	c #4B0041",
":#	c #4B0040",
"<#	c #4A0040",
"[#	c #4C0040",
"}#	c #582941",
"|#	c #340036",
"1#	c #27003B",
"2#	c #866F51",
"3#	c #A8915F",
"4#	c #8E6E5C",
"5#	c #815959",
"6#	c #815859",
"7#	c #815758",
"8#	c #815858",
"9#	c #815958",
"0#	c #825A59",
"a#	c #815A59",
"b#	c #A8925F",
"c#	c #876F51",
"d#	c #A28C5B",
"e#	c #320336",
"f#	c #2B003C",
"g#	c #887452",
"h#	c #AA9660",
"i#	c #90725B",
"j#	c #83625A",
"k#	c #84625A",
"l#	c #84615A",
"m#	c #624047",
"n#	c #330A36",
"o#	c #7A6351",
"p#	c #977F5A",
"q#	c #7E5F53",
"r#	c #724D4F",
"s#	c #734E4E",
"t#	c #734D4E",
"u#	c #734E4F",
"v#	c #724E4F",
"w#	c #330E36",
"x#	c #2A003A",
"y#	c #6B4D4E",
"z#	c #816456",
"A#	c #684249",
"B#	c #5C2D43",
"C#	c #5D2E43",
"D#	c #5D2D43",
"E#	c #5D2C43",
"F#	c #5D2C42",
"G#	c #5D2B42",
"H#	c #5D2B43",
"I#	c #5E2D43",
"J#	c #5E2E43",
"K#	c #340E36",
"L#	c #5C2642",
"M#	c #5B2543",
"N#	c #5B2443",
"O#	c #5B2343",
"P#	c #5B2243",
"Q#	c #5B2444",
"R#	c #5C2444",
"S#	c #5C2643",
"T#	c #673F49",
"U#	c #340E37",
"V#	c #2C003D",
"W#	c #5F3849",
"X#	c #70494F",
"Y#	c #561D46",
"Z#	c #4A0041",
"`#	c #490040",
" $	c #4B0042",
".$	c #4A0042",
"+$	c #571D46",
"@$	c #2D003D",
"#$	c #350A37",
"$$	c #3B063A",
"%$	c #000033",
"&$	c #1E0037",
"*$	c #42003C",
"=$	c #4B003E",
"-$	c #2D003A",
";$	c #170038",
">$	c #180038",
",$	c #160037",
"'$	c #140036",
")$	c #120036",
"!$	c #100036",
"~$	c #0D0035",
"{$	c #0C0035",
"]$	c #0C0036",
"^$	c #0E0036",
"/$	c #100037",
"($	c #130037",
"_$	c #17003A",
":$	c #18003A",
"<$	c #19003A",
"[$	c #1A003A",
"}$	c #2E003B",
"|$	c #4C003E",
"1$	c #42003D",
"2$	c #1F0037",
"3$	c #3B073A",
"4$	c #460D3F",
"5$	c #1D0037",
"6$	c #000026",
"7$	c #000022",
"8$	c #00001C",
"9$	c #00001B",
"0$	c #000019",
"a$	c #000016",
"b$	c #000017",
"c$	c #000018",
"d$	c #000024",
"e$	c #210039",
"f$	c #497623",
"g$	c #75AC2F",
"h$	c #73AA2F",
"i$	c #72A82E",
"j$	c #71A72C",
"k$	c #71A62B",
"l$	c #97C260",
"m$	c #97C15F",
"n$	c #6FA529",
"o$	c #6FA52A",
"p$	c #97C160",
"q$	c #98C261",
"r$	c #71A630",
"s$	c #71A631",
"t$	c #71A632",
"u$	c #72A632",
"v$	c #72A733",
"w$	c #73A933",
"x$	c #74AA33",
"y$	c #75AC31",
"z$	c #497624",
"A$	c #75AD30",
"B$	c #A9F242",
"C$	c #AAF343",
"D$	c #A9F142",
"E$	c #A9F041",
"F$	c #A8EF40",
"G$	c #008F2F",
"H$	c #008E2E",
"I$	c #D5FF83",
"J$	c #A6ED3E",
"K$	c #D5FF84",
"L$	c #A8EE41",
"M$	c #A8EE42",
"N$	c #A8EE43",
"O$	c #A8EE44",
"P$	c #A9EF45",
"Q$	c #ABF345",
"R$	c #75AD31",
"S$	c #1C0039",
"T$	c #76AE31",
"U$	c #ABF444",
"V$	c #ABF443",
"W$	c #AAF242",
"X$	c #D8FF85",
"Y$	c #D8FF84",
"Z$	c #D7FF84",
"`$	c #008C2D",
" %	c #A7EE3D",
".%	c #008D30",
"+%	c #008D32",
"@%	c #A8EF42",
"#%	c #76AE32",
"$%	c #77B031",
"%%	c #ACF643",
"&%	c #ABF442",
"*%	c #A9F241",
"=%	c #A9F140",
"-%	c #A7EF3D",
";%	c #A7EF3E",
">%	c #008D2F",
",%	c #008D31",
"'%	c #A8F041",
")%	c #A8F042",
"!%	c #A8F043",
"~%	c #A9F044",
"{%	c #ACF645",
"]%	c #77B032",
"^%	c #1B0039",
"/%	c #1C0038",
"(%	c #679B29",
"_%	c #98DD3B",
":%	c #98DD3C",
"<%	c #97DA39",
"[%	c #007E2B",
"}%	c #007C29",
"|%	c #C1F877",
"1%	c #94D635",
"2%	c #94D636",
"3%	c #95D737",
"4%	c #95D738",
"5%	c #96D739",
"6%	c #96D73A",
"7%	c #96D73B",
"8%	c #95D73C",
"9%	c #96D73C",
"0%	c #97DA3D",
"a%	c #98DD3E",
"b%	c #98DD3D",
"c%	c #679B2B",
"d%	c #633B47",
"e%	c #480040",
"f%	c #1D0038",
"g%	c #002B17",
"h%	c #385D1F",
"i%	c #33591E",
"j%	c #2D521C",
"k%	c #294E19",
"l%	c #000010",
"m%	c #4D643B",
"n%	c #214714",
"o%	c #214715",
"p%	c #224716",
"q%	c #234817",
"r%	c #254919",
"s%	c #264A1A",
"t%	c #274A1C",
"u%	c #274A1D",
"v%	c #27491F",
"w%	c #274920",
"x%	c #264920",
"y%	c #274A20",
"z%	c #284B20",
"A%	c #2A4E21",
"B%	c #2D5221",
"C%	c #345821",
"D%	c #385C22",
"E%	c #002B19",
"F%	c #573A3B",
"G%	c #715944",
"H%	c #592E40",
"I%	c #4D003E",
"J%	c #4B003D",
"K%	c #4D003F",
"L%	c #4D0040",
"M%	c #4D0041",
"N%	c #592D41",
"O%	c #623D47",
"P%	c #877051",
"Q%	c #A9925E",
"R%	c #8E6F5B",
"S%	c #815B58",
"T%	c #825B58",
"U%	c #815A57",
"V%	c #815957",
"W%	c #815857",
"X%	c #825958",
"Y%	c #825B59",
"Z%	c #A9925F",
"`%	c #340037",
" &	c #90735B",
".&	c #836259",
"+&	c #846359",
"@&	c #846259",
"#&	c #84635A",
"$&	c #887352",
"%&	c #7A6251",
"&&	c #724D4E",
"*&	c #6A3449",
"=&	c #9E855D",
"-&	c #320037",
";&	c #28003C",
">&	c #816356",
",&	c #674049",
"'&	c #5C2B43",
")&	c #5E2C43",
"!&	c #6A3049",
"~&	c #A2895B",
"{&	c #9D845D",
"]&	c #7D5D55",
"^&	c #310037",
"/&	c #29003B",
"(&	c #68474F",
"_&	c #805E57",
":&	c #673C49",
"<&	c #5B2142",
"[&	c #5B2344",
"}&	c #5B2244",
"|&	c #5B2144",
"1&	c #5B2143",
"2&	c #692949",
"3&	c #A1875B",
"4&	c #9D825D",
"5&	c #7C5955",
"6&	c #613047",
"7&	c #2F0037",
"8&	c #552442",
"9&	c #6E424F",
"0&	c #550946",
"a&	c #490042",
"b&	c #681949",
"c&	c #A1835B",
"d&	c #9C7E5E",
"e&	c #7B5355",
"f&	c #5F2048",
"g&	c #33003B",
"h&	c #22002E",
"i&	c #48003E",
"j&	c #28003B",
"k&	c #0E003A",
"l&	c #12003A",
"m&	c #11003A",
"n&	c #660049",
"o&	c #9F7E5B",
"p&	c #9B785E",
"q&	c #794756",
"r&	c #5E0048",
"s&	c #3B0040",
"t&	c #000037",
"u&	c #9E765B",
"v&	c #996F5E",
"w&	c #773356",
"x&	c #5A0048",
"y&	c #380041",
"z&	c #3C6024",
"A&	c #6FA231",
"B&	c #70A431",
"C&	c #6FA332",
"D&	c #6FA232",
"E&	c #6FA132",
"F&	c #6EA132",
"G&	c #60004A",
"H&	c #9C6C5C",
"I&	c #97635E",
"J&	c #740056",
"K&	c #540048",
"L&	c #2D0041",
"M&	c #6B9B30",
"N&	c #A6EA45",
"O&	c #A5E945",
"P&	c #A2EA42",
"Q&	c #A3EB42",
"R&	c #A4EB42",
"S&	c #A5EB43",
"T&	c #A5E944",
"U&	c #A4E744",
"V&	c #A3E644",
"W&	c #9FE243",
"X&	c #A0E144",
"Y&	c #9FE044",
"Z&	c #9EDD43",
"                        . . . .                                                                 . . . .                         ",
"                . . . . . . . . . . .                                                     . . . . . . . . . . .                 ",
"            . . + + + @ @ @ @ @ + + + + .                                             . + + + + @ @ @ @ @ + + + . .             ",
"          . + + @ @ @ # # # # # # @ @ + + + .                                     . + + + @ @ # # # # # # @ @ @ + + .           ",
"        . + @ @ $ % % % & & & & % % $ @ @ + + + . . . . . . . . . . . . . . . . + + + @ @ $ % % & & & & % % % $ @ @ + .         ",
"      . + @ # % & * * = = = - - - * ; % $ @ @ + + + + + + + + + + + + + + + + + + @ @ $ % ; * - - - = = = * * & % # @ + .       ",
"    . + @ $ % * - > , ' ) ) ) ! ~ { - ] ; % $ @ @ @ @ @ @ @ @ @ @ @ @ @ @ @ @ @ @ $ % ; ] - { ~ ! ) ) ) ' , > - * % $ @ + .     ",
"    + + @ % * ^ ~ / ( _ : : : < [ } | 1 2 ; 3 % $ $ $ $ $ $ $ $ $ $ $ $ $ $ $ $ % 3 ; 2 1 | } [ < : : : _ ( / ~ ^ * % @ @ + .   ",
"  . + @ $ ; - ~ 4 5 6 7 8 9 0 a b c d e f g 2 * ; ; ; ; ; ; ; ; ; ; ; ; ; ; ; ; * - g f e d c b a 0 9 8 7 6 5 4 ~ - ; $ @ + . . ",
"  . + @ % * { h 4 5 i j k l m n o c p q q | f { r ^ - - - - - - - - - - - - ^ r { f | q q p c o n m l k j i 5 4 h { * % @ @ + . ",
"  + @ $ 3 - f [ 4 5 s t u v w x o c y z A B q h h ! ! ! ! ! ! ! ! ! ! ! ! ! ! h h q B A z y c o x w v u t s 5 4 [ f - ; $ @ + . ",
". + @ $ ; C | B 4 5 D E F G H I b c J K L M < [ N N N N N N N N N N N N N N N N [ < M L K J c b I H G F E D 5 4 B | C ; $ @ + . ",
". + @ $ ; g O M 4 5 P Q R S T U V W X Y Z `  ...+.+.+.@.@.@.@.@.@.@.@.@.@.@.+.+... .` Z Y X W V U T S R Q P 5 4 M O g ; $ @ + + ",
". + @ $ ; g O #.4 5 $.%.&.*.=.-.;.>.>.,.'.).!.!.!.!.!.!.!.!.!.!.!.!.!.!.!.!.!.!.!.!.).~.,.>.>.;.-.=.*.&.%.$.5 4 #.O g ; $ @ + + ",
". + @ $ ; g O #.4 5 {.].^./.(._.:.<.[.}.|.1.2.3.4.4.5.5.5.5.6.5.5.5.5.5.5.5.4.4.3.2.1.|.}.[.<.:._.(./.^.].{.5 4 #.O 1 * $ @ + + ",
". + @ $ ; 1 } #.4 5 7.8.9.0.a.b.c.d.e.f.g.h.i.j.j.k.k.k.k.k.k.k.k.k.k.k.k.k.k.j.j.i.h.g.f.e.d.c.b.a.0.9.8.7.5 4 #.} 1 * % @ + + ",
". + @ $ * 1 } #.4 5 l.8.9.m.n.o.c.d.p.q.r.s.t.u.v.v.v.v.*.*.*.*.*.*.*.*.*.*.*.*.w.w.s.r.q.p.d.c.o.n.m.9.8.l.5 4 #.} 1 * % @ + + ",
". + @ $ * 1 } #.4 5 x.8.y.m.z.A.c.B.C.D.E.F.G.H.H.H.H.H.H.H.H.F.H.H.H.H.H.I.I.H.H.G.F.E.J.C.B.c.A.z.m.y.8.x.5 4 K.} 1 * % @ + + ",
". + @ $ * 1 } K.4 5 L.8.y.M.N.O.5 P.Q.R.S.T.U.V.W.W.W.X.Y.Y.Y.Z.Z.Z.`.`. + + +`.`..+T.++@+Q.P.5 O.N.M.y.8.L.5 4 K.} 1 * % @ + + ",
". + @ $ * 1 } K.4 5 L.8.y.M.N.#+5 $+%+&+*+=+-+;+>+,+,+>+>+'+;+)+)+!+~+{+]+]+^+/+(+_+:+*+&+%+$+5 #+N.M.y.8.L.5 4 K.} 1 * % @ + + ",
". + @ $ * 1 } K.4 5 L.8.y.m.<+[+:.}+|+1+2+3+4+5+5+5+5+5+5+5+4+4+4+6+7+8+9+9+9+8+7+6+4+2+1+|+}+:.[+<+m.y.8.L.5 4 K.} 1 * % @ + + ",
". + @ $ * 1 } K.4 5 L.8.y.m.0+a+b+5 c+d+5 5 5 5 5 5 5 5 5 c.c.c.e+f+g+h+h+h+h+g+f+f+e+c.i+c+5 b+j+0+m.y.8.L.5 4 K.} 1 * % @ + + ",
". + @ $ * 1 } K.4 5 L.8.9.k+G.l+m+n+o+p+q+r+s+t+u+v+w+v+v+x+y+z+A+B+C+D+E+E+F+G+H+I+J+K+L+M+N+m+l+G.k+9.8.L.5 4 K.} 1 * % @ + + ",
". + @ $ * 1 } K.4 5 l.8.9.O+P+Q+R+n+S+T+U+V+W+X+X+X+Y+Y+Y+X+Z+6.`+ @.@+@@@+@+@.@#@$@%@T+&@*@n+R+Q+P+O+9.8.l.5 4 K.} 1 * % @ + + ",
". + @ $ * 1 } K.4 5 l.8.9.=@-@;@>@,@'@)@!@~@{@]@^@^@/@/@/@(@(@(@_@:@<@[@}@[@[@|@1@2@3@4@)@5@,@>@;@-@=@9.8.l.5 4 K.} 1 * % @ + + ",
". + @ $ * 1 } K.4 5 l.8.9./.6@7@8@,@9@0@a@]@^@b@z c@d@d@c@c@c@z e@f@f@g@g@h@i@j@k@_@l@3@0@9@,@8@7@6@/.9.8.l.5 4 K.} 1 * % @ + + ",
". + @ $ * 1 } K.4 5 l.8.9./.6@7@m@,@9@a@~@]@n@z M d@d@d@d@d@d@o@o@o@p@g@g@g@q@f@r@s@l@t@0@9@,@m@7@6@/.9.8.l.5 4 K.} 1 * % @ + + ",
". + @ $ * 1 } K.4 5 l.8.9./.-@7@8@,@u@v@w@x@y@L A A A 6.A A r@r@r@r@z@z@z@z@z@A@B@C@x@D@E@F@,@8@7@-@/.9.8.l.5 4 K.} 1 * % @ + + ",
". + @ $ * 1 } K.4 5 l.8.9.=@G@;@H@N+I@J@K@L@M@N@O@O@O@O@O@O@O@P@P@P@P@Q@Q@Q@Q@R@S@S@L@K@T@U@N+H@;@G@=@9.8.l.5 4 K.} 1 * % @ + + ",
". + @ $ * 1 } K.4 5 x.8.9.0.V@;@W@W X@Y@Z@`@ #.#+#@#@#@###$#$#%#%#%#&#&#&#*#=#-#;#>#,#Z@Y@X@W W@;@V@0.9.8.x.5 4 K.} 1 * % @ + + ",
". + @ $ * 1 } K.4 5 x.8.9.k+'#)#!#~#{#]#^#/#(#_#:#:#<#<#<#<#:#:#:#:#:#:#:#:#:#:#[#6./#}#]#{#~#!#)#'#k+9.6.x.5 4 K.} 1 * % @ + + ",
". + @ $ * 1 } K.4 5 L.8.y.m.n.|#~#1#2#3#4#5#5#6#6#7#7#7#7#7#7#7#7#7#7#7#7#8#8#8#9#0#a#4#b#c#1#~#|#n.m.y.8.L.5 4 K.} 1 * % @ + + ",
". + @ $ * 1 } K.4 5 L.d#y.m.z.e#c.f#g#h#i#j#k#k#l#l#l#l#l#l#l#l#l#l#l#l#l#l#l#k#k#k#j#6.h#g#f#c.e#z.m.y.d#L.5 4 K.} 1 * % @ + + ",
". + @ $ * 1 } K.4 5 L.d#y.M.m#n#c.}+o#p#q#r#s#s#s#t#t#t#t#t#t#t#t#s#s#s#s#s#s#s#u#u#v#q#p#o#}+c.n#m#M.y.d#L.5 4 K.} 1 * % @ + + ",
". + @ $ * 1 } K.4 5 L.d#y.M.N.w#c.x#y#z#A#B#C#D#E#E#F#G#G#G#H#E#E#E#E#E#I#I#D#D#D#J#B#A#z#y#P.c.w#N.M.y.d#L.5 4 K.} 1 * % @ + + ",
". + @ $ * 1 } K.4 5 L.d#y.M.N.K#5 $+Q.R.S.L#6.M#N#N#O#P#P#P#P#O#O#N#Q#Q#R#W.W.W.V.U.S#T#R.Q.$+5 U#N.M.y.d#L.5 4 K.} 1 * % @ + + ",
". + @ $ * 1 } K.4 5 L.d#y.M.N.#+5 V#W#X#Y#Z#_#Z#<#<#<#`#`#`#`#<#Z#Z#_# $ $ $ $ $ $ $.$+$X#W#@$5 #$N.M.y.d#L.5 4 K.} 1 * % @ + + ",
". + @ $ * 1 } K.4 5 L.d#y.6.<+$$%$&$*$=$-$;$>$,$'$)$!$~${$]$^$/$($<.m@8@8@_$:$:$<$[$<$}$|$1$2$%$3$<+m.y.d#L.5 4 K.} 1 * % @ + + ",
". + @ $ * 1 } K.4 5 L.8.y.m.0+4$5$6$N+7$n+N+8$9$0$W 8$a$a$b$c$0$8$W n+c ,@7$7$7$7$7$7$7$d$n+!.&$4$0+m.y.8.L.5 4 K.} 1 * % @ + + ",
". + @ $ * 1 } K.4 5 L.8.9.k+G.l+e$N+f$g$g$h$i$j$k$l$6.m$n$o$p$l$q$6.r$s$t$u$u$v$v$w$x$y$y$z$n+e$l+G.k+9.8.L.5 4 K.} 1 * % @ + + ",
". + @ $ * 1 } K.4 5 l.8.9.O+P+Q+R+c A$B$C$D$E$F$G$H$I$I$J$I$I$K$L$M$N$O$O$]@]@{@P$~@0@Q$w@R$,@R+Q+P+O+9.8.x.5 4 K.} 1 * % @ + + ",
". + @ $ * 1 } K.4 5 l.8.9.=@G@;@S$c T$U$V$W$X$Y$Z$`$`$Z$ %Z$Z$.%+%@%C@l@l@l@l@~@~@a@!@v@v@#%,@S$;@G@O+9.8.l.5 4 K.} 1 * % @ + + ",
". + @ $ * 1 } K.4 5 l.8.9.=@G@;@W@c $%%%&%*%=%Z$Z$Z$-%-%;%Z$>%,%'%)%!%C@l@l@x@x@~%t@!@v@{%]%,@^%;@G@=@9.8.l.5 4 K.} 1 * % @ + + ",
". + @ $ * 1 } K.4 5 l.8.9.=@P+;@/%W (%_%:%<%[%}%|%|%1%1%2%2%3%4%5%6%7%7%8%8%8%9%L@L@0%a%b%c%N+S$;@P+=@9.8.l.5 4 K.} 1 * % @ + + ",
". + @ $ * 1 } #.4 5 l.8.9.k+d%e%f%8$g%h%i%j%k%l%4 m%n%o%p%q%r%s%t%u%6.v%w%x%w%y%z%A%B%C%D%E%W f%;@V@k+9.8.l.5 4 K.} 1 * % @ + + ",
". + @ $ * 1 } #.4 5 l.8.9.k+'#)#!#5 F%G%H%I%I%|$J%J%J%J%=$=$|$/#K%L%[#[#[#[#(#(#M%M%K%N%G%F%~#!#)#'#k+9.8.l.5 4 K.} 1 * % @ + + ",
". + @ $ * 1 } #.4 5 l.8.9.m.O%|#~#1#P%Q%R%S%T%U%V%V%W%W%V%V%9#X%X%X%X%X%5#5#5#5#0#Y%a#4#Z%c#1#~#`%O%m.9.8.l.5 4 #.} 1 * % @ + + ",
". + @ $ * 1 } #.4 5 l.8.9.m.n.o.c.f#g#h# &.&+&@&@&@&@&@&@&@&@&@&@&k#k#k#k#k#k#k#k##&j# &h#$&f#c.o.n.m.9.8.l.5 4 #.} 1 * % @ + + ",
". + @ $ ; 1 } #.4 5 7.8.9.k+n.o.c.}+%&p#q#&&s#s#s#s#s#s#s#s#s#s#s#s#u#u#u#u#u#u#u#u#r#q#p#%&}+c.o.n.k+9.8.7.5 4 #.} 1 * % @ + + ",
". + @ $ ; g O #.4 5 *&].=&=@a.-&5 ;&Q.>&,&'&E#E#E#H#H#H#E#E#E#)&)&)&)&E#E#E#E#E#E#E#'&,&>&Q.;&5 -&a.=@=&].*&5 4 #.O 1 * $ @ + + ",
". + @ $ ; g O #.4 5 !&~&{&]&(.^&5 /&(&_&:&<&[&}&}&}&|&}&}&}&}&}&}&}&}&}&}&}&}&}&}&[&1&:&_&(&/&5 ^&(.]&{&~&!&5 4 #.O g ; $ @ + + ",
". + @ $ ; g O M 4 5 2&3&4&5&6&7&f+5 8&9&0&a&.$.$.$.$.$.$.$.$.$.$.$.$.$.$.$.$.$.$.$.$a&0&9&8&5 f+7&6&5&4&3&2&5 4 M O g ; $ @ + + ",
". + @ $ ; C | B 4 5 b&c&d&e&f&g&e+9$h&i&j&k&l&l&m&m&m&m&m&m&m&m&m&m&m&m&m&m&m&m&l&l&k&j&i&h&9$e+g&f&e&d&c&b&5 4 B | C ; $ @ + . ",
"  + @ $ 3 - f [ 4 5 n&o&p&q&r&s&t&8$c$d$7$7$7$7$7$7$7$7$7$7$7$7$7$7$7$7$7$7$7$7$7$7$7$7$d$c$8$t&s&r&q&p&o&n&5 4 [ f - ; $ @ + . ",
"  . + @ % * { h 4 5 i u&v&w&x&y&o n+z&A&B&C&D&E&F&F&F&F&F&F&F&F&6.F&F&F&F&F&F&F&E&D&C&B&A&z&n+o y&x&w&v&u&i 5 4 h { * % @ @ + . ",
"  . + @ $ ; - ~ 4 5 G&H&I&J&K&L&o ,@M&[ N&N&O&O&O&O&O&O&O&O&O&O&O&O&O&O&O&O&O&O&O&O&N&N&[ M&,@o L&K&J&I&H&G&5 4 ~ - ; $ @ + . . ",
"    + + @ % * ^ ~ / ( P&: Q&R&S&M M d@T&q q U&U&O O O V&V&V&V&V&V&V&V&V&V&O O O U&U&q q T&d@M M S&R&Q&: P&( / ~ ^ * % @ @ + .   ",
"    . + @ $ % * - > , ' ) ) / / ! V&f f e 1 g g g g g g g g g g g g g g g g g g g g 1 e f f V&! / / ) ) ' , > - * % $ @ + .     ",
"      . + @ # % & * W&W&= ^ ^ ^ ^ - 2 X&X&X&Y&Y&Y&Y&Y&Y&Y&Y&Y&Y&Y&Y&Y&Y&Y&Y&Y&Y&Y&Y&X&X&X&2 - ^ ^ ^ ^ = W&W&* & % # @ + .       ",
"        . + @ @ $ % % & & & & ; ; ; 3 % % $ $ $ $ $ $ $ $ $ $ $ $ $ $ $ $ $ $ $ $ $ $ % % 3 ; ; ; & & & & % % $ @ @ + .         ",
"          . + @ @ @ # # # # $ $ $ $ $ Z&@ @ @ @ @ @ @ @ @ @ @ @ @ @ @ @ @ @ @ @ @ @ @ @ Z&$ $ $ $ $ # # # # @ @ @ + .           ",
"            . . + + @ @ @ @ @ @ @ @ @ + + + + + + + + + + + + + + + + + + + + + + + + + + @ @ @ @ @ @ @ @ @ + + . .             ",
"              . . . . . + + + + + + + + + + . . . . . . . . . . . . . . . . . . . . + + + + + + + + + + . . . . .               ",
"                . . . . . . . . . . . . . .                                         . . . . . . . . . . . . . .                 "};
