/* XPM */
static char * anim2_xpm[] = {
"64 64 675 2",
"  	c #9CDB43",
". 	c #5A361F",
"+ 	c #5F3E29",
"@ 	c #60402B",
"# 	c #61422D",
"$ 	c #62432F",
"% 	c #634632",
"& 	c #624632",
"* 	c #624530",
"= 	c #61432F",
"- 	c #60432F",
"; 	c #5F412D",
"> 	c #5E402B",
", 	c #5B3B26",
"' 	c #888479",
") 	c #949389",
"! 	c #939187",
"~ 	c #908E84",
"{ 	c #8F8D82",
"] 	c #8F8D83",
"^ 	c #8E8C83",
"/ 	c #8E8C80",
"( 	c #8D8C82",
"_ 	c #8D8B82",
": 	c #8C8B82",
"< 	c #8C8B81",
"[ 	c #6E665B",
"} 	c #583722",
"| 	c #644936",
"1 	c #7E776D",
"2 	c #908E85",
"3 	c #8F8E83",
"4 	c #8E8D83",
"5 	c #8E8C81",
"6 	c #695E51",
"7 	c #685E52",
"8 	c #644734",
"9 	c #7D766C",
"0 	c #949288",
"a 	c #939186",
"b 	c #64594C",
"c 	c #65594C",
"d 	c #655A4C",
"e 	c #66594B",
"f 	c #66594C",
"g 	c #66584B",
"h 	c #65584B",
"i 	c #645749",
"j 	c #645649",
"k 	c #695D4F",
"l 	c #695C4F",
"m 	c #583723",
"n 	c #634733",
"o 	c #7C766C",
"p 	c #5E3F2B",
"q 	c #5D3E29",
"r 	c #604533",
"s 	c #604534",
"t 	c #604535",
"u 	c #5F4332",
"v 	c #5F4331",
"w 	c #5F4230",
"x 	c #5E422F",
"y 	c #5C3C2A",
"z 	c #5C3F2C",
"A 	c #5A3C2A",
"B 	c #624430",
"C 	c #939188",
"D 	c #68594F",
"E 	c #695A4E",
"F 	c #6A5C51",
"G 	c #6A5E54",
"H 	c #6B5E54",
"I 	c #6B5F55",
"J 	c #6C6056",
"K 	c #6C5F55",
"L 	c #5A3D2C",
"M 	c #868479",
"N 	c #685C50",
"O 	c #624531",
"P 	c #7D776D",
"Q 	c #929087",
"R 	c #5D3F29",
"S 	c #68594E",
"T 	c #73665C",
"U 	c #73675D",
"V 	c #74675D",
"W 	c #62412B",
"X 	c #61412A",
"Y 	c #736D63",
"Z 	c #746D63",
"` 	c #736C61",
" .	c #736C62",
"..	c #726C62",
"+.	c #5C3E2D",
"@.	c #87847A",
"#.	c #685C4F",
"$.	c #634631",
"%.	c #7F776D",
"&.	c #5E3E2A",
"*.	c #73675C",
"=.	c #68503D",
"-.	c #8D8B7F",
";.	c #8E8B7F",
">.	c #62412A",
",.	c #756D65",
"'.	c #5C3F2D",
").	c #685C4E",
"!.	c #675B4E",
"~.	c #5E3E28",
"{.	c #6A5B50",
"].	c #70675D",
"^.	c #685040",
"/.	c #6A513F",
"(.	c #6A513E",
"_.	c #8D8A7D",
":.	c #8C8A7D",
"<.	c #63422C",
"[.	c #62422B",
"}.	c #61402A",
"|.	c #79756D",
"1.	c #86847A",
"2.	c #685B4D",
"3.	c #675A4C",
"4.	c #807A6F",
"5.	c #5D3C26",
"6.	c #6A5D50",
"7.	c #5A3823",
"8.	c #8C897D",
"9.	c #8B887C",
"0.	c #8C887C",
"a.	c #8C887B",
"b.	c #8B887B",
"c.	c #89887B",
"d.	c #8B897B",
"e.	c #8A887B",
"f.	c #5C3B25",
"g.	c #675A4D",
"h.	c #665A4C",
"i.	c #583721",
"j.	c #827D72",
"k.	c #827C72",
"l.	c #929186",
"m.	c #5D3C27",
"n.	c #6B5D51",
"o.	c #928F84",
"p.	c #929084",
"q.	c #939086",
"r.	c #8C897C",
"s.	c #8A867B",
"t.	c #928E84",
"u.	c #908D84",
"v.	c #8F8B81",
"w.	c #5D3D27",
"x.	c #675B4D",
"y.	c #512C17",
"z.	c #5B3B24",
"A.	c #5D3E28",
"B.	c #939288",
"C.	c #5C3D27",
"D.	c #6D5F53",
"E.	c #532C15",
"F.	c #686056",
"G.	c #696157",
"H.	c #6A6157",
"I.	c #89857A",
"J.	c #696057",
"K.	c #685F56",
"L.	c #5C3C26",
"M.	c #5C3E2C",
"N.	c #512B16",
"O.	c #502B16",
"P.	c #4F2913",
"Q.	c #817D73",
"R.	c #949289",
"S.	c #827F74",
"T.	c #5C3D28",
"U.	c #6F6356",
"V.	c #5A351E",
"W.	c #5A351D",
"X.	c #5A371E",
"Y.	c #858276",
"Z.	c #868276",
"`.	c #573017",
" +	c #56321B",
".+	c #5B3E2C",
"++	c #65584A",
"@+	c #64584A",
"#+	c #675C4E",
"$+	c #605548",
"%+	c #4E2812",
"&+	c #706153",
"*+	c #797369",
"=+	c #73695E",
"-+	c #736A5F",
";+	c #5A3923",
">+	c #848074",
",+	c #562F16",
"'+	c #72695E",
")+	c #73685D",
"!+	c #78736B",
"~+	c #63584A",
"{+	c #63574A",
"]+	c #512C16",
"^+	c #63584B",
"/+	c #5D3E2A",
"(+	c #807D73",
"_+	c #827E73",
":+	c #94938A",
"<+	c #7B746C",
"[+	c #58331D",
"}+	c #817D72",
"|+	c #807D72",
"1+	c #552E16",
"2+	c #7A756F",
"3+	c #78736C",
"4+	c #5B3E2B",
"5+	c #858379",
"6+	c #635749",
"7+	c #605547",
"8+	c #5D3F2A",
"9+	c #807B72",
"0+	c #827E74",
"a+	c #8E8D81",
"b+	c #5A3A24",
"c+	c #6F6153",
"d+	c #57321A",
"e+	c #7E796E",
"f+	c #542D15",
"g+	c #807C74",
"h+	c #79746D",
"i+	c #625749",
"j+	c #625649",
"k+	c #522D18",
"l+	c #61564A",
"m+	c #4D2812",
"n+	c #5E402C",
"o+	c #817C73",
"p+	c #624631",
"q+	c #8D8C80",
"r+	c #593822",
"s+	c #716153",
"t+	c #7F7B73",
"u+	c #7E7A72",
"v+	c #563018",
"w+	c #7D7A6F",
"x+	c #7D796F",
"y+	c #7F7C74",
"z+	c #78746D",
"A+	c #868478",
"B+	c #858478",
"C+	c #60432E",
"D+	c #817C72",
"E+	c #918F86",
"F+	c #593722",
"G+	c #706051",
"H+	c #8B887F",
"I+	c #8B867E",
"J+	c #532D15",
"K+	c #7F7B74",
"L+	c #7E7B74",
"M+	c #5D3F2D",
"N+	c #868578",
"O+	c #63594B",
"P+	c #807B71",
"Q+	c #919086",
"R+	c #614430",
"S+	c #8C8B7F",
"T+	c #716051",
"U+	c #56321A",
"V+	c #63584D",
"W+	c #7E7B73",
"X+	c #5D402D",
"Y+	c #625648",
"Z+	c #625548",
"`+	c #522E18",
" @	c #645A4C",
".@	c #60422E",
"+@	c #807C72",
"@@	c #837E75",
"#@	c #837F75",
"$@	c #8C8A7F",
"%@	c #7F7A73",
"&@	c #4402C3",
"*@	c #530BC9",
"=@	c #71685D",
"-@	c #5E412E",
";@	c #858477",
">@	c #615648",
",@	c #532E18",
"'@	c #665B4E",
")@	c #604430",
"!@	c #837E74",
"~@	c #8B8A7F",
"{@	c #7F7A72",
"]@	c #6917D0",
"^@	c #C14AEF",
"/@	c #D454F6",
"(@	c #BA46EC",
"_@	c #9B34E2",
":@	c #761FD5",
"<@	c #512B15",
"[@	c #665C4E",
"}@	c #4E2813",
"|@	c #61442F",
"1@	c #8B8A7E",
"2@	c #4905C5",
"3@	c #FA8EF0",
"4@	c #FD9EEB",
"5@	c #FFA4E9",
"6@	c #F479F8",
"7@	c #615548",
"8@	c #614632",
"9@	c #918F85",
"0@	c #583621",
"a@	c #705F51",
"b@	c #7D23D7",
"c@	c #F786F3",
"d@	c #FD9AEC",
"e@	c #FC97EE",
"f@	c #6F1BD2",
"g@	c #5E402E",
"h@	c #675D50",
"i@	c #624634",
"j@	c #908F85",
"k@	c #60442F",
"l@	c #7F7B71",
"m@	c #6F5F51",
"n@	c #AB3DE7",
"o@	c #F16DFC",
"p@	c #7E7A73",
"q@	c #685D51",
"r@	c #4E2913",
"s@	c #614634",
"t@	c #7F7B72",
"u@	c #8F8E85",
"v@	c #7F7A71",
"w@	c #7E7A6F",
"x@	c #8B897E",
"y@	c #573520",
"z@	c #6012CD",
"A@	c #7D7A73",
"B@	c #605549",
"C@	c #522D17",
"D@	c #695E52",
"E@	c #615649",
"F@	c #614633",
"G@	c #8F8E84",
"H@	c #604531",
"I@	c #7F7970",
"J@	c #7E796F",
"K@	c #88867B",
"L@	c #8A897E",
"M@	c #D957F7",
"N@	c #8C2BDC",
"O@	c #5C3D2A",
"P@	c #614532",
"Q@	c #5F4431",
"R@	c #7C786F",
"S@	c #87867B",
"T@	c #57341E",
"U@	c #6E5E51",
"V@	c #7C7872",
"W@	c #8528DA",
"X@	c #E35DFB",
"Y@	c #62574A",
"Z@	c #8F8D84",
"`@	c #5F4430",
" #	c #7D786E",
".#	c #7C786E",
"+#	c #87867A",
"@#	c #55321D",
"##	c #6E5E50",
"$#	c #777068",
"%#	c #787068",
"&#	c #C049EF",
"*#	c #858377",
"=#	c #604432",
"-#	c #7E7A71",
";#	c #8E8D84",
">#	c #7C786D",
",#	c #89877B",
"'#	c #54301A",
")#	c #786F68",
"!#	c #787269",
"~#	c #787169",
"{#	c #7C776F",
"]#	c #4302C3",
"^#	c #848378",
"/#	c #62574B",
"(#	c #7D776E",
"_#	c #7C776D",
":#	c #89887C",
"<#	c #512B14",
"[#	c #6C5D50",
"}#	c #746E66",
"|#	c #777169",
"1#	c #797670",
"2#	c #7A7770",
"3#	c #7A7671",
"4#	c #79756F",
"5#	c #858479",
"6#	c #604431",
"7#	c #7C776E",
"8#	c #7A766D",
"9#	c #89887D",
"0#	c #512A14",
"a#	c #746D64",
"b#	c #5D493A",
"c#	c #5E4C3D",
"d#	c #625347",
"e#	c #66594E",
"f#	c #675A4F",
"g#	c #66594D",
"h#	c #65584C",
"i#	c #584436",
"j#	c #78746E",
"k#	c #78736E",
"l#	c #5C3D29",
"m#	c #868579",
"n#	c #502A14",
"o#	c #695B51",
"p#	c #716961",
"q#	c #838179",
"r#	c #86847B",
"s#	c #88867C",
"t#	c #88867E",
"u#	c #85837A",
"v#	c #827F77",
"w#	c #77726D",
"x#	c #5C3C29",
"y#	c #512D17",
"z#	c #7E7A70",
"A#	c #6F685D",
"B#	c #716A61",
"C#	c #736E65",
"D#	c #746F67",
"E#	c #767069",
"F#	c #76716B",
"G#	c #76726A",
"H#	c #76726C",
"I#	c #76716C",
"J#	c #75716C",
"K#	c #5E402D",
"L#	c #502C16",
"M#	c #695F53",
"N#	c #7B776E",
"O#	c #502A13",
"P#	c #66594F",
"Q#	c #696259",
"R#	c #5D4D3F",
"S#	c #5D4C3F",
"T#	c #615246",
"U#	c #605246",
"V#	c #615245",
"W#	c #594739",
"X#	c #574131",
"Y#	c #756F6B",
"Z#	c #74706B",
"`#	c #89887E",
" $	c #6A6054",
".$	c #604331",
"+$	c #7D7970",
"@$	c #7B776D",
"#$	c #7B776C",
"$$	c #8C8A7E",
"%$	c #8C8B7E",
"&$	c #696258",
"*$	c #78746B",
"=$	c #7D7870",
"-$	c #817D76",
";$	c #7F7A74",
">$	c #7D7972",
",$	c #726E69",
"'$	c #736E69",
")$	c #665C4F",
"!$	c #675D4F",
"~$	c #6B6155",
"{$	c #5E4331",
"]$	c #8D8C83",
"^$	c #5E422D",
"/$	c #7A766C",
"($	c #8C8A80",
"_$	c #8C8A81",
":$	c #65574D",
"<$	c #696158",
"[$	c #6A6259",
"}$	c #6A635A",
"|$	c #6B645B",
"1$	c #6F6962",
"2$	c #716B64",
"3$	c #716B66",
"4$	c #716D67",
"5$	c #726D69",
"6$	c #8B8A80",
"7$	c #6D645A",
"8$	c #5D412E",
"9$	c #7A756C",
"0$	c #8B8A81",
"a$	c #502913",
"b$	c #5B3A26",
"c$	c #5A3A26",
"d$	c #5F422F",
"e$	c #5F412F",
"f$	c #624432",
"g$	c #614432",
"h$	c #5C3F2B",
"i$	c #79756C",
"j$	c #502A15",
"k$	c #5B3C28",
"l$	c #7A756D",
"m$	c #79756B",
"n$	c #9C9B94",
"o$	c #9B9A93",
"p$	c #9A9991",
"q$	c #999890",
"r$	c #97968E",
"s$	c #98978F",
"t$	c #99988F",
"u$	c #9A9990",
"v$	c #9B9A92",
"w$	c #9B9A91",
"x$	c #696154",
"y$	c #675D4E",
"z$	c #6D6459",
"A$	c #5E4230",
"B$	c #573723",
"C$	c #78736A",
"D$	c #93928A",
"E$	c #939289",
"F$	c #929189",
"G$	c #8F8E86",
"H$	c #655B4E",
"I$	c #6C6359",
"J$	c #55331F",
"K$	c #919088",
"L$	c #96958D",
"M$	c #94938B",
"N$	c #54321D",
"O$	c #767068",
"P$	c #686159",
"Q$	c #686158",
"R$	c #665F57",
"S$	c #716C64",
"T$	c #5D412F",
"U$	c #54311D",
"V$	c #676058",
"W$	c #676057",
"X$	c #665F56",
"Y$	c #706A61",
"Z$	c #6C6358",
"`$	c #54321E",
" %	c #512D18",
".%	c #6A6156",
"+%	c #5F5547",
"@%	c #5D402E",
"#%	c #56331E",
"$%	c #5D5043",
"%%	c #5E4F43",
"&%	c #5E4F44",
"*%	c #5F5044",
"=%	c #5F4F43",
"-%	c #5E4F41",
";%	c #5D4E41",
">%	c #5C4C3F",
",%	c #5C4B3E",
"'%	c #5D4C3E",
")%	c #5C4B3D",
"!%	c #5B4B3D",
"~%	c #5B4A3D",
"{%	c #5C4D40",
"]%	c #5C4C41",
"^%	c #5F5447",
"/%	c #5C402D",
"(%	c #5D5044",
"_%	c #5E5044",
":%	c #5E5042",
"<%	c #5E4E42",
"[%	c #5D4D41",
"}%	c #5D4D3E",
"|%	c #5C4C3E",
"1%	c #5B4C3D",
"2%	c #5B4A3E",
"3%	c #6A6155",
"4%	c #6E6860",
"5%	c #6D675E",
"6%	c #6C665D",
"7%	c #666057",
"8%	c #666058",
"9%	c #655E56",
"0%	c #655E55",
"a%	c #645E55",
"b%	c #645D55",
"c%	c #635C54",
"d%	c #635C53",
"e%	c #625B52",
"f%	c #6C665C",
"g%	c #5B3D2A",
"h%	c #6E685F",
"i%	c #6D675D",
"j%	c #655F57",
"k%	c #655F56",
"l%	c #645F56",
"m%	c #635D55",
"n%	c #625C54",
"o%	c #625C53",
"p%	c #615B52",
"q%	c #6B655C",
"r%	c #6A6257",
"s%	c #726B5F",
"t%	c #5F5446",
"u%	c #593925",
"v%	c #6D675F",
"w%	c #605A51",
"x%	c #605951",
"y%	c #615A52",
"z%	c #6A635B",
"A%	c #4D2712",
"B%	c #5E5446",
"C%	c #767168",
"D%	c #95948C",
"E%	c #676159",
"F%	c #635E55",
"G%	c #615A51",
"H%	c #53493F",
"I%	c #54493F",
"J%	c #53493E",
"K%	c #522F1B",
"L%	c #56351F",
"M%	c #676158",
"N%	c #564C41",
"O%	c #574E43",
"P%	c #5F5850",
"Q%	c #69625A",
"R%	c #54331E",
"S%	c #5E5346",
"T%	c #573621",
"U%	c #5A3A25",
"V%	c #593A25",
"W%	c #593924",
"X%	c #593B26",
"Y%	c #5A3B27",
"Z%	c #5B3C27",
"`%	c #583823",
" &	c #593824",
".&	c #563521",
"+&	c #716A5D",
"@&	c #8A897F",
"#&	c #4C2712",
"$&	c #573622",
"%&	c #989790",
"&&	c #8B887D",
"*&	c #898578",
"=&	c #878377",
"-&	c #878275",
";&	c #878174",
">&	c #868072",
",&	c #868071",
"'&	c #857F72",
")&	c #847E70",
"!&	c #847E6F",
"~&	c #847C6E",
"{&	c #847C6D",
"]&	c #837B6D",
"^&	c #837B6E",
"/&	c #837D6E",
"(&	c #847D6F",
"_&	c #847E6E",
":&	c #847F70",
"<&	c #847F71",
"[&	c #858175",
"}&	c #858275",
"|&	c #645E56",
"1&	c #666158",
"2&	c #656057",
"                                                                                                                                ",
"                                                                                                                                ",
"                                                                                                                                ",
"                                          . + + @ # $ $ $ % % & & & & * = - - - ; > ,                                           ",
"                                        & ' ' ) ! ! ! ~ { { ] ] ] ^ / ( ( ( _ : < [ [ }                                         ",
"                                        | 1 1 ) ! ! ! 2 ] ] 3 3 4 5 5 ( ( ( _ : < 6 7 }                                         ",
"                                        8 9 1 0 a b b c d e e f f f g h i j h < < k l m                                         ",
"                                        n o 1 ! a p q r s s s t u v w x y z A < < k l }                                         ",
"                                        B 9 1 0 C > D E F G H I J J J J K I L _ M k N }                                         ",
"                                        O P 1 Q 3 R S T T U V W X Y Z `  ...+.@.M k #.}                                         ",
"                                        $.1 %.3 3 &.S T *.V =.-.;.>.,.Z  ...'.@.M ).!.}                                         ",
"                                        $.1 %.3 3 ~.{.].^./.(._.:.<.[.}.|.|.z 1.M 2.3.}                                         ",
"                                        $.4.%.3 3 5.6.7.8.9.0.a.b.c.d.e.f.|.z 1.M g.h.i.                                        ",
"                                        $.j.k.l.3 m.n.f.o.p.q.r.s.t.u.v.w.|.z 1.M x.h.y.                                        ",
"                                    z.A.$.j.k.B.B.C.D.E.F.G.H.I.' H.J.K.L.|.M.M M e e N.O.P.                                    ",
"                                  ; Q.R.O S.S.) ) T.U.U.V.W.X.Y.Z.`. + +|.|..+M M ++@+N.#+$+%+                                  ",
"                                , Q.Q.R.O S.S.) ) C.&+*+=+-+;+>+>+,+'+)+|.!+.+M M ~+{+]+^+$+$+%+                                ",
"                                /+(+Q.R.O S._+B.:+, &+*+<+<+[+}+|+1+2+|.|.3+4+M 5+6+6+]+^+$+7+%+                                ",
"                                8+9+Q.R.O S.0+C a+b+c+*+<+<+d+e+e+f+g+|.|.h+.+M 5+i+j+k+^+l+7+m+                                ",
"                                n+o+Q.0 p+S.0+C q+r+s+t+u+u+v+w+x+f+y+y+|.z+z A+B+i+j+k+^+$+$+m+                                ",
"                                C+D+9+! O S.S.E+q+F+G+t+u+u+v+H+I+J+y+y+K+L+M+N+B+i+i+k+O+$+7+%+                                ",
"                                C+D+P+Q+R+S.S.S+S+F+T+t+t+t+U+V+V+E.y+y+K+W+X+B+B+Y+Z+`+ @$+$+%+                                ",
"                                .@+@D+Q+C+@@#@$@$@F+G+t+t+%@&@*@E.=@y+y+L+W+-@B+;@>@$+,@'@$+$+%+                                ",
"                                )@+@+@Q+- !@@@~@~@} G+{@{@]@^@/@(@_@:@K+L+W+-@B+;@>@$+<@[@$+$+}@                                ",
"                                )@+@+@E+|@0+0+1@1@i.G+{@2@^@3@4@5@5@6@_@W+W+-@B+;@>@$+<@[@7@$+%+                                ",
"                                8@9++@9@= 0+|+1@1@0@a@u+b@c@4@d@e@5@5@6@f@W+g@B+;@>@$+]+h@>@$+}@                                ",
"                                i@9+9+j@k@l@+@1@1@0@m@u+n@3@d@d@c@3@3@o@f@p@g@B+;@>@7@]+q@>@$+r@                                ",
"                                s@t@t@u@- v@w@x@x@y@m@z@/@c@e@5@3@3@e@^@p@A@X+B+;@j+B@C@D@E@>@r@                                ",
"                                F@l@l@G@H@I@J@K@L@y@m@z@M@c@4@5@5@e@3@N@A@A@O@B+;@i+E@C@7 E@E@r@                                ",
"                                P@l@l@G@Q@x+R@S@S@T@U@V@W@X@3@4@4@3@M@z@A@A@O@;@;@~+Y@C@7 E@E@P.                                ",
"                                P@v@l@Z@`@ #.#+#+#@###$#%#]@N@n@^@&#]@A@A@A@O@;@*#Y@Y@k+7 E@E@P.                                ",
"                                =#-#-#;#)@>#.#,#K@'#U@)#!#%#~#{#&@]#A@A@A@A@O@B+^#/#Y@k+7 E@E@P.                                ",
"                                =#-#-#;#)@(#_#:#,#<#[#}#|#|#|#1#2#3#A@A@A@4#O@5#5#Y@Y@`+7 E@E@P.                                ",
"                                =#-#-#;#6#7#8#9#9#0#n.a#b#c#d#e#f#g#h#i#j#k#l#m#m#Y@Y@k+7 E@E@P.                                ",
"                                =#-#-#;#Q@7#8#L@L@n#o#p#q#r#s#t#u#q#v#g+k#w#x#S@S@Y@Y@y#7 E@E@P.                                ",
"                                =#z#-#;#Q@7#R@~@~@n#f#A#B#C#D#E#F#G#F#H#I#J#K#:#:#Y@Y@L#M#E@E@P.                                ",
"                                6#z#z#4 Q@N#N#~@1@O#P#Q#R#S#T#T#U#V#W#X#Y#Z#g@`#`#Y@h@]+ $E@E@P.                                ",
"                                .$+$z#^ `@@$#$$$%$O#g#&$*$8#{#=$-$;$K+>$,$'$w L@L@)$!$]+~$E@E@P.                                ",
"                                {$+$+$]$^$@$/$($_$O#:$<$&$[$}$|$1$1$2$3$4$5$w 6$6$)$!$]+7$E@E@P.                                ",
"                                {$+$+$]$8$8#9$6$0$a$b$c$O@d$d$x e$e$f$g$=#=#.$6$6$)$)$]+7$E@E@P.                                ",
"                                {$+$+$]$h$8#i$6$0$0$0$0$0$0$0$0$0$0$0$0$0$0$6$6$6$)$)$j$7$E@E@P.                                ",
"                                {$+$+$]$k$l$m$n$n$o$p$q$r$s$s$s$s$s$s$t$u$v$v$w$w$x$y$P.z$E@E@P.                                ",
"                                A$+$i$]$B$C$D$D$D$D$D$D$D$D$D$D$D$E$E$F$F$F$F$F$G$p$H$r@I$$+$+P.                                ",
"                                x +$i$]$J$K$D$D$D$L$M$M$M$M$D$E$E$F$F$F$F$F$F$F$F$G$p$r@I$$+$+r@                                ",
"                                x +$i$]$N$O$P$P$P$P$P$P$P$P$P$Q$R$R$R$R$R$R$R$R$R$R$S$}@I$$+$+r@                                ",
"                                T$+$i$]$U$D#P$P$P$P$P$V$V$W$R$R$R$R$R$R$R$X$X$X$X$Q$Y$%+Z$$+$+}@                                ",
"                                8$i$i$;#`$ %P.P.P.P.P.P.P.P.r@r@r@}@}@%+%+%+%+m+m+m+%+.%.%+%7+%+                                ",
"                                @%i$i$K$L@#%$%%%&%*%=%-%;%>%,%'%)%!%~%!%,%,%>%{%]%{%m+.%.%^%+%%+                                ",
"                                /%i$i$F$1@y@(%&%_%&%:%<%;%[%}%'%|%1%!%2%,%>%>%{%]%{%m+3%3%^%^%m+                                ",
"                                z i$i$E$6$y@4%5%6%7%R$8%R$9%0%a%b%c%c%d%d%e%e%e%d%f%m+3%3%^%^%m+                                ",
"                                g%i$i$D$6$y@h%5%i%8%8%R$j%k%l%m%m%c%n%o%e%e%p%p%p%q%m+r%s%t%t%m+                                ",
"                                u%i$i$:+6$y@h%v%8%8%R$j%j%0%m%m%c%o%e%e%w%w%w%x%y%z%A%s%s%B%t%m+                                ",
"                                m C%C%D%6$y@h%E%8%R$j%j%0%F%c%n%o%G%G%w%H%I%J%x%x%z%K%s%s%B%B%m+                                ",
"                                B$C%C%r$6$L%h%M%j%j%j%9%a%c%n%n%e%G%N%I%O%O%O%x%P%Q%R%s%s%S%S%A%                                ",
"                                B$C%C%r$1@T%} U%V%W%W%W%U%X%X%Y%Z%`%`% &m .&`$`$`$`$`$+&@&S%S%#&                                ",
"                                $&C%C%%&F$&&*&=&-&;&>&,&'&)&!&~&{&]&^&/&/&(&_&)&:&<&[&}&@&S%S%#&                                ",
"                                N$C%C%E%E%E%E%M%8%8%8%8%7%j%j%k%k%l%l%|&|&|&|&|&|&|&a%a%a%S%S%#&                                ",
"                                P.C%E%E%E%E%E%1&8%8%8%8%2&j%j%k%k%l%l%l%|&|&|&|&|&|&a%a%a%a%S%#&                                ",
"                                P.E%E%E%E%E%E%1&8%8%8%8%7%j%j%k%k%k%l%l%|&|&|&|&|&|&a%a%a%a%a%#&                                ",
"                                P.P.P.P.P.P.P.P.r@r@}@}@%+%+m+m+m+m+m+m+m+A%A%A%#&#&#&#&#&#&#&#&                                ",
"                                                                                                                                ",
"                                                                                                                                ",
"                                                                                                                                ",
"                                                                                                                                "};
