/* XPM */
static char * anim3_xpm[] = {
"64 64 595 2",
"  	c #9CDB43",
". 	c #5A361F",
"+ 	c #5F3E29",
"@ 	c #60402B",
"# 	c #61422D",
"$ 	c #62432F",
"% 	c #634632",
"& 	c #624632",
"* 	c #624530",
"= 	c #61432F",
"- 	c #60432F",
"; 	c #5F412D",
"> 	c #5E402B",
", 	c #5B3B26",
"' 	c #888479",
") 	c #949389",
"! 	c #939187",
"~ 	c #908E84",
"{ 	c #8F8D82",
"] 	c #8F8D83",
"^ 	c #8E8C83",
"/ 	c #8E8C80",
"( 	c #8D8C82",
"_ 	c #8D8B82",
": 	c #8C8B82",
"< 	c #8C8B81",
"[ 	c #6E665B",
"} 	c #583722",
"| 	c #644936",
"1 	c #7E776D",
"2 	c #908E85",
"3 	c #8F8E83",
"4 	c #8E8D83",
"5 	c #8E8C81",
"6 	c #695E51",
"7 	c #685E52",
"8 	c #644734",
"9 	c #7D766C",
"0 	c #949288",
"a 	c #939186",
"b 	c #64594C",
"c 	c #65594C",
"d 	c #655A4C",
"e 	c #66594B",
"f 	c #66594C",
"g 	c #66584B",
"h 	c #65584B",
"i 	c #645749",
"j 	c #645649",
"k 	c #695D4F",
"l 	c #695C4F",
"m 	c #583723",
"n 	c #634733",
"o 	c #7C766C",
"p 	c #5E3F2B",
"q 	c #5D3E29",
"r 	c #604533",
"s 	c #604534",
"t 	c #604535",
"u 	c #5F4332",
"v 	c #5F4331",
"w 	c #5F4230",
"x 	c #5E422F",
"y 	c #5C3C2A",
"z 	c #5C3F2C",
"A 	c #5A3C2A",
"B 	c #624430",
"C 	c #939188",
"D 	c #68594F",
"E 	c #695A4E",
"F 	c #6A5C51",
"G 	c #6A5E54",
"H 	c #6B5E54",
"I 	c #6B5F55",
"J 	c #6C6056",
"K 	c #6C5F55",
"L 	c #5A3D2C",
"M 	c #868479",
"N 	c #685C50",
"O 	c #624531",
"P 	c #7D776D",
"Q 	c #929087",
"R 	c #5D3F29",
"S 	c #68594E",
"T 	c #73665C",
"U 	c #73675D",
"V 	c #74675D",
"W 	c #62412B",
"X 	c #61412A",
"Y 	c #736D63",
"Z 	c #746D63",
"` 	c #736C61",
" .	c #736C62",
"..	c #726C62",
"+.	c #5C3E2D",
"@.	c #87847A",
"#.	c #685C4F",
"$.	c #634631",
"%.	c #7F776D",
"&.	c #5E3E2A",
"*.	c #73675C",
"=.	c #68503D",
"-.	c #8D8B7F",
";.	c #8E8B7F",
">.	c #62412A",
",.	c #756D65",
"'.	c #5C3F2D",
").	c #685C4E",
"!.	c #675B4E",
"~.	c #5E3E28",
"{.	c #6A5B50",
"].	c #70675D",
"^.	c #685040",
"/.	c #6A513F",
"(.	c #6A513E",
"_.	c #8D8A7D",
":.	c #8C8A7D",
"<.	c #63422C",
"[.	c #62422B",
"}.	c #61402A",
"|.	c #79756D",
"1.	c #86847A",
"2.	c #685B4D",
"3.	c #675A4C",
"4.	c #807A6F",
"5.	c #5D3C26",
"6.	c #6A5D50",
"7.	c #5A3823",
"8.	c #8C897D",
"9.	c #8B887C",
"0.	c #8C887C",
"a.	c #8C887B",
"b.	c #8B887B",
"c.	c #89887B",
"d.	c #8B897B",
"e.	c #8A887B",
"f.	c #5C3B25",
"g.	c #675A4D",
"h.	c #665A4C",
"i.	c #583721",
"j.	c #827D72",
"k.	c #827C72",
"l.	c #929186",
"m.	c #5D3C27",
"n.	c #6B5D51",
"o.	c #928F84",
"p.	c #929084",
"q.	c #939086",
"r.	c #8C897C",
"s.	c #8A867B",
"t.	c #928E84",
"u.	c #908D84",
"v.	c #8F8B81",
"w.	c #5D3D27",
"x.	c #675B4D",
"y.	c #512C17",
"z.	c #5B3B24",
"A.	c #5D3E28",
"B.	c #939288",
"C.	c #5C3D27",
"D.	c #6D5F53",
"E.	c #532C15",
"F.	c #686056",
"G.	c #696157",
"H.	c #6A6157",
"I.	c #89857A",
"J.	c #696057",
"K.	c #685F56",
"L.	c #5C3C26",
"M.	c #5C3E2C",
"N.	c #512B16",
"O.	c #502B16",
"P.	c #4F2913",
"Q.	c #817D73",
"R.	c #949289",
"S.	c #827F74",
"T.	c #5C3D28",
"U.	c #6F6356",
"V.	c #5A351E",
"W.	c #5A351D",
"X.	c #5A371E",
"Y.	c #858276",
"Z.	c #868276",
"`.	c #573017",
" +	c #56321B",
".+	c #5B3E2C",
"++	c #65584A",
"@+	c #64584A",
"#+	c #675C4E",
"$+	c #605548",
"%+	c #4E2812",
"&+	c #706153",
"*+	c #797369",
"=+	c #6A18D1",
"-+	c #5A3923",
";+	c #848074",
">+	c #562F16",
",+	c #72695E",
"'+	c #73685D",
")+	c #78736B",
"!+	c #63584A",
"~+	c #63574A",
"{+	c #512C16",
"]+	c #63584B",
"^+	c #5D3E2A",
"/+	c #807D73",
"(+	c #827E73",
"_+	c #94938A",
":+	c #761FD5",
"<+	c #D957F7",
"[+	c #E35DFB",
"}+	c #7D23D7",
"|+	c #817D72",
"1+	c #807D72",
"2+	c #552E16",
"3+	c #7A756F",
"4+	c #78736C",
"5+	c #5B3E2B",
"6+	c #858379",
"7+	c #635749",
"8+	c #605547",
"9+	c #5D3F2A",
"0+	c #807B72",
"a+	c #827E74",
"b+	c #8E8D81",
"c+	c #5A3A24",
"d+	c #731DD4",
"e+	c #B342EA",
"f+	c #F16DFC",
"g+	c #F57CF7",
"h+	c #AE3FE8",
"i+	c #5C10CC",
"j+	c #542D15",
"k+	c #807C74",
"l+	c #79746D",
"m+	c #625749",
"n+	c #625649",
"o+	c #522D18",
"p+	c #61564A",
"q+	c #4D2812",
"r+	c #5E402C",
"s+	c #817C73",
"t+	c #624631",
"u+	c #8D8C80",
"v+	c #6616CF",
"w+	c #C74DF1",
"x+	c #CC50F3",
"y+	c #BA46EC",
"z+	c #3E00BF",
"A+	c #3700B5",
"B+	c #78746D",
"C+	c #868478",
"D+	c #858478",
"E+	c #60432E",
"F+	c #817C72",
"G+	c #918F86",
"H+	c #9B34E2",
"I+	c #FFA2E9",
"J+	c #E961FD",
"K+	c #C44BF0",
"L+	c #9531E0",
"M+	c #570DCA",
"N+	c #63594B",
"O+	c #807B71",
"P+	c #919086",
"Q+	c #614430",
"R+	c #8C8B7F",
"S+	c #FC98ED",
"T+	c #DD59F9",
"U+	c #8528DA",
"V+	c #625648",
"W+	c #625548",
"X+	c #522E18",
"Y+	c #645A4C",
"Z+	c #60422E",
"`+	c #807C72",
" @	c #837E75",
".@	c #837F75",
"+@	c #8C8A7F",
"@@	c #F373FA",
"#@	c #F067FE",
"$@	c #532E18",
"%@	c #665B4E",
"&@	c #604430",
"*@	c #837E74",
"=@	c #8B8A7F",
"-@	c #FA92EF",
";@	c #FC97EE",
">@	c #512B15",
",@	c #665C4E",
"'@	c #4E2813",
")@	c #61442F",
"!@	c #8B8A7E",
"~@	c #D354F5",
"{@	c #FFA4E9",
"]@	c #FD9DEC",
"^@	c #F888F3",
"/@	c #615548",
"(@	c #614632",
"_@	c #918F85",
":@	c #675D50",
"<@	c #615648",
"[@	c #624634",
"}@	c #908F85",
"|@	c #60442F",
"1@	c #7F7B71",
"2@	c #8C2BDC",
"3@	c #685D51",
"4@	c #4E2913",
"5@	c #614634",
"6@	c #7F7B72",
"7@	c #8F8E85",
"8@	c #7F7A71",
"9@	c #7E7A6F",
"0@	c #4905C5",
"a@	c #605549",
"b@	c #522D17",
"c@	c #695E52",
"d@	c #615649",
"e@	c #614633",
"f@	c #8F8E84",
"g@	c #604531",
"h@	c #7F7970",
"i@	c #858477",
"j@	c #614532",
"k@	c #5F4431",
"l@	c #62574A",
"m@	c #8F8D84",
"n@	c #5F4430",
"o@	c #6C19D1",
"p@	c #858377",
"q@	c #604432",
"r@	c #7E7A71",
"s@	c #8E8D84",
"t@	c #7C786D",
"u@	c #E55FFC",
"v@	c #A439E5",
"w@	c #848378",
"x@	c #62574B",
"y@	c #7D776E",
"z@	c #7C776D",
"A@	c #858479",
"B@	c #604431",
"C@	c #7C776E",
"D@	c #7A766D",
"E@	c #89887D",
"F@	c #868579",
"G@	c #8A897E",
"H@	c #502A14",
"I@	c #695B51",
"J@	c #716961",
"K@	c #87867B",
"L@	c #512D17",
"M@	c #7E7A70",
"N@	c #7C786F",
"O@	c #675A4F",
"P@	c #6F685D",
"Q@	c #716A61",
"R@	c #736E65",
"S@	c #746F67",
"T@	c #5E402D",
"U@	c #89887C",
"V@	c #502C16",
"W@	c #695F53",
"X@	c #7B776E",
"Y@	c #502A13",
"Z@	c #66594F",
"`@	c #696259",
" #	c #5D4D3F",
".#	c #5D4C3F",
"+#	c #615246",
"@#	c #605246",
"##	c #74706B",
"$#	c #5E402E",
"%#	c #89887E",
"&#	c #6A6054",
"*#	c #604331",
"=#	c #7D7970",
"-#	c #7B776D",
";#	c #7B776C",
">#	c #8C8A7E",
",#	c #8C8B7E",
"'#	c #66594D",
")#	c #696258",
"!#	c #78746B",
"~#	c #7C776F",
"{#	c #7D7870",
"]#	c #817D76",
"^#	c #7F7A74",
"/#	c #4704C4",
"(#	c #3B00BB",
"_#	c #726E69",
":#	c #736E69",
"<#	c #665C4F",
"[#	c #675D4F",
"}#	c #6B6155",
"|#	c #5E4331",
"1#	c #8D8C83",
"2#	c #5E422D",
"3#	c #7A766C",
"4#	c #8C8A80",
"5#	c #8C8A81",
"6#	c #65574D",
"7#	c #696158",
"8#	c #6A6259",
"9#	c #6A635A",
"0#	c #6B645B",
"a#	c #6F6962",
"b#	c #716B64",
"c#	c #716B66",
"d#	c #716D67",
"e#	c #726D69",
"f#	c #8B8A80",
"g#	c #6D645A",
"h#	c #5D412E",
"i#	c #7A756C",
"j#	c #8B8A81",
"k#	c #502913",
"l#	c #5B3A26",
"m#	c #5A3A26",
"n#	c #5C3D2A",
"o#	c #5F422F",
"p#	c #5F412F",
"q#	c #624432",
"r#	c #614432",
"s#	c #5C3F2B",
"t#	c #79756C",
"u#	c #502A15",
"v#	c #5B3C28",
"w#	c #7A756D",
"x#	c #79756B",
"y#	c #9C9B94",
"z#	c #9B9A93",
"A#	c #9A9991",
"B#	c #999890",
"C#	c #97968E",
"D#	c #98978F",
"E#	c #99988F",
"F#	c #9A9990",
"G#	c #9B9A92",
"H#	c #9B9A91",
"I#	c #696154",
"J#	c #675D4E",
"K#	c #6D6459",
"L#	c #5E4230",
"M#	c #573723",
"N#	c #78736A",
"O#	c #93928A",
"P#	c #939289",
"Q#	c #929189",
"R#	c #8F8E86",
"S#	c #655B4E",
"T#	c #6C6359",
"U#	c #55331F",
"V#	c #919088",
"W#	c #96958D",
"X#	c #94938B",
"Y#	c #54321D",
"Z#	c #767068",
"`#	c #686159",
" $	c #686158",
".$	c #665F57",
"+$	c #716C64",
"@$	c #5D412F",
"#$	c #54311D",
"$$	c #676058",
"%$	c #676057",
"&$	c #665F56",
"*$	c #706A61",
"=$	c #6C6358",
"-$	c #54321E",
";$	c #512D18",
">$	c #6A6156",
",$	c #5F5547",
"'$	c #5D402E",
")$	c #56331E",
"!$	c #5D5043",
"~$	c #5E4F43",
"{$	c #5E4F44",
"]$	c #5F5044",
"^$	c #5F4F43",
"/$	c #5E4F41",
"($	c #5D4E41",
"_$	c #5C4C3F",
":$	c #5C4B3E",
"<$	c #5D4C3E",
"[$	c #5C4B3D",
"}$	c #5B4B3D",
"|$	c #5B4A3D",
"1$	c #5C4D40",
"2$	c #5C4C41",
"3$	c #5F5447",
"4$	c #5C402D",
"5$	c #573520",
"6$	c #5D5044",
"7$	c #5E5044",
"8$	c #5E5042",
"9$	c #5E4E42",
"0$	c #5D4D41",
"a$	c #5D4D3E",
"b$	c #5C4C3E",
"c$	c #5B4C3D",
"d$	c #5B4A3E",
"e$	c #6A6155",
"f$	c #6E6860",
"g$	c #6D675E",
"h$	c #6C665D",
"i$	c #666057",
"j$	c #666058",
"k$	c #655E56",
"l$	c #655E55",
"m$	c #645E55",
"n$	c #645D55",
"o$	c #635C54",
"p$	c #635C53",
"q$	c #625B52",
"r$	c #6C665C",
"s$	c #5B3D2A",
"t$	c #6E685F",
"u$	c #6D675D",
"v$	c #655F57",
"w$	c #655F56",
"x$	c #645F56",
"y$	c #635D55",
"z$	c #625C54",
"A$	c #625C53",
"B$	c #615B52",
"C$	c #6B655C",
"D$	c #6A6257",
"E$	c #726B5F",
"F$	c #5F5446",
"G$	c #593925",
"H$	c #6D675F",
"I$	c #605A51",
"J$	c #605951",
"K$	c #615A52",
"L$	c #6A635B",
"M$	c #4D2712",
"N$	c #5E5446",
"O$	c #767168",
"P$	c #95948C",
"Q$	c #676159",
"R$	c #635E55",
"S$	c #615A51",
"T$	c #53493F",
"U$	c #54493F",
"V$	c #53493E",
"W$	c #522F1B",
"X$	c #56351F",
"Y$	c #676158",
"Z$	c #564C41",
"`$	c #574E43",
" %	c #5F5850",
".%	c #69625A",
"+%	c #54331E",
"@%	c #5E5346",
"#%	c #573621",
"$%	c #5A3A25",
"%%	c #593A25",
"&%	c #593924",
"*%	c #593B26",
"=%	c #5A3B27",
"-%	c #5B3C27",
";%	c #583823",
">%	c #593824",
",%	c #563521",
"'%	c #716A5D",
")%	c #8A897F",
"!%	c #4C2712",
"~%	c #573622",
"{%	c #989790",
"]%	c #8B887D",
"^%	c #898578",
"/%	c #878377",
"(%	c #878275",
"_%	c #878174",
":%	c #868072",
"<%	c #868071",
"[%	c #857F72",
"}%	c #847E70",
"|%	c #847E6F",
"1%	c #847C6E",
"2%	c #847C6D",
"3%	c #837B6D",
"4%	c #837B6E",
"5%	c #837D6E",
"6%	c #847D6F",
"7%	c #847E6E",
"8%	c #847F70",
"9%	c #847F71",
"0%	c #858175",
"a%	c #858275",
"b%	c #645E56",
"c%	c #666158",
"d%	c #656057",
"                                                                                                                                ",
"                                                                                                                                ",
"                                                                                                                                ",
"                                          . + + @ # $ $ $ % % & & & & * = - - - ; > ,                                           ",
"                                        & ' ' ) ! ! ! ~ { { ] ] ] ^ / ( ( ( _ : < [ [ }                                         ",
"                                        | 1 1 ) ! ! ! 2 ] ] 3 3 4 5 5 ( ( ( _ : < 6 7 }                                         ",
"                                        8 9 1 0 a b b c d e e f f f g h i j h < < k l m                                         ",
"                                        n o 1 ! a p q r s s s t u v w x y z A < < k l }                                         ",
"                                        B 9 1 0 C > D E F G H I J J J J K I L _ M k N }                                         ",
"                                        O P 1 Q 3 R S T T U V W X Y Z `  ...+.@.M k #.}                                         ",
"                                        $.1 %.3 3 &.S T *.V =.-.;.>.,.Z  ...'.@.M ).!.}                                         ",
"                                        $.1 %.3 3 ~.{.].^./.(._.:.<.[.}.|.|.z 1.M 2.3.}                                         ",
"                                        $.4.%.3 3 5.6.7.8.9.0.a.b.c.d.e.f.|.z 1.M g.h.i.                                        ",
"                                        $.j.k.l.3 m.n.f.o.p.q.r.s.t.u.v.w.|.z 1.M x.h.y.                                        ",
"                                    z.A.$.j.k.B.B.C.D.E.F.G.H.I.' H.J.K.L.|.M.M M e e N.O.P.                                    ",
"                                  ; Q.R.O S.S.) ) T.U.U.V.W.X.Y.Z.`. + +|.|..+M M ++@+N.#+$+%+                                  ",
"                                , Q.Q.R.O S.S.) ) C.&+*+=+=+-+;+;+>+,+'+|.)+.+M M !+~+{+]+$+$+%+                                ",
"                                ^+/+Q.R.O S.(+B._+, &+:+<+[+}+|+1+2+3+|.|.4+5+M 6+7+7+{+]+$+8+%+                                ",
"                                9+0+Q.R.O S.a+C b+c+d+e+f+g+[+h+i+j+k+|.|.l+.+M 6+m+n+o+]+p+8+q+                                ",
"                                r+s+Q.0 t+S.a+C u+v+w+x+x+[+g+g+y+:+z+A+|.B+z C+D+m+n+o+]+$+$+q+                                ",
"                                E+F+0+! O S.S.G+u+H+I+J+w+K+J+J+w+H+L+L+:+M+z+A+D+m+m+o+N+$+8+%+                                ",
"                                E+F+O+P+Q+S.S.R+R+L+S+[+e+H+e+y+e+e+w+[+T+w+h+U+M+V+W+X+Y+$+$+%+                                ",
"                                Z+`+F+P+E+ @.@+@+@L+J+K+H+U+H+y+[+f+@@g+g+@@#@[+K+d+$+$@%@$+$+%+                                ",
"                                &@`+`+P+- *@ @=@z+L+h+L+U+U+e+[+-@I+I+;@-@;@I+;@-@T+v+>@,@$+$+'@                                ",
"                                &@`+`+G+)@a+a+!@M+H+U+H+e+e+~@f+{@{@]@-@^@;@I+]@;@~@i+>@,@/@$+%+                                ",
"                                (@0+`+_@= a+1+!@H+[+w+[+J+J+J+@@;@{@]@-@g+^@;@g+x+d+$+{+:@<@$+'@                                ",
"                                [@0+0+}@|@1@`+:+f+-@g+g+-@-@^@^@^@-@^@f+f+g+^@#@2@<@/@{+3@<@$+4@                                ",
"                                5@6@6@7@- 8@9@w+{@I+{@;@g+^@;@I+-@-@;@g+^@^@-@x+0@n+a@b@c@d@<@4@                                ",
"                                e@1@1@f@g@h@H+f+{@I+{@-@^@^@]@I+I+;@-@g+-@S+;@h+i@m+d@b@7 d@d@4@                                ",
"                                j@1@1@f@k@:+f+]@;@{@S+g+f+g+-@]@]@-@g+-@I+I+-@}+i@!+l@b@7 d@d@P.                                ",
"                                j@8@1@m@n@o@J+]@;@{@g+f+[+f+g+g+J+[+[+g+]@I+[+v+p@l@l@o+7 d@d@P.                                ",
"                                q@r@r@s@&@t@2@u@-@I+g+[+e+K+~@~@h+v@w+f+-@-@h+D+w@x@l@o+7 d@d@P.                                ",
"                                q@r@r@s@&@y@z@2@f+]@-@u@e+H+H+h+h+y+T+f+g+g+U+A@A@l@l@X+7 d@d@P.                                ",
"                                q@r@r@s@B@C@D@E@d+L+L+L+L+U+H+y+u@f+@@J+J+T+=+F@F@l@l@o+7 d@d@P.                                ",
"                                q@r@r@s@k@C@D@G@G@H@I@J@z+z+d+y+-@{@;@f+x+L+z+K@K@l@l@L@7 d@d@P.                                ",
"                                q@M@r@s@k@C@N@=@=@H@O@P@Q@R@S@v+w+f+-@[+L+z+T@U@U@l@l@V@W@d@d@P.                                ",
"                                B@M@M@4 k@X@X@=@!@Y@Z@`@ #.#+#+#@#2@K+H+0@##$#%#%#l@:@{+&#d@d@P.                                ",
"                                *#=#M@^ n@-#;#>#,#Y@'#)#!#D@~#{#]#^#/#(#_#:#w G@G@<#[#{+}#d@d@P.                                ",
"                                |#=#=#1#2#-#3#4#5#Y@6#7#)#8#9#0#a#a#b#c#d#e#w f#f#<#[#{+g#d@d@P.                                ",
"                                |#=#=#1#h#D@i#f#j#k#l#m#n#o#o#x p#p#q#r#q@q@*#f#f#<#<#{+g#d@d@P.                                ",
"                                |#=#=#1#s#D@t#f#j#j#j#j#j#j#j#j#j#j#j#j#j#j#f#f#f#<#<#u#g#d@d@P.                                ",
"                                |#=#=#1#v#w#x#y#y#z#A#B#C#D#D#D#D#D#D#E#F#G#G#H#H#I#J#P.K#d@d@P.                                ",
"                                L#=#t#1#M#N#O#O#O#O#O#O#O#O#O#O#O#P#P#Q#Q#Q#Q#Q#R#A#S#4@T#$+$+P.                                ",
"                                x =#t#1#U#V#O#O#O#W#X#X#X#X#O#P#P#Q#Q#Q#Q#Q#Q#Q#Q#R#A#4@T#$+$+4@                                ",
"                                x =#t#1#Y#Z#`#`#`#`#`#`#`#`#`# $.$.$.$.$.$.$.$.$.$.$+$'@T#$+$+4@                                ",
"                                @$=#t#1##$S@`#`#`#`#`#$$$$%$.$.$.$.$.$.$.$&$&$&$&$ $*$%+=$$+$+'@                                ",
"                                h#t#t#s@-$;$P.P.P.P.P.P.P.P.4@4@4@'@'@%+%+%+%+q+q+q+%+>$>$,$8+%+                                ",
"                                '$t#t#V#G@)$!$~${$]$^$/$($_$:$<$[$}$|$}$:$:$_$1$2$1$q+>$>$3$,$%+                                ",
"                                4$t#t#Q#!@5$6${$7${$8$9$($0$a$<$b$c$}$d$:$_$_$1$2$1$q+e$e$3$3$q+                                ",
"                                z t#t#P#f#5$f$g$h$i$.$j$.$k$l$m$n$o$o$p$p$q$q$q$p$r$q+e$e$3$3$q+                                ",
"                                s$t#t#O#f#5$t$g$u$j$j$.$v$w$x$y$y$o$z$A$q$q$B$B$B$C$q+D$E$F$F$q+                                ",
"                                G$t#t#_+f#5$t$H$j$j$.$v$v$l$y$y$o$A$q$q$I$I$I$J$K$L$M$E$E$N$F$q+                                ",
"                                m O$O$P$f#5$t$Q$j$.$v$v$l$R$o$z$A$S$S$I$T$U$V$J$J$L$W$E$E$N$N$q+                                ",
"                                M#O$O$C#f#X$t$Y$v$v$v$k$m$o$z$z$q$S$Z$U$`$`$`$J$ %.%+%E$E$@%@%M$                                ",
"                                M#O$O$C#!@#%} $%%%&%&%&%$%*%*%=%-%;%;%>%m ,%-$-$-$-$-$'%)%@%@%!%                                ",
"                                ~%O$O${%Q#]%^%/%(%_%:%<%[%}%|%1%2%3%4%5%5%6%7%}%8%9%0%a%)%@%@%!%                                ",
"                                Y#O$O$Q$Q$Q$Q$Y$j$j$j$j$i$v$v$w$w$x$x$b%b%b%b%b%b%b%m$m$m$@%@%!%                                ",
"                                P.O$Q$Q$Q$Q$Q$c%j$j$j$j$d%v$v$w$w$x$x$x$b%b%b%b%b%b%m$m$m$m$@%!%                                ",
"                                P.Q$Q$Q$Q$Q$Q$c%j$j$j$j$i$v$v$w$w$w$x$x$b%b%b%b%b%b%m$m$m$m$m$!%                                ",
"                                P.P.P.P.P.P.P.P.4@4@'@'@%+%+q+q+q+q+q+q+q+M$M$M$!%!%!%!%!%!%!%!%                                ",
"                                                                                                                                ",
"                                                                                                                                ",
"                                                                                                                                ",
"                                                                                                                                "};
