/* XPM */
static char * anim4_xpm[] = {
"64 64 465 2",
"  	c #9CDB43",
". 	c #5A361F",
"+ 	c #5F3E29",
"@ 	c #60402B",
"# 	c #61422D",
"$ 	c #62432F",
"% 	c #634632",
"& 	c #624632",
"* 	c #624530",
"= 	c #61432F",
"- 	c #60432F",
"; 	c #5F412D",
"> 	c #5E402B",
", 	c #5B3B26",
"' 	c #888479",
") 	c #949389",
"! 	c #939187",
"~ 	c #908E84",
"{ 	c #8F8D82",
"] 	c #8F8D83",
"^ 	c #8E8C83",
"/ 	c #8E8C80",
"( 	c #8D8C82",
"_ 	c #8D8B82",
": 	c #8C8B82",
"< 	c #8C8B81",
"[ 	c #6E665B",
"} 	c #583722",
"| 	c #644936",
"1 	c #7E776D",
"2 	c #908E85",
"3 	c #8F8E83",
"4 	c #8E8D83",
"5 	c #8E8C81",
"6 	c #695E51",
"7 	c #685E52",
"8 	c #644734",
"9 	c #7D766C",
"0 	c #949288",
"a 	c #939186",
"b 	c #64594C",
"c 	c #65594C",
"d 	c #655A4C",
"e 	c #66594B",
"f 	c #66594C",
"g 	c #66584B",
"h 	c #65584B",
"i 	c #645749",
"j 	c #645649",
"k 	c #695D4F",
"l 	c #695C4F",
"m 	c #583723",
"n 	c #634733",
"o 	c #7C766C",
"p 	c #5E3F2B",
"q 	c #5D3E29",
"r 	c #604533",
"s 	c #604534",
"t 	c #604535",
"u 	c #5F4332",
"v 	c #5F4331",
"w 	c #5F4230",
"x 	c #5E422F",
"y 	c #5C3C2A",
"z 	c #5C3F2C",
"A 	c #5A3C2A",
"B 	c #624430",
"C 	c #939188",
"D 	c #68594F",
"E 	c #695A4E",
"F 	c #6A5C51",
"G 	c #6A5E54",
"H 	c #6B5E54",
"I 	c #6B5F55",
"J 	c #6C6056",
"K 	c #6C5F55",
"L 	c #5A3D2C",
"M 	c #868479",
"N 	c #685C50",
"O 	c #624531",
"P 	c #7D776D",
"Q 	c #929087",
"R 	c #5D3F29",
"S 	c #68594E",
"T 	c #73665C",
"U 	c #73675D",
"V 	c #74675D",
"W 	c #62412B",
"X 	c #61412A",
"Y 	c #736D63",
"Z 	c #746D63",
"` 	c #736C61",
" .	c #736C62",
"..	c #726C62",
"+.	c #5C3E2D",
"@.	c #87847A",
"#.	c #685C4F",
"$.	c #634631",
"%.	c #7F776D",
"&.	c #5E3E2A",
"*.	c #73675C",
"=.	c #68503D",
"-.	c #8D8B7F",
";.	c #8E8B7F",
">.	c #62412A",
",.	c #756D65",
"'.	c #5C3F2D",
").	c #685C4E",
"!.	c #675B4E",
"~.	c #5E3E28",
"{.	c #6A5B50",
"].	c #70675D",
"^.	c #685040",
"/.	c #6A513F",
"(.	c #6A513E",
"_.	c #8D8A7D",
":.	c #8C8A7D",
"<.	c #63422C",
"[.	c #62422B",
"}.	c #61402A",
"|.	c #79756D",
"1.	c #86847A",
"2.	c #685B4D",
"3.	c #675A4C",
"4.	c #807A6F",
"5.	c #5D3C26",
"6.	c #6A5D50",
"7.	c #5A3823",
"8.	c #8C897D",
"9.	c #8B887C",
"0.	c #8C887C",
"a.	c #8C887B",
"b.	c #8B887B",
"c.	c #89887B",
"d.	c #8B897B",
"e.	c #8A887B",
"f.	c #5C3B25",
"g.	c #675A4D",
"h.	c #665A4C",
"i.	c #583721",
"j.	c #827D72",
"k.	c #827C72",
"l.	c #929186",
"m.	c #4B06C6",
"n.	c #7920D6",
"o.	c #8E2DDD",
"p.	c #8F2DDE",
"q.	c #701BD3",
"r.	c #939086",
"s.	c #8C897C",
"t.	c #8A867B",
"u.	c #928E84",
"v.	c #908D84",
"w.	c #8F8B81",
"x.	c #5D3D27",
"y.	c #675B4D",
"z.	c #512C17",
"A.	c #5B3B24",
"B.	c #5D3E28",
"C.	c #3800B6",
"D.	c #6616CF",
"E.	c #9531E0",
"F.	c #E961FD",
"G.	c #F786F3",
"H.	c #FFA4E9",
"I.	c #F16DFC",
"J.	c #B141E9",
"K.	c #6A6157",
"L.	c #696057",
"M.	c #685F56",
"N.	c #5C3C26",
"O.	c #5C3E2C",
"P.	c #512B16",
"Q.	c #502B16",
"R.	c #4F2913",
"S.	c #817D73",
"T.	c #949289",
"U.	c #827F74",
"V.	c #3D00BD",
"W.	c #B543EB",
"X.	c #A238E4",
"Y.	c #C049EF",
"Z.	c #FD9AEC",
"`.	c #FA92EF",
" +	c #56321B",
".+	c #5B3E2C",
"++	c #65584A",
"@+	c #64584A",
"#+	c #675C4E",
"$+	c #605548",
"%+	c #4E2812",
"&+	c #8528DA",
"*+	c #C74DF1",
"=+	c #DF5BF9",
"-+	c #F373FA",
";+	c #FEA0EA",
">+	c #F476F9",
",+	c #F067FE",
"'+	c #AB3DE7",
")+	c #78736B",
"!+	c #63574A",
"~+	c #512C16",
"{+	c #63584B",
"]+	c #5D3E2A",
"^+	c #807D73",
"/+	c #F98CF1",
"(+	c #D354F5",
"_+	c #CC50F3",
":+	c #BB46ED",
"<+	c #8225D9",
"[+	c #530BC9",
"}+	c #605547",
"|+	c #5D3F2A",
"1+	c #807B72",
"2+	c #D656F6",
"3+	c #F57CF7",
"4+	c #61564A",
"5+	c #4D2812",
"6+	c #5E402C",
"7+	c #817C73",
"8+	c #624631",
"9+	c #DA58F8",
"0+	c #60432E",
"a+	c #817C72",
"b+	c #9B34E2",
"c+	c #807B71",
"d+	c #919086",
"e+	c #614430",
"f+	c #60422E",
"g+	c #807C72",
"h+	c #5A0FCB",
"i+	c #604430",
"j+	c #4E2813",
"k+	c #918F86",
"l+	c #614632",
"m+	c #918F85",
"n+	c #615648",
"o+	c #624634",
"p+	c #4E2913",
"q+	c #614634",
"r+	c #7F7B72",
"s+	c #FC97EE",
"t+	c #615649",
"u+	c #614633",
"v+	c #7F7B71",
"w+	c #614532",
"x+	c #7F7A71",
"y+	c #522D18",
"z+	c #604432",
"A+	c #7E7A71",
"B+	c #62574A",
"C+	c #522E18",
"D+	c #A73BE6",
"E+	c #512D17",
"F+	c #7E7A70",
"G+	c #502C16",
"H+	c #695F53",
"I+	c #604431",
"J+	c #6A6054",
"K+	c #604331",
"L+	c #7D7970",
"M+	c #5F4430",
"N+	c #7B776D",
"O+	c #8C8B7E",
"P+	c #502A13",
"Q+	c #66594D",
"R+	c #675D4F",
"S+	c #6B6155",
"T+	c #5E4331",
"U+	c #8D8C83",
"V+	c #5E422D",
"W+	c #7A766C",
"X+	c #8C8A80",
"Y+	c #8C8A81",
"Z+	c #65574D",
"`+	c #696158",
" @	c #696258",
".@	c #6D645A",
"+@	c #5D412E",
"@@	c #7A766D",
"#@	c #7A756C",
"$@	c #8B8A80",
"%@	c #8B8A81",
"&@	c #502913",
"*@	c #5B3A26",
"=@	c #5A3A26",
"-@	c #5C3D2A",
";@	c #5F422F",
">@	c #665C4F",
",@	c #5C3F2B",
"'@	c #79756C",
")@	c #5009C7",
"!@	c #502A15",
"~@	c #5B3C28",
"{@	c #7A756D",
"]@	c #79756B",
"^@	c #9C9B94",
"/@	c #9B9A93",
"(@	c #9A9991",
"_@	c #999890",
":@	c #97968E",
"<@	c #98978F",
"[@	c #99988F",
"}@	c #9A9990",
"|@	c #9B9A92",
"1@	c #9B9A91",
"2@	c #696154",
"3@	c #675D4E",
"4@	c #6D6459",
"5@	c #5E4230",
"6@	c #573723",
"7@	c #78736A",
"8@	c #93928A",
"9@	c #939289",
"0@	c #929189",
"a@	c #8F8E86",
"b@	c #655B4E",
"c@	c #6C6359",
"d@	c #55331F",
"e@	c #919088",
"f@	c #96958D",
"g@	c #94938B",
"h@	c #54321D",
"i@	c #767068",
"j@	c #686159",
"k@	c #686158",
"l@	c #665F57",
"m@	c #716C64",
"n@	c #5D412F",
"o@	c #54311D",
"p@	c #746F67",
"q@	c #676058",
"r@	c #676057",
"s@	c #665F56",
"t@	c #706A61",
"u@	c #6C6358",
"v@	c #8E8D84",
"w@	c #54321E",
"x@	c #512D18",
"y@	c #6A6156",
"z@	c #5F5547",
"A@	c #5D402E",
"B@	c #8A897E",
"C@	c #56331E",
"D@	c #5D5043",
"E@	c #5E4F43",
"F@	c #5E4F44",
"G@	c #5F5044",
"H@	c #5F4F43",
"I@	c #5E4F41",
"J@	c #5D4E41",
"K@	c #5C4C3F",
"L@	c #5C4B3E",
"M@	c #5D4C3E",
"N@	c #5C4B3D",
"O@	c #5B4B3D",
"P@	c #5B4A3D",
"Q@	c #5C4D40",
"R@	c #5C4C41",
"S@	c #5F5447",
"T@	c #5C402D",
"U@	c #8B8A7E",
"V@	c #573520",
"W@	c #5D5044",
"X@	c #5E5044",
"Y@	c #5E5042",
"Z@	c #5E4E42",
"`@	c #5D4D41",
" #	c #5D4D3E",
".#	c #5C4C3E",
"+#	c #5B4C3D",
"@#	c #5B4A3E",
"##	c #6A6155",
"$#	c #6E6860",
"%#	c #6D675E",
"&#	c #6C665D",
"*#	c #666057",
"=#	c #666058",
"-#	c #655E56",
";#	c #655E55",
">#	c #645E55",
",#	c #645D55",
"'#	c #635C54",
")#	c #635C53",
"!#	c #625B52",
"~#	c #6C665C",
"{#	c #5B3D2A",
"]#	c #6E685F",
"^#	c #6D675D",
"/#	c #655F57",
"(#	c #655F56",
"_#	c #645F56",
":#	c #635D55",
"<#	c #625C54",
"[#	c #625C53",
"}#	c #615B52",
"|#	c #6B655C",
"1#	c #6A6257",
"2#	c #726B5F",
"3#	c #5F5446",
"4#	c #593925",
"5#	c #94938A",
"6#	c #6D675F",
"7#	c #605A51",
"8#	c #605951",
"9#	c #615A52",
"0#	c #6A635B",
"a#	c #4D2712",
"b#	c #5E5446",
"c#	c #767168",
"d#	c #95948C",
"e#	c #676159",
"f#	c #635E55",
"g#	c #615A51",
"h#	c #53493F",
"i#	c #54493F",
"j#	c #53493E",
"k#	c #522F1B",
"l#	c #56351F",
"m#	c #676158",
"n#	c #564C41",
"o#	c #574E43",
"p#	c #5F5850",
"q#	c #69625A",
"r#	c #54331E",
"s#	c #5E5346",
"t#	c #573621",
"u#	c #5A3A25",
"v#	c #593A25",
"w#	c #593924",
"x#	c #593B26",
"y#	c #5A3B27",
"z#	c #5B3C27",
"A#	c #583823",
"B#	c #593824",
"C#	c #563521",
"D#	c #716A5D",
"E#	c #8A897F",
"F#	c #4C2712",
"G#	c #573622",
"H#	c #989790",
"I#	c #8B887D",
"J#	c #898578",
"K#	c #878377",
"L#	c #878275",
"M#	c #878174",
"N#	c #868072",
"O#	c #868071",
"P#	c #857F72",
"Q#	c #847E70",
"R#	c #847E6F",
"S#	c #847C6E",
"T#	c #847C6D",
"U#	c #837B6D",
"V#	c #837B6E",
"W#	c #837D6E",
"X#	c #847D6F",
"Y#	c #847E6E",
"Z#	c #847F70",
"`#	c #847F71",
" $	c #858175",
".$	c #858275",
"+$	c #645E56",
"@$	c #666158",
"#$	c #656057",
"                                                                                                                                ",
"                                                                                                                                ",
"                                                                                                                                ",
"                                          . + + @ # $ $ $ % % & & & & * = - - - ; > ,                                           ",
"                                        & ' ' ) ! ! ! ~ { { ] ] ] ^ / ( ( ( _ : < [ [ }                                         ",
"                                        | 1 1 ) ! ! ! 2 ] ] 3 3 4 5 5 ( ( ( _ : < 6 7 }                                         ",
"                                        8 9 1 0 a b b c d e e f f f g h i j h < < k l m                                         ",
"                                        n o 1 ! a p q r s s s t u v w x y z A < < k l }                                         ",
"                                        B 9 1 0 C > D E F G H I J J J J K I L _ M k N }                                         ",
"                                        O P 1 Q 3 R S T T U V W X Y Z `  ...+.@.M k #.}                                         ",
"                                        $.1 %.3 3 &.S T *.V =.-.;.>.,.Z  ...'.@.M ).!.}                                         ",
"                                        $.1 %.3 3 ~.{.].^./.(._.:.<.[.}.|.|.z 1.M 2.3.}                                         ",
"                                        $.4.%.3 3 5.6.7.8.9.0.a.b.c.d.e.f.|.z 1.M g.h.i.                                        ",
"                                        $.j.k.l.3 m.n.o.p.q.r.s.t.u.v.w.x.|.z 1.M y.h.z.                                        ",
"                                    A.B.$.j.k.C.D.E.F.G.H.I.J.q.m.K.L.M.N.|.O.M M e e P.Q.R.                                    ",
"                                  ; S.T.O U.V.E.W.X.Y.I.Z.Z.`.F.W.E.q. +|.|..+M M ++@+P.#+$+%+                                  ",
"                                , S.S.T.O U.&+F.F.*+=+-+H.;+H.>+F.,+F.'+m.)+.+M V.m.!+~+{+$+$+%+                                ",
"                                ]+^+S.T.O m.Y.`.`.I.=+=+G./+/+I.(+_+=+F.:+<+[+[+p.:+:+q.{+$+}+%+                                ",
"                                |+1+S.T.O m.:+G.Z.G.I.2+I.3+/+3+I.(+_+=+I.=+:+o.J.I.;+I.D.4+}+5+                                ",
"                                6+7+S.0 8+U.&+F.G./+>+_+_+=+3+3+3+9+_+2+G.3+(+p.X.*+F.F.o.$+$+5+                                ",
"                                0+a+1+! O U.[+*+3+;+H.>+=+(+>+`.Z.F.=+F.`.3+I.:+X.b+J.J.&+C.}+%+                                ",
"                                0+a+c+d+e+U.<+9+G.;+H.Z.I.*+*+F.-+F.F.I.3+3+>+=+_+*+'+X.&+V.$+%+                                ",
"                                f+g+a+d+0+h+_+G.;+H.H.H.>+(+Y.I.3+3+>+3+G.`.Z.`.3+I.9+:+b+V.$+%+                                ",
"                                i+g+g+d+- :+;+H.H.H.H.Z.>+F.F.>+/+H.H.Z./+Z.H.H.H.Z.>+_+X.V.$+j+                                ",
"                                i+g+g+k+D.F.H.H.H.H.H.;+G.G.`.;+H.H.H.;+Z.Z.H.H.H.`.-+_+&+C.$+%+                                ",
"                                l+1+g+m+p.3+H.H.H.H.H.H.H.;+;+Z.Z.H.H.H.H.;+Z.`.3+-+_+'+h+n+$+j+                                ",
"                                o+1+1+m._+>+;+H.H.H.H.H.H.H.Z.Z.G.`.`.H.H.H.G.3+F.F._+*+m.n+$+p+                                ",
"                                q+r+r+n.-+-+`.s+H.H.H.Z.3+G.Z.H.`.`.Z.H.H.H./+3+=+-+,+:+m.t+n+p+                                ",
"                                u+v+v+Y.H.`.;+Z.H.H.H.`.G.G.;+H.H.Z.`.Z.H.H.Z.`.G.H.;+:+7 t+t+p+                                ",
"                                w+v+D.9+Z.Z.;+;+Z.H.H.H.Z.`.`.;+;+`.3+/+H.H.Z.Z.Z.H.>+n.7 t+t+R.                                ",
"                                w+x+q.F.G.`.`.;+Z.H.H.H.H.Z.G.>+F.I.-+`.;+H.;+H.H.Z.W.y+7 t+t+R.                                ",
"                                z+A+[+Y.F.3+/+Z./+H.H.H./+>+=+F.9+F.-+G.`.`.Z.H.H.F.D.y+7 t+t+R.                                ",
"                                z+A+V.b+:+I./+H.H.;+H.3+F.*+*+2+F.>+`.`.`.`.H.H.H.'+B+C+7 t+t+R.                                ",
"                                z+A+C.n.D+(+I./+Z.Z./+F.*+E.W.F.;+Z.;+/+Z.;+H.H.;+o.B+y+7 t+t+R.                                ",
"                                z+A+A+[+o.D+:+=+F.F.2+J.X.&+:+F.H.H.H.`.`.`.;+`.`.'+B+E+7 t+t+R.                                ",
"                                z+F+A+C.q.&+&+X.'+:+X.p.&+&+D+9+/+;+`.G.G./+3+3+Z.-+q.G+H+t+t+R.                                ",
"                                I+F+F+4 C.[+q.q.[+V.[+q.&+&+o.'+(+I.=+F.I.3+3+G.;+-+q.~+J+t+t+R.                                ",
"                                K+L+F+^ M+N+C.C.O+P+Q+C.[+q.&+o.X.'+:+=+3+`./+/+;+*+R+~+S+t+t+R.                                ",
"                                T+L+L+U+V+N+W+X+Y+P+Z+`+ @C.[+q.&+X.:+F.3+;+`.3+(+D.R+~+.@t+t+R.                                ",
"                                T+L+L+U++@@@#@$@%@&@*@=@-@;@;@C.V.<+:+>+3+3+2+p.[+>@>@~+.@t+t+R.                                ",
"                                T+L+L+U+,@@@'@$@%@%@%@%@%@%@%@%@%@%@h+&+n.<+)@$@$@>@>@!@.@t+t+R.                                ",
"                                T+L+L+U+~@{@]@^@^@/@(@_@:@<@<@<@<@<@<@[@}@|@|@1@1@2@3@R.4@t+t+R.                                ",
"                                5@L+'@U+6@7@8@8@8@8@8@8@8@8@8@8@8@9@9@0@0@0@0@0@a@(@b@p+c@$+$+R.                                ",
"                                x L+'@U+d@e@8@8@8@f@g@g@g@g@8@9@9@0@0@0@0@0@0@0@0@a@(@p+c@$+$+p+                                ",
"                                x L+'@U+h@i@j@j@j@j@j@j@j@j@j@k@l@l@l@l@l@l@l@l@l@l@m@j+c@$+$+p+                                ",
"                                n@L+'@U+o@p@j@j@j@j@j@q@q@r@l@l@l@l@l@l@l@s@s@s@s@k@t@%+u@$+$+j+                                ",
"                                +@'@'@v@w@x@R.R.R.R.R.R.R.R.p+p+p+j+j+%+%+%+%+5+5+5+%+y@y@z@}+%+                                ",
"                                A@'@'@e@B@C@D@E@F@G@H@I@J@K@L@M@N@O@P@O@L@L@K@Q@R@Q@5+y@y@S@z@%+                                ",
"                                T@'@'@0@U@V@W@F@X@F@Y@Z@J@`@ #M@.#+#O@@#L@K@K@Q@R@Q@5+####S@S@5+                                ",
"                                z '@'@9@$@V@$#%#&#*#l@=#l@-#;#>#,#'#'#)#)#!#!#!#)#~#5+####S@S@5+                                ",
"                                {#'@'@8@$@V@]#%#^#=#=#l@/#(#_#:#:#'#<#[#!#!#}#}#}#|#5+1#2#3#3#5+                                ",
"                                4#'@'@5#$@V@]#6#=#=#l@/#/#;#:#:#'#[#!#!#7#7#7#8#9#0#a#2#2#b#3#5+                                ",
"                                m c#c#d#$@V@]#e#=#l@/#/#;#f#'#<#[#g#g#7#h#i#j#8#8#0#k#2#2#b#b#5+                                ",
"                                6@c#c#:@$@l#]#m#/#/#/#-#>#'#<#<#!#g#n#i#o#o#o#8#p#q#r#2#2#s#s#a#                                ",
"                                6@c#c#:@U@t#} u#v#w#w#w#u#x#x#y#z#A#A#B#m C#w@w@w@w@w@D#E#s#s#F#                                ",
"                                G#c#c#H#0@I#J#K#L#M#N#O#P#Q#R#S#T#U#V#W#W#X#Y#Q#Z#`# $.$E#s#s#F#                                ",
"                                h@c#c#e#e#e#e#m#=#=#=#=#*#/#/#(#(#_#_#+$+$+$+$+$+$+$>#>#>#s#s#F#                                ",
"                                R.c#e#e#e#e#e#@$=#=#=#=##$/#/#(#(#_#_#_#+$+$+$+$+$+$>#>#>#>#s#F#                                ",
"                                R.e#e#e#e#e#e#@$=#=#=#=#*#/#/#(#(#(#_#_#+$+$+$+$+$+$>#>#>#>#>#F#                                ",
"                                R.R.R.R.R.R.R.R.p+p+j+j+%+%+5+5+5+5+5+5+5+a#a#a#F#F#F#F#F#F#F#F#                                ",
"                                                                                                                                ",
"                                                                                                                                ",
"                                                                                                                                ",
"                                                                                                                                "};
