/* XPM */
static char * anim5_xpm[] = {
"64 64 349 2",
"  	c #9CDB43",
". 	c #5A361F",
"+ 	c #5F3E29",
"@ 	c #60402B",
"# 	c #61422D",
"$ 	c #62432F",
"% 	c #634632",
"& 	c #624632",
"* 	c #624530",
"= 	c #61432F",
"- 	c #60432F",
"; 	c #5F412D",
"> 	c #5E402B",
", 	c #5B3B26",
"' 	c #888479",
") 	c #949389",
"! 	c #939187",
"~ 	c #908E84",
"{ 	c #8F8D82",
"] 	c #8F8D83",
"^ 	c #8E8C83",
"/ 	c #8E8C80",
"( 	c #8D8C82",
"_ 	c #8D8B82",
": 	c #8C8B82",
"< 	c #8C8B81",
"[ 	c #6E665B",
"} 	c #583722",
"| 	c #644936",
"1 	c #7E776D",
"2 	c #908E85",
"3 	c #8F8E83",
"4 	c #8E8D83",
"5 	c #8E8C81",
"6 	c #695E51",
"7 	c #685E52",
"8 	c #644734",
"9 	c #7D766C",
"0 	c #949288",
"a 	c #939186",
"b 	c #64594C",
"c 	c #65594C",
"d 	c #655A4C",
"e 	c #66594B",
"f 	c #66594C",
"g 	c #66584B",
"h 	c #65584B",
"i 	c #645749",
"j 	c #645649",
"k 	c #695D4F",
"l 	c #695C4F",
"m 	c #583723",
"n 	c #634733",
"o 	c #7C766C",
"p 	c #5E3F2B",
"q 	c #5D3E29",
"r 	c #604533",
"s 	c #604534",
"t 	c #604535",
"u 	c #5F4332",
"v 	c #5F4331",
"w 	c #5F4230",
"x 	c #5E422F",
"y 	c #5C3C2A",
"z 	c #5C3F2C",
"A 	c #5A3C2A",
"B 	c #624430",
"C 	c #939188",
"D 	c #68594F",
"E 	c #695A4E",
"F 	c #6A5C51",
"G 	c #6A5E54",
"H 	c #6B5E54",
"I 	c #6B5F55",
"J 	c #6C6056",
"K 	c #6C5F55",
"L 	c #5A3D2C",
"M 	c #868479",
"N 	c #685C50",
"O 	c #624531",
"P 	c #7D776D",
"Q 	c #929087",
"R 	c #5D3F29",
"S 	c #68594E",
"T 	c #73665C",
"U 	c #73675D",
"V 	c #74675D",
"W 	c #62412B",
"X 	c #61412A",
"Y 	c #736D63",
"Z 	c #746D63",
"` 	c #736C61",
" .	c #736C62",
"..	c #726C62",
"+.	c #5C3E2D",
"@.	c #87847A",
"#.	c #685C4F",
"$.	c #634631",
"%.	c #7F776D",
"&.	c #5E3E2A",
"*.	c #73675C",
"=.	c #68503D",
"-.	c #8D8B7F",
";.	c #8E8B7F",
">.	c #62412A",
",.	c #756D65",
"'.	c #5C3F2D",
").	c #685C4E",
"!.	c #675B4E",
"~.	c #3800B6",
"{.	c #4D07C7",
"].	c #570DCA",
"^.	c #4704C4",
"/.	c #8D8A7D",
"(.	c #8C8A7D",
"_.	c #63422C",
":.	c #62422B",
"<.	c #61402A",
"[.	c #79756D",
"}.	c #86847A",
"|.	c #685B4D",
"1.	c #675A4C",
"2.	c #7B22D7",
"3.	c #C049EF",
"4.	c #E35DFB",
"5.	c #BA46EC",
"6.	c #AE3FE8",
"7.	c #9B34E2",
"8.	c #6414CE",
"9.	c #8B897B",
"0.	c #8A887B",
"a.	c #5C3B25",
"b.	c #675A4D",
"c.	c #665A4C",
"d.	c #583721",
"e.	c #8528DA",
"f.	c #CE51F3",
"g.	c #C74DF1",
"h.	c #AB3DE7",
"i.	c #ED63FE",
"j.	c #FA8EF0",
"k.	c #FC97EE",
"l.	c #F16DFC",
"m.	c #F067FE",
"n.	c #FFA4E9",
"o.	c #5D3D27",
"p.	c #6F1BD2",
"q.	c #3B00BB",
"r.	c #5B3B24",
"s.	c #FD9EEB",
"t.	c #B342EA",
"u.	c #F888F3",
"v.	c #D656F6",
"w.	c #9531E0",
"x.	c #5C3E2C",
"y.	c #A439E5",
"z.	c #6012CD",
"A.	c #4F2913",
"B.	c #F479F8",
"C.	c #F57CF7",
"D.	c #8C2BDC",
"E.	c #4E2812",
"F.	c #7920D6",
"G.	c #FD9AEC",
"H.	c #D354F5",
"I.	c #5D3E2A",
"J.	c #4302C3",
"K.	c #5D3F2A",
"L.	c #3100AB",
"M.	c #8F2DDE",
"N.	c #60432E",
"O.	c #817C72",
"P.	c #807B71",
"Q.	c #60422E",
"R.	c #807C72",
"S.	c #F98CF1",
"T.	c #604430",
"U.	c #5A0FCB",
"V.	c #614632",
"W.	c #731DD4",
"X.	c #615649",
"Y.	c #510AC8",
"Z.	c #8326D9",
"`.	c #5E4331",
" +	c #7D7970",
".+	c #9B9A93",
"++	c #5E4230",
"@+	c #79756C",
"#+	c #8D8C83",
"$+	c #93928A",
"%+	c #6C6359",
"&+	c #605548",
"*+	c #55331F",
"=+	c #919088",
"-+	c #96958D",
";+	c #94938B",
">+	c #4E2913",
",+	c #54321D",
"'+	c #767068",
")+	c #686159",
"!+	c #686158",
"~+	c #665F57",
"{+	c #716C64",
"]+	c #4E2813",
"^+	c #5D412F",
"/+	c #54311D",
"(+	c #746F67",
"_+	c #676058",
":+	c #676057",
"<+	c #665F56",
"[+	c #706A61",
"}+	c #6C6358",
"|+	c #5D412E",
"1+	c #8E8D84",
"2+	c #54321E",
"3+	c #512D18",
"4+	c #4D2812",
"5+	c #6A6156",
"6+	c #5F5547",
"7+	c #605547",
"8+	c #5D402E",
"9+	c #8A897E",
"0+	c #56331E",
"a+	c #5D5043",
"b+	c #5E4F43",
"c+	c #5E4F44",
"d+	c #5F5044",
"e+	c #5F4F43",
"f+	c #5E4F41",
"g+	c #5D4E41",
"h+	c #5C4C3F",
"i+	c #5C4B3E",
"j+	c #5D4C3E",
"k+	c #5C4B3D",
"l+	c #5B4B3D",
"m+	c #5B4A3D",
"n+	c #5C4D40",
"o+	c #5C4C41",
"p+	c #5F5447",
"q+	c #5C402D",
"r+	c #929189",
"s+	c #8B8A7E",
"t+	c #573520",
"u+	c #5D5044",
"v+	c #5E5044",
"w+	c #5E5042",
"x+	c #5E4E42",
"y+	c #5D4D41",
"z+	c #5D4D3E",
"A+	c #5C4C3E",
"B+	c #5B4C3D",
"C+	c #5B4A3E",
"D+	c #6A6155",
"E+	c #939289",
"F+	c #8B8A80",
"G+	c #6E6860",
"H+	c #6D675E",
"I+	c #6C665D",
"J+	c #666057",
"K+	c #666058",
"L+	c #655E56",
"M+	c #655E55",
"N+	c #645E55",
"O+	c #645D55",
"P+	c #635C54",
"Q+	c #635C53",
"R+	c #625B52",
"S+	c #6C665C",
"T+	c #5B3D2A",
"U+	c #6E685F",
"V+	c #6D675D",
"W+	c #655F57",
"X+	c #655F56",
"Y+	c #645F56",
"Z+	c #635D55",
"`+	c #625C54",
" @	c #625C53",
".@	c #615B52",
"+@	c #6B655C",
"@@	c #6A6257",
"#@	c #726B5F",
"$@	c #5F5446",
"%@	c #593925",
"&@	c #94938A",
"*@	c #6D675F",
"=@	c #605A51",
"-@	c #605951",
";@	c #615A52",
">@	c #6A635B",
",@	c #4D2712",
"'@	c #5E5446",
")@	c #767168",
"!@	c #95948C",
"~@	c #676159",
"{@	c #635E55",
"]@	c #615A51",
"^@	c #53493F",
"/@	c #54493F",
"(@	c #53493E",
"_@	c #522F1B",
":@	c #573723",
"<@	c #97968E",
"[@	c #56351F",
"}@	c #676158",
"|@	c #564C41",
"1@	c #574E43",
"2@	c #5F5850",
"3@	c #69625A",
"4@	c #54331E",
"5@	c #5E5346",
"6@	c #573621",
"7@	c #5A3A25",
"8@	c #593A25",
"9@	c #593924",
"0@	c #593B26",
"a@	c #5A3B27",
"b@	c #5B3C27",
"c@	c #583823",
"d@	c #593824",
"e@	c #563521",
"f@	c #716A5D",
"g@	c #8A897F",
"h@	c #4C2712",
"i@	c #573622",
"j@	c #989790",
"k@	c #8B887D",
"l@	c #898578",
"m@	c #878377",
"n@	c #878275",
"o@	c #878174",
"p@	c #868072",
"q@	c #868071",
"r@	c #857F72",
"s@	c #847E70",
"t@	c #847E6F",
"u@	c #847C6E",
"v@	c #847C6D",
"w@	c #837B6D",
"x@	c #837B6E",
"y@	c #837D6E",
"z@	c #847D6F",
"A@	c #847E6E",
"B@	c #847F70",
"C@	c #847F71",
"D@	c #858175",
"E@	c #858275",
"F@	c #645E56",
"G@	c #666158",
"H@	c #656057",
"                                                                                                                                ",
"                                                                                                                                ",
"                                                                                                                                ",
"                                          . + + @ # $ $ $ % % & & & & * = - - - ; > ,                                           ",
"                                        & ' ' ) ! ! ! ~ { { ] ] ] ^ / ( ( ( _ : < [ [ }                                         ",
"                                        | 1 1 ) ! ! ! 2 ] ] 3 3 4 5 5 ( ( ( _ : < 6 7 }                                         ",
"                                        8 9 1 0 a b b c d e e f f f g h i j h < < k l m                                         ",
"                                        n o 1 ! a p q r s s s t u v w x y z A < < k l }                                         ",
"                                        B 9 1 0 C > D E F G H I J J J J K I L _ M k N }                                         ",
"                                        O P 1 Q 3 R S T T U V W X Y Z `  ...+.@.M k #.}                                         ",
"                                        $.1 %.3 3 &.S T *.V =.-.;.>.,.Z  ...'.@.M ).!.}                                         ",
"                                        $.1 %.3 ~.{.].].{.{.^./.(._.:.<.[.[.z }.M |.1.}                                         ",
"                                        $.{.].].2.3.4.4.3.5.6.6.7.8.9.0.a.[.z ~.{.b.c.d.                                        ",
"                                        e.f.g.7.h.i.j.k.l.4.m.k.n.f.2.~.o.[.z p.5.7.8.q.                                        ",
"                                    r.2.i.s.m.3.t.4.u.n.k.u.l.l.i.v.g.w.p.~.x.y.j.k.i.h.z.A.                                    ",
"                                  ; {.t.B.n.j.m.3.5.i.u.n.j.C.i.4.4.m.m.g.e.D.g.j.n.C.B.h.8.E.                                  ",
"                                , ~.F.3.i.k.s.k.4.h.h.4.u.G.k.i.H.m.n.G.i.y.7.g.m.k.j.G.l.5.].E.                                ",
"                                I.J.e.t.i.s.n.n.C.H.t.5.i.u.k.i.H.m.k.j.v.y.e.7.g.B.j.j.m.f.e.~.                                ",
"                                K.].e.y.v.j.s.n.k.m.5.y.g.i.i.v.5.f.4.i.v.5.7.e.6.m.k.G.m.g.w.J.                                ",
"                                ~.p.e.7.3.i.B.u.u.B.v.H.4.m.i.i.v.H.f.4.m.4.5.D.3.B.n.s.i.h.e.].                                ",
"                                L.J.8.2.y.h.g.v.v.4.i.B.C.B.B.B.C.v.f.v.u.B.H.M.3.B.n.n.m.3.e.p.~.                              ",
"                                N.O.P.h.f.y.t.y.3.4.C.n.G.u.j.k.G.i.4.i.k.C.m.5.3.v.u.C.i.y.e.e.J.                              ",
"                                Q.R.p.4.B.v.f.3.4.l.G.n.S.m.4.i.i.f.v.m.C.C.B.4.H.f.v.v.v.3.y.M.J.                              ",
"                                T.R.g.s.k.B.B.B.k.s.n.n.B.H.3.H.g.g.v.C.u.k.k.k.i.5.t.f.m.4.4.5.].                              ",
"                                T.p.m.n.k.k.s.n.n.n.n.n.C.m.i.4.3.v.l.k.j.k.n.k.i.5.h.v.C.k.u.H.U.                              ",
"                                V.6.n.n.s.n.n.n.n.n.n.n.k.k.k.u.m.B.u.s.k.k.n.s.m.H.f.u.s.n.C.H.U.                              ",
"                                J.h.m.j.k.n.n.n.n.n.n.n.n.n.s.G.C.k.G.n.n.s.k.C.v.g.H.u.n.n.C.6.J.                              ",
"                                {.y.H.B.j.j.u.n.n.n.n.n.n.n.G.G.u.k.k.n.n.n.u.l.g.H.i.s.n.s.u.7.                                ",
"                                ].w.3.m.l.i.m.C.n.n.n.u.B.u.k.n.k.k.k.n.n.n.u.v.6.H.B.n.n.n.n.M.                                ",
"                              ~.p.y.4.j.j.m.i.i.l.m.B.l.i.m.B.s.n.k.u.j.s.n.k.m.4.B.s.n.n.n.l.p.                                ",
"                              ].t.f.l.C.k.C.B.H.3.f.m.u.B.i.i.u.s.j.l.B.k.n.k.B.C.G.n.n.n.n.g.A.                                ",
"                              W.m.B.B.B.u.k.C.i.3.H.l.k.j.m.i.B.j.j.l.C.k.n.s.n.n.k.u.m.i.f.8.A.                                ",
"                              D.n.s.B.i.i.C.j.C.m.C.G.n.j.B.m.C.u.u.B.C.k.k.G.n.n.u.i.6.h.F.X.A.                                ",
"                              D.n.s.m.v.H.C.j.n.n.s.n.C.i.v.i.C.k.s.n.k.k.k.n.n.n.m.3.7.e.J.X.A.                                ",
"                              W.C.B.v.H.i.s.n.n.n.k.j.i.g.g.i.k.n.k.s.j.G.s.n.n.s.l.4.f.h.X.X.A.                                ",
"                              Y.f.l.f.g.4.j.k.n.G.B.v.6.t.3.m.C.n.n.n.k.k.k.s.k.k.l.B.B.4.3.F.q.                                ",
"                                y.B.i.4.i.C.u.s.B.4.7.M.h.4.C.j.k.s.n.s.G.j.C.C.G.s.k.B.B.B.5.{.                                ",
"                                M.n.u.B.m.B.C.k.m.g.e.e.h.H.l.C.u.k.j.k.u.C.B.u.s.n.s.B.i.H.Z.A.                                ",
"                                W.B.n.s.u.B.B.B.4.h.e.e.w.g.B.k.k.k.k.G.k.k.j.j.s.n.s.m.g.w.{.A.                                ",
"                                `.7.B.s.k.l.i.H.5.7.e.e.e.y.4.k.n.n.k.k.u.s.n.n.s.s.n.l.3.p.~.A.                                ",
"                                `. +w.m.C.v.6.7.F.p.p.e.e.7.g.l.s.n.n.j.B.k.n.k.C.C.C.4.D.J.X.A.                                ",
"                                `. + +e.3.3.M.e.]..+~.].p.e.7.3.m.k.s.j.B.k.s.u.4.4.H.7.{.X.X.A.                                ",
"                                ++ +@+#+{.].].p.J.$+$+$+~.].p.M.6.m.u.j.C.k.s.m.5.y.D.].%+&+&+A.                                ",
"                                x  +@+#+*+=+$+~.L.-+;+;+;+;+~.J.8.h.B.k.j.k.u.3.p.J.~.>+%+&+&+>+                                ",
"                                x  +@+#+,+'+)+)+)+)+)+)+)+)+)+!+~+{.W.D.e.D.2.].~+~+{+]+%+&+&+>+                                ",
"                                ^+ +@+#+/+(+)+)+)+)+)+_+_+:+~+~+~+~+~+~+~+<+<+<+<+!+[+E.}+&+&+]+                                ",
"                                |+@+@+1+2+3+A.A.A.A.A.A.A.A.>+>+>+]+]+E.E.E.E.4+4+4+E.5+5+6+7+E.                                ",
"                                8+@+@+=+9+0+a+b+c+d+e+f+g+h+i+j+k+l+m+l+i+i+h+n+o+n+4+5+5+p+6+E.                                ",
"                                q+@+@+r+s+t+u+c+v+c+w+x+g+y+z+j+A+B+l+C+i+h+h+n+o+n+4+D+D+p+p+4+                                ",
"                                z @+@+E+F+t+G+H+I+J+~+K+~+L+M+N+O+P+P+Q+Q+R+R+R+Q+S+4+D+D+p+p+4+                                ",
"                                T+@+@+$+F+t+U+H+V+K+K+~+W+X+Y+Z+Z+P+`+ @R+R+.@.@.@+@4+@@#@$@$@4+                                ",
"                                %@@+@+&@F+t+U+*@K+K+~+W+W+M+Z+Z+P+ @R+R+=@=@=@-@;@>@,@#@#@'@$@4+                                ",
"                                m )@)@!@F+t+U+~@K+~+W+W+M+{@P+`+ @]@]@=@^@/@(@-@-@>@_@#@#@'@'@4+                                ",
"                                :@)@)@<@F+[@U+}@W+W+W+L+N+P+`+`+R+]@|@/@1@1@1@-@2@3@4@#@#@5@5@,@                                ",
"                                :@)@)@<@s+6@} 7@8@9@9@9@7@0@0@a@b@c@c@d@m e@2+2+2+2+2+f@g@5@5@h@                                ",
"                                i@)@)@j@r+k@l@m@n@o@p@q@r@s@t@u@v@w@x@y@y@z@A@s@B@C@D@E@g@5@5@h@                                ",
"                                ,+)@)@~@~@~@~@}@K+K+K+K+J+W+W+X+X+Y+Y+F@F@F@F@F@F@F@N+N+N+5@5@h@                                ",
"                                A.)@~@~@~@~@~@G@K+K+K+K+H@W+W+X+X+Y+Y+Y+F@F@F@F@F@F@N+N+N+N+5@h@                                ",
"                                A.~@~@~@~@~@~@G@K+K+K+K+J+W+W+X+X+X+Y+Y+F@F@F@F@F@F@N+N+N+N+N+h@                                ",
"                                A.A.A.A.A.A.A.A.>+>+]+]+E.E.4+4+4+4+4+4+4+,@,@,@h@h@h@h@h@h@h@h@                                ",
"                                                                                                                                ",
"                                                                                                                                ",
"                                                                                                                                ",
"                                                                                                                                "};
