/* XPM */
static char * anim6_xpm[] = {
"64 64 300 2",
"  	c #9CDB43",
". 	c #5A361F",
"+ 	c #5F3E29",
"@ 	c #60402B",
"# 	c #61422D",
"$ 	c #62432F",
"% 	c #634632",
"& 	c #624632",
"* 	c #624530",
"= 	c #61432F",
"- 	c #60432F",
"; 	c #5F412D",
"> 	c #5E402B",
", 	c #5B3B26",
"' 	c #888479",
") 	c #949389",
"! 	c #939187",
"~ 	c #908E84",
"{ 	c #8F8D82",
"] 	c #8F8D83",
"^ 	c #8E8C83",
"/ 	c #8E8C80",
"( 	c #8D8C82",
"_ 	c #8D8B82",
": 	c #8C8B82",
"< 	c #8C8B81",
"[ 	c #6E665B",
"} 	c #583722",
"| 	c #644936",
"1 	c #7E776D",
"2 	c #908E85",
"3 	c #8F8E83",
"4 	c #8E8D83",
"5 	c #8E8C81",
"6 	c #695E51",
"7 	c #685E52",
"8 	c #644734",
"9 	c #7D766C",
"0 	c #949288",
"a 	c #939186",
"b 	c #64594C",
"c 	c #65594C",
"d 	c #655A4C",
"e 	c #66594B",
"f 	c #66594C",
"g 	c #66584B",
"h 	c #65584B",
"i 	c #645749",
"j 	c #645649",
"k 	c #695D4F",
"l 	c #695C4F",
"m 	c #583723",
"n 	c #634733",
"o 	c #7C766C",
"p 	c #5E3F2B",
"q 	c #5D3E29",
"r 	c #604533",
"s 	c #604534",
"t 	c #604535",
"u 	c #5F4332",
"v 	c #5F4331",
"w 	c #5F4230",
"x 	c #5E422F",
"y 	c #5C3C2A",
"z 	c #5C3F2C",
"A 	c #5A3C2A",
"B 	c #624430",
"C 	c #939188",
"D 	c #68594F",
"E 	c #695A4E",
"F 	c #6A5C51",
"G 	c #6A5E54",
"H 	c #6B5E54",
"I 	c #6B5F55",
"J 	c #6C6056",
"K 	c #6C5F55",
"L 	c #5A3D2C",
"M 	c #868479",
"N 	c #685C50",
"O 	c #624531",
"P 	c #7D776D",
"Q 	c #929087",
"R 	c #3800B6",
"S 	c #4302C3",
"T 	c #3F00C0",
"U 	c #62412B",
"V 	c #61412A",
"W 	c #736D63",
"X 	c #746D63",
"Y 	c #736C61",
"Z 	c #3200AE",
"` 	c #6616CF",
" .	c #9B34E2",
"..	c #9531E0",
"+.	c #685C4F",
"@.	c #634631",
"#.	c #530BC9",
"$.	c #6F1BD2",
"%.	c #8F2DDE",
"&.	c #8E2DDD",
"*.	c #736C62",
"=.	c #ED63FE",
"-.	c #FFA4E9",
";.	c #CE51F3",
">.	c #7B22D7",
",.	c #7920D6",
"'.	c #8528DA",
").	c #BD48EE",
"!.	c #DF5BF9",
"~.	c #C14AEF",
"{.	c #BB46ED",
"].	c #FA92EF",
"^.	c #FC98ED",
"/.	c #AB3DE7",
"(.	c #A439E5",
"_.	c #FC97EE",
":.	c #FD9EEB",
"<.	c #F067FE",
"[.	c #B342EA",
"}.	c #4704C4",
"|.	c #C64DF1",
"1.	c #D354F5",
"2.	c #F680F5",
"3.	c #F16DFC",
"4.	c #F785F4",
"5.	c #F479F8",
"6.	c #D957F7",
"7.	c #8326D9",
"8.	c #B141E9",
"9.	c #2900A0",
"0.	c #4B06C6",
"a.	c #F98CF1",
"b.	c #2F00A8",
"c.	c #5E4331",
"d.	c #4F2913",
"e.	c #7D7970",
"f.	c #615649",
"g.	c #5E4230",
"h.	c #79756C",
"i.	c #605548",
"j.	c #8D8C83",
"k.	c #94938B",
"l.	c #4E2913",
"m.	c #6C6359",
"n.	c #54321D",
"o.	c #767068",
"p.	c #686159",
"q.	c #686158",
"r.	c #665F57",
"s.	c #3B00BA",
"t.	c #716C64",
"u.	c #4E2813",
"v.	c #5D412F",
"w.	c #54311D",
"x.	c #746F67",
"y.	c #676058",
"z.	c #676057",
"A.	c #665F56",
"B.	c #706A61",
"C.	c #4E2812",
"D.	c #6C6358",
"E.	c #5D412E",
"F.	c #8E8D84",
"G.	c #54321E",
"H.	c #512D18",
"I.	c #4D2812",
"J.	c #6A6156",
"K.	c #5F5547",
"L.	c #605547",
"M.	c #5D402E",
"N.	c #919088",
"O.	c #8A897E",
"P.	c #56331E",
"Q.	c #5D5043",
"R.	c #5E4F43",
"S.	c #5E4F44",
"T.	c #5F5044",
"U.	c #5F4F43",
"V.	c #5E4F41",
"W.	c #5D4E41",
"X.	c #5C4C3F",
"Y.	c #5C4B3E",
"Z.	c #5D4C3E",
"`.	c #5C4B3D",
" +	c #5B4B3D",
".+	c #5B4A3D",
"++	c #5C4D40",
"@+	c #5C4C41",
"#+	c #5F5447",
"$+	c #5C402D",
"%+	c #929189",
"&+	c #8B8A7E",
"*+	c #573520",
"=+	c #5D5044",
"-+	c #5E5044",
";+	c #5E5042",
">+	c #5E4E42",
",+	c #5D4D41",
"'+	c #5D4D3E",
")+	c #5C4C3E",
"!+	c #5B4C3D",
"~+	c #5B4A3E",
"{+	c #6A6155",
"]+	c #939289",
"^+	c #8B8A80",
"/+	c #6E6860",
"(+	c #6D675E",
"_+	c #6C665D",
":+	c #666057",
"<+	c #666058",
"[+	c #655E56",
"}+	c #655E55",
"|+	c #645E55",
"1+	c #645D55",
"2+	c #635C54",
"3+	c #635C53",
"4+	c #625B52",
"5+	c #6C665C",
"6+	c #5B3D2A",
"7+	c #93928A",
"8+	c #6E685F",
"9+	c #6D675D",
"0+	c #655F57",
"a+	c #655F56",
"b+	c #645F56",
"c+	c #635D55",
"d+	c #625C54",
"e+	c #625C53",
"f+	c #615B52",
"g+	c #6B655C",
"h+	c #6A6257",
"i+	c #726B5F",
"j+	c #5F5446",
"k+	c #593925",
"l+	c #94938A",
"m+	c #6D675F",
"n+	c #605A51",
"o+	c #605951",
"p+	c #615A52",
"q+	c #6A635B",
"r+	c #4D2712",
"s+	c #5E5446",
"t+	c #767168",
"u+	c #95948C",
"v+	c #676159",
"w+	c #635E55",
"x+	c #615A51",
"y+	c #53493F",
"z+	c #54493F",
"A+	c #53493E",
"B+	c #522F1B",
"C+	c #573723",
"D+	c #97968E",
"E+	c #56351F",
"F+	c #676158",
"G+	c #564C41",
"H+	c #574E43",
"I+	c #5F5850",
"J+	c #69625A",
"K+	c #54331E",
"L+	c #5E5346",
"M+	c #573621",
"N+	c #5A3A25",
"O+	c #593A25",
"P+	c #593924",
"Q+	c #593B26",
"R+	c #5A3B27",
"S+	c #5B3C27",
"T+	c #583823",
"U+	c #593824",
"V+	c #563521",
"W+	c #716A5D",
"X+	c #8A897F",
"Y+	c #4C2712",
"Z+	c #573622",
"`+	c #989790",
" @	c #8B887D",
".@	c #898578",
"+@	c #878377",
"@@	c #878275",
"#@	c #878174",
"$@	c #868072",
"%@	c #868071",
"&@	c #857F72",
"*@	c #847E70",
"=@	c #847E6F",
"-@	c #847C6E",
";@	c #847C6D",
">@	c #837B6D",
",@	c #837B6E",
"'@	c #837D6E",
")@	c #847D6F",
"!@	c #847E6E",
"~@	c #847F70",
"{@	c #847F71",
"]@	c #858175",
"^@	c #858275",
"/@	c #645E56",
"(@	c #666158",
"_@	c #656057",
"                                                                                                                                ",
"                                                                                                                                ",
"                                                                                                                                ",
"                                          . + + @ # $ $ $ % % & & & & * = - - - ; > ,                                           ",
"                                        & ' ' ) ! ! ! ~ { { ] ] ] ^ / ( ( ( _ : < [ [ }                                         ",
"                                        | 1 1 ) ! ! ! 2 ] ] 3 3 4 5 5 ( ( ( _ : < 6 7 }                                         ",
"                                        8 9 1 0 a b b c d e e f f f g h i j h < < k l m                                         ",
"                                        n o 1 ! a p q r s s s t u v w x y z A < < k l }                                         ",
"                                        B 9 1 0 C > D E F G H I J J J J K I L _ M k N }                                         ",
"                                        O P 1 Q R S S S S S T U V W X Y Z `  ... .` +.}                                         ",
"                                        @.R S #.$.%. . .%.%. . .&.$.S X *.=.-.-.-.;.>.R                                         ",
"                                      T ,.%. .'. .).!.!.~.{.!.].^.=./.>.(.=._.:._.<.[.$.S                                       ",
"                                    }. .!.<.|. ./.=.]._.=.1.!._.-.2.3.<.4.].2._.5.<./.%.$.S                                     ",
"                                  S >.6.2.:.<.).[.!.4.].=.|.1.2._.].2.2.4.].2._.]._.=.;./.7.S                                   ",
"                                S $...1.5.-.].<.6.!.2.2.!./.(.!.2.].3.!.3.].-.-.-.-.2.5.;.{.,.R                                 ",
"                              R $.'.%.).=._.:._.5.<.2.5.6. .(.6.5.3.6.).6.<._._.]._.].^.3.6. .#.                                ",
"                              #.'.'.'.[.=.:.-._.5.5.:._.=.{.|.5.].5.=.1.=.=.<.6.6.!.<.5.<.;. .$.R                               ",
"                            R $.'.'.'.(.6.]._.5.;.6.<.5.1.).1.2.2.2.5.4.4.=.;.(...[.=.3.!./...'.S                               ",
"                            S '.'. .[.|.6.=.!.).%.[.6.5.=.!.<.4.2.2.5._._.=.8.'...).3.3.1...'.'.#.                              ",
"                            S '. .{.!.6.|.{./. . .).=.5.2.<.6.;.;.|.;.=.=.|. .'./.=._.].!.(.'.'.$.R                             ",
"                            S '.[.=._.2.<.).)./.|.=._.-.^.<.|.[.[. ./.1.1.)././.).6.4.2.=.(.'.'.'.S                             ",
"                            R $. .=.^.].4.<.<.!.2.4.-.-.].6. .%. .[.|.!.6.6.6.6.1.;.6.6.6.).).).[.#.                            ",
"                            9.  ..2.-.:._.4.:._.-.:.-._.=.).(.|.!.<.5.2.5.2.4._.=.).).6.<.!.<.3.<.$.                            ",
"                                 ._.:.-._._.:.-.-.-.-._.3.!.=.5.].-.-._.]._.-._.5.6.;.!.2._.:._.].'.                            ",
"                              0.)._.-.-.:.-.-.-.-.-.-._.2.2._.:.-.-.-.:._._.-.:.4.3.<.].:.-._.].4.'.                            ",
"                              #.{.!.5.-.-.-.-.-.-.-.-.-.-.-.:.^._.-.-.-.-.:._.2.<.3.5.:.-.-._.5.).0.                            ",
"                              S %.(.1.5.-.-.:.-.-.-.-.-.-.-.^.^.4._._.-.-.-.4.3.;.<.5.-.-.:.^.5...                              ",
"                              >. .'. .|.=.=.5.2.-.-.-._.2.4._.-._._._.-.-.-.4.6.8.=.a.-.-.-.-.<.`                               ",
"                            ` 8.). . ./.[.1.3.4.-.-.-._.4.4.:.-.-._._._.-.-._.<.!.5.:.-.-.-.-.5.$.                              ",
"                            >.<.=.=.=.).8.|.3.4._.-.-.-.^._._.:.-.-._.].-.-._.5.2.^.-.-.-.-.^.|.}.                              ",
"                            $.<.].^.^.<.!.=.2.:._.-.-.-.-._.4.].-.-.2.5.].-.:.-.-.-.-.-.-._.5.&.                                ",
"                            $.3.-.-.-.5.<.5.]._.].-.-.-._._.5._.^.^.<.!.<._.^.-.-.-._.4.4.<.=.&.  b.                            ",
"                            ` <.-.:.5.<.=.2.].-.].4.].].4.2.]._._.^.<.!.!._.-.-.-.4.4.5.2.<.<.1.|.#.                            ",
"                            #.|.2.5.6.1.=.:.-.-._.5.3.5.]._.:.:.-._.5.=.5.:.-.-.:.2.2.5.5.5.4.:._.'.                            ",
"                            R  .<.3.!.6.<.]._.-.^.<.1.!.].:.:._.-.-._.4.4._.:._._.5._.].:.^.-.-._.'.                            ",
"                              '.<.5.3.3.3.2.4.:.-.5.!.=._.-._.]._.:.-.:.^.].2.2.^.:._.5.5.5.5.5.=.$.                            ",
"                              ,.5.-.:._.2.5.5._.:.5.<.<.:.^.4.2.4._.]._.4.2.5.4.:.-.].=.1.1.1.|...S                             ",
"                              0.1.-.-.:.4.5.5.].:.4.4.4.-.:.:._._._._.^._._.].].:.-.].!./...%.'.#.                              ",
"                                &.5.^.:._.2.3.4._.-.:.].].3.2._.-.-._._.4.:.-.-.:.:.].3.). .'.$.R                               ",
"                                S  .3.]._.5.<.<.5._.-.^.5.6.!.3.:.-.-.].5._.-._.2.2._._.3.|.'.S                                 ",
"                                c.0. .3._._.5.=.!.3._._.6. . .).<._.:.].5._.:.4.!.=.2.:._.|.` d.                                ",
"                                c.e.#.)._.:.4.=.6.!.<.<.)...'.%.8.<.4.].2._.:.<.{.[.<._.5.&.f.d.                                ",
"                                g.e.h.$.=.-._.5.=.<.).&.$.$.'.'.%.;.5._.]._.4.!. .%. .(.$.i.i.d.                                ",
"                                x e.h.j.$.;.<.:.].].).k.k.R S S #.&.6.5.2.].3./.` S S l.m.i.i.l.                                ",
"                                x e.h.j.n.o.,. .%.%.` Z p.p.p.q.r.s.` >.7.>.$.}.r.r.t.u.m.i.i.l.                                ",
"                                v.e.h.j.w.x.p.p.p.p.p.y.y.z.r.r.r.r.r.r.r.A.A.A.A.q.B.C.D.i.i.u.                                ",
"                                E.h.h.F.G.H.d.d.d.d.d.d.d.d.l.l.l.u.u.C.C.C.C.I.I.I.C.J.J.K.L.C.                                ",
"                                M.h.h.N.O.P.Q.R.S.T.U.V.W.X.Y.Z.`. +.+ +Y.Y.X.++@+++I.J.J.#+K.C.                                ",
"                                $+h.h.%+&+*+=+S.-+S.;+>+W.,+'+Z.)+!+ +~+Y.X.X.++@+++I.{+{+#+#+I.                                ",
"                                z h.h.]+^+*+/+(+_+:+r.<+r.[+}+|+1+2+2+3+3+4+4+4+3+5+I.{+{+#+#+I.                                ",
"                                6+h.h.7+^+*+8+(+9+<+<+r.0+a+b+c+c+2+d+e+4+4+f+f+f+g+I.h+i+j+j+I.                                ",
"                                k+h.h.l+^+*+8+m+<+<+r.0+0+}+c+c+2+e+4+4+n+n+n+o+p+q+r+i+i+s+j+I.                                ",
"                                m t+t+u+^+*+8+v+<+r.0+0+}+w+2+d+e+x+x+n+y+z+A+o+o+q+B+i+i+s+s+I.                                ",
"                                C+t+t+D+^+E+8+F+0+0+0+[+|+2+d+d+4+x+G+z+H+H+H+o+I+J+K+i+i+L+L+r+                                ",
"                                C+t+t+D+&+M+} N+O+P+P+P+N+Q+Q+R+S+T+T+U+m V+G.G.G.G.G.W+X+L+L+Y+                                ",
"                                Z+t+t+`+%+ @.@+@@@#@$@%@&@*@=@-@;@>@,@'@'@)@!@*@~@{@]@^@X+L+L+Y+                                ",
"                                n.t+t+v+v+v+v+F+<+<+<+<+:+0+0+a+a+b+b+/@/@/@/@/@/@/@|+|+|+L+L+Y+                                ",
"                                d.t+v+v+v+v+v+(@<+<+<+<+_@0+0+a+a+b+b+b+/@/@/@/@/@/@|+|+|+|+L+Y+                                ",
"                                d.v+v+v+v+v+v+(@<+<+<+<+:+0+0+a+a+a+b+b+/@/@/@/@/@/@|+|+|+|+|+Y+                                ",
"                                d.d.d.d.d.d.d.d.l.l.u.u.C.C.I.I.I.I.I.I.I.r+r+r+Y+Y+Y+Y+Y+Y+Y+Y+                                ",
"                                                                                                                                ",
"                                                                                                                                ",
"                                                                                                                                ",
"                                                                                                                                "};
