/* XPM */
static char * anim7_xpm[] = {
"64 64 434 2",
"  	c #9CDB43",
". 	c #9CDC43",
"+ 	c #9DDC43",
"@ 	c #9DDD43",
"# 	c #9DDE43",
"$ 	c #9EDE43",
"% 	c #9EDF43",
"& 	c #9EE043",
"* 	c #9FE143",
"= 	c #9FE242",
"- 	c #A0E243",
"; 	c #9FE043",
"> 	c #A0E443",
", 	c #A0E543",
"' 	c #A1E542",
") 	c #A1E642",
"! 	c #A2E643",
"~ 	c #A1E543",
"{ 	c #A1E443",
"] 	c #A0E143",
"^ 	c #A0E343",
"/ 	c #A2E743",
"( 	c #A2E842",
"_ 	c #A2E942",
": 	c #A3EA42",
"< 	c #A4EA43",
"[ 	c #A4E943",
"} 	c #A3E844",
"| 	c #A2E644",
"1 	c #A1E444",
"2 	c #A0E244",
"3 	c #9FDF43",
"4 	c #00000D",
"5 	c #00002F",
"6 	c #5F004A",
"7 	c #9C6B5C",
"8 	c #96615E",
"9 	c #730056",
"0 	c #520048",
"a 	c #270041",
"b 	c #000038",
"c 	c #000020",
"d 	c #669431",
"e 	c #A2E444",
"f 	c #A2E544",
"g 	c #A1E344",
"h 	c #A3E743",
"i 	c #630049",
"j 	c #9E755B",
"k 	c #996D5E",
"l 	c #762D56",
"m 	c #570048",
"n 	c #320041",
"o 	c #000039",
"p 	c #6A9B31",
"q 	c #A4E844",
"r 	c #A1E343",
"s 	c #650049",
"t 	c #9F7D5B",
"u 	c #9A765E",
"v 	c #784356",
"w 	c #5B0048",
"x 	c #390041",
"y 	c #6DA131",
"z 	c #A6EB44",
"A 	c #A6EC44",
"B 	c #A4EA44",
"C 	c #A0E344",
"D 	c #671649",
"E 	c #A0835B",
"F 	c #9C7C5E",
"G 	c #7A4F55",
"H 	c #5E0448",
"I 	c #3F0041",
"J 	c #6FA430",
"K 	c #A5EC43",
"L 	c #A6ED44",
"M 	c #A5EB44",
"N 	c #A3E843",
"O 	c #A3E744",
"P 	c #692749",
"Q 	c #A1865B",
"R 	c #9C805D",
"S 	c #7C5655",
"T 	c #602547",
"U 	c #430041",
"V 	c #090038",
"W 	c #00001D",
"X 	c #3D6B20",
"Y 	c #6EA42D",
"Z 	c #6DA42F",
"` 	c #6BA32E",
" .	c #6AA12E",
"..	c #69A02E",
"+.	c #699F2E",
"@.	c #689F2E",
"#.	c #3B00BA",
"$.	c #4302C3",
"%.	c #570DCA",
"&.	c #701BD3",
"*.	c #6414CE",
"=.	c #A5EC44",
"-.	c #692F49",
";.	c #A2885B",
">.	c #9D835D",
",.	c #7D5B55",
"'.	c #623147",
").	c #41003F",
"!.	c #010036",
"~.	c #000025",
"{.	c #32002C",
"].	c #0C002A",
"^.	c #000028",
"/.	c #000027",
"(.	c #3200AE",
"_.	c #3100AB",
":.	c #2900A0",
"<.	c #5C10CC",
"[.	c #8225D9",
"}.	c #B342EA",
"|.	c #E961FD",
"1.	c #0B002A",
"2.	c #6A3349",
"3.	c #A28A5B",
"4.	c #9D855D",
"5.	c #7D5E55",
"6.	c #613847",
"7.	c #36003A",
"8.	c #000031",
"9.	c #140038",
"0.	c #765D4A",
"a.	c #967E57",
"b.	c #7D5954",
"c.	c #714251",
"d.	c #714152",
"e.	c #731DD4",
"f.	c #713E52",
"g.	c #713D52",
"h.	c #D957F7",
"i.	c #DA58F8",
"j.	c #8C2BDC",
"k.	c #CA4FF2",
"l.	c #F16DFC",
"m.	c #FFA4E9",
"n.	c #FD9DEC",
"o.	c #FB94EE",
"p.	c #AB3DE7",
"q.	c #6A3649",
"r.	c #A28B5B",
"s.	c #9E865D",
"t.	c #7D6055",
"u.	c #623C47",
"v.	c #310036",
"w.	c #00002E",
"x.	c #29003C",
"y.	c #897454",
"z.	c #BA46EC",
"A.	c #9B34E2",
"B.	c #761FD5",
"C.	c #B141E9",
"D.	c #865E5B",
"E.	c #CE51F3",
"F.	c #F782F5",
"G.	c #6A3749",
"H.	c #7E6155",
"I.	c #623E47",
"J.	c #320036",
"K.	c #EF64FF",
"L.	c #922FDF",
"M.	c #F479F8",
"N.	c #FFA2E9",
"O.	c #D354F5",
"P.	c #9531E0",
"Q.	c #6A3849",
"R.	c #9E875D",
"S.	c #623F47",
"T.	c #330836",
"U.	c #653A47",
"V.	c #643B47",
"W.	c #643A47",
"X.	c #A439E5",
"Y.	c #3600B3",
"Z.	c #643947",
"`.	c #F98CF1",
" +	c #7D23D7",
".+	c #6012CD",
"++	c #A5ED44",
"@+	c #6B3849",
"#+	c #7E6255",
"$+	c #634047",
"%+	c #806157",
"&+	c #673F48",
"*+	c #5B2942",
"=+	c #5C2544",
"-+	c #5D2544",
";+	c #5D2644",
">+	c #5D2643",
",+	c #5C2543",
"'+	c #3700B5",
")+	c #4D07C7",
"!+	c #663F48",
"~+	c #806156",
"{+	c #340B36",
"]+	c #66444D",
"^+	c #7B5954",
"/+	c #C14AEF",
"(+	c #570C43",
"_+	c #570D43",
":+	c #560A42",
"<+	c #560842",
"[+	c #4402C3",
"}+	c #531E45",
"|+	c #E05CFA",
"1+	c #36003F",
"2+	c #34003D",
"3+	c #35003D",
"4+	c #3F00C0",
"5+	c #2A003C",
"6+	c #633F47",
"7+	c #00002A",
"8+	c #00002B",
"9+	c #1D0030",
"0+	c #643D47",
"a+	c #F786F3",
"b+	c #335322",
"c+	c #00001E",
"d+	c #7E6055",
"e+	c #98DA3E",
"f+	c #00001F",
"g+	c #7E5F55",
"h+	c #AAF245",
"i+	c #A9F045",
"j+	c #AAF144",
"k+	c #ABF344",
"l+	c #A9F145",
"m+	c #A8EE45",
"n+	c #AAF145",
"o+	c #633547",
"p+	c #000021",
"q+	c #FC98ED",
"r+	c #74AB32",
"s+	c #ABF445",
"t+	c #A9F244",
"u+	c #A8F044",
"v+	c #ABF544",
"w+	c #76AD32",
"x+	c #633647",
"y+	c #97DB3D",
"z+	c #94D43C",
"A+	c #94D43B",
"B+	c #669A2A",
"C+	c #633847",
"D+	c #1B0038",
"E+	c #002518",
"F+	c #204120",
"G+	c #20421F",
"H+	c #20421E",
"I+	c #E55FFC",
"J+	c #000034",
"K+	c #4B0040",
"L+	c #56383B",
"M+	c #000030",
"N+	c #340036",
"O+	c #27003B",
"P+	c #815758",
"Q+	c #876F51",
"R+	c #A28C5B",
"S+	c #320336",
"T+	c #2B003C",
"U+	c #887452",
"V+	c #84615A",
"W+	c #7A6351",
"X+	c #734D4E",
"Y+	c #2A003A",
"Z+	c #6B4D4E",
"`+	c #5D2B42",
" @	c #5D2C43",
".@	c #2A003B",
"+@	c #6A4B4E",
"@@	c #5B2243",
"#@	c #5B2343",
"$@	c #5B2443",
"%@	c #5B2444",
"&@	c #2C003B",
"*@	c #5F3849",
"=@	c #70494F",
"-@	c #571D46",
";@	c #2D003D",
">@	c #42003C",
",@	c #4B003E",
"'@	c #19003A",
")@	c #2E003B",
"!@	c #1F0037",
"~@	c #000022",
"{@	c #74AA33",
"]@	c #75AC31",
"^@	c #A9F142",
"/@	c #7D5F55",
"(@	c #AAF242",
"_@	c #D8FF85",
":@	c #77B031",
"<@	c #D7FF84",
"[@	c #A7EF3D",
"}@	c #A9F044",
"|@	c #A9F144",
"1@	c #633947",
"2@	c #679B29",
"3@	c #C1F877",
"4@	c #94D635",
"5@	c #95D73C",
"6@	c #96D73C",
"7@	c #679B2B",
"8@	c #633B47",
"9@	c #002B17",
"0@	c #385D1F",
"a@	c #214715",
"b@	c #224716",
"c@	c #274920",
"d@	c #264920",
"e@	c #385C22",
"f@	c #002B19",
"g@	c #633A47",
"h@	c #633C47",
"i@	c #3E003C",
"j@	c #715944",
"k@	c #592E40",
"l@	c #4D003F",
"m@	c #4D0040",
"n@	c #4C0040",
"o@	c #4C0041",
"p@	c #592D41",
"q@	c #623D47",
"r@	c #815857",
"s@	c #815957",
"t@	c #825958",
"u@	c #815959",
"v@	c #825A59",
"w@	c #825B59",
"x@	c #815A59",
"y@	c #8E6E5C",
"z@	c #340037",
"A@	c #846259",
"B@	c #84625A",
"C@	c #734E4E",
"D@	c #7A6251",
"E@	c #6A3449",
"F@	c #9E855D",
"G@	c #320037",
"H@	c #28003C",
"I@	c #816356",
"J@	c #5C2B43",
"K@	c #674049",
"L@	c #6A3049",
"M@	c #A2895B",
"N@	c #9D845D",
"O@	c #7D5D55",
"P@	c #310037",
"Q@	c #29003B",
"R@	c #68474F",
"S@	c #805E57",
"T@	c #673C49",
"U@	c #5B2142",
"V@	c #5B2244",
"W@	c #5B2344",
"X@	c #5B2143",
"Y@	c #692949",
"Z@	c #A1875B",
"`@	c #9D825D",
" #	c #7C5955",
".#	c #613047",
"+#	c #2F0037",
"@#	c #00002C",
"##	c #552442",
"$#	c #6E424F",
"%#	c #550946",
"&#	c #490042",
"*#	c #4A0042",
"=#	c #681949",
"-#	c #A1835B",
";#	c #9C7E5E",
">#	c #7B5355",
",#	c #5F2048",
"'#	c #33003B",
")#	c #00002D",
"!#	c #00001B",
"~#	c #22002E",
"{#	c #48003E",
"]#	c #28003B",
"^#	c #0E003A",
"/#	c #12003A",
"(#	c #11003A",
"_#	c #660049",
":#	c #9F7E5B",
"<#	c #9B785E",
"[#	c #794756",
"}#	c #5E0048",
"|#	c #3B0040",
"1#	c #000037",
"2#	c #00001C",
"3#	c #000018",
"4#	c #000024",
"5#	c #9E765B",
"6#	c #996F5E",
"7#	c #773356",
"8#	c #5A0048",
"9#	c #380041",
"0#	c #3C6024",
"a#	c #6FA231",
"b#	c #70A431",
"c#	c #6FA332",
"d#	c #6FA232",
"e#	c #6FA132",
"f#	c #6EA132",
"g#	c #60004A",
"h#	c #9C6C5C",
"i#	c #97635E",
"j#	c #740056",
"k#	c #540048",
"l#	c #2D0041",
"m#	c #6B9B30",
"n#	c #A6EA45",
"o#	c #A5E945",
"p#	c #A2EA42",
"q#	c #A3EB42",
"r#	c #A4EB42",
"s#	c #A5EB43",
"t#	c #A5EA44",
"u#	c #A5E944",
"v#	c #A4E744",
"w#	c #A3E644",
"x#	c #9FE243",
"y#	c #A0E144",
"z#	c #9FE044",
"A#	c #9EDD43",
"                        . . . .                                                                 . . . .                         ",
"                . . . . . . . . . . .                                                     . . . . . . . . . . .                 ",
"            . . + + + @ @ @ @ @ + + + + .                                             . + + + + @ @ @ @ @ + + + . .             ",
"          . + + @ @ @ # # # # # # @ @ + + + .                                     . + + + @ @ # # # # # # @ @ @ + + .           ",
"        . + @ @ $ % % % & & & & % % $ @ @ + + + . . . . . . . . . . . . . . . . + + + @ @ $ % % & & & & % % % $ @ @ + .         ",
"      . + @ # % & * * = = = - - - * ; % $ @ @ + + + + + + + + + + + + + + + + + + @ @ $ % ; * - - - = = = * * & % # @ + .       ",
"    . + @ $ % * - > , ' ) ) ) ! ~ { - ] ; % $ @ @ @ @ @ @ @ @ @ @ @ @ @ @ @ @ @ @ $ % ; ] - { ~ ! ) ) ) ' , > - * % $ @ + .     ",
"    + + @ % * ^ ~ / ( _ : : : < [ } | 1 2 ; 3 % $ $ $ $ $ $ $ $ $ $ $ $ $ $ $ $ % 3 ; 2 1 | } [ < : : : _ ( / ~ ^ * % @ @ + .   ",
"  . + @ $ ; - ~ 4 5 6 7 8 9 0 a b c d e f g 2 * ; ; ; ; ; ; ; ; ; ; ; ; ; ; ; ; * - g f e d c b a 0 9 8 7 6 5 4 ~ - ; $ @ + . . ",
"  . + @ % * { h 4 5 i j k l m n o c p q q | f { r ^ - - - - - - - - - - - - ^ r { f | q q p c o n m l k j i 5 4 h { * % @ @ + . ",
"  + @ $ 3 - f [ 4 5 s t u v w x o c y z A B q h h ! ! ! ! ! ! ! ! ! ! ! ! ! ! h h q B A z y c o x w v u t s 5 4 [ f - ; $ @ + . ",
". + @ $ ; C | B 4 5 D E F G H I b c J K L M < [ N N N N N N N N N N N N N N N N [ < M L K J c b I H G F E D 5 4 B | C ; $ @ + . ",
". + @ $ ; g O M 4 5 P Q R S T U V W X Y Z `  ...+.+.+.@.@.@.@.@.@.#.$.$.%.&.*.+... .` Z Y X W V U T S R Q P 5 4 M O g ; $ @ + + ",
". + @ $ ; g O =.4 5 -.;.>.,.'.).!.~.~.{.].^././.(._.:.:.#.<.[.&.&.&.[.[.}.|.|.}.[.<.^.1.{.~.~.!.).'.,.>.;.-.5 4 =.O g ; $ @ + + ",
". + @ $ ; g O =.4 5 2.3.4.5.6.7.8.9.0.a.b.c.d.&.e.f.g.g.g.h.i.j.&.&.[.[.k.l.m.n.o.|.p.%.a.0.9.8.7.6.5.4.3.2.5 4 =.O 1 * $ @ + + ",
". + @ $ ; 1 } =.4 5 q.r.s.t.u.v.w.x.y.*.[.j.}.i.z.A.B.j.}.C.j.D.D.#.%.e.E.F.m.m.m.m.F.z.*.#.x.w.v.u.t.s.r.q.5 4 =.} 1 * % @ + + ",
". + @ $ * 1 } =.4 5 G.r.s.H.I.J.w.&.E.K.|.z.L.}.k.M.F.|.z.&.,.,.,.,.,.#.*.p.l.m.m.N.M.O.p.P.&.w.J.I.H.s.r.G.5 4 =.} 1 * % @ + + ",
". + @ $ * 1 } =.4 5 Q.r.R.H.S.T.*.O.l.O.e.U.V.W.C.z.X.&.W.W.W.U.W.Y.W.W.W.Z.|.n.`.`.z.[. +z.i..+T.S.H.R.r.Q.5 4 ++} 1 * % @ + + ",
". + @ $ * 1 } ++4 5 @+r.R.#+$+#.[.p.[.%+&+*+%. +&.*.=+-+;+;+;+>+[.j.,+'+)+L.|.n.n.n.k.!+~+[.|.A.{+$+#+R.r.@+5 4 ++} 1 * % @ + + ",
". + @ $ * 1 } ++4 5 @+r.R.#+$+%.[.&.]+^+<./+O./+%.(+(+_+)+<.&.p.|.i.A.:+<+e.L.k.K.`.z.<.^+]+[.j.[+$+#+R.r.@+5 4 ++} 1 * % @ + + ",
". + @ $ * 1 } ++4 5 @+r.R.H.#.&.[.%.}+*.z.|+p.<.1+1+&.p.p.k.|+`.n.o.i.B.2+2+2+3+z.M.k.L.4+}+5+[.<.6+H.R.r.@+5 4 ++} 1 * % @ + + ",
". + @ $ * 1 } ++4 5 @+r.R.H.%.[.[.&.&.P.|.K.5 5 5 B.|.o.|.|+M.m.m.n.F.k.L.)+7+8+[.A.P.P.L.9+5 e.e.0+H.R.r.@+5 4 ++} 1 * % @ + + ",
". + @ $ * 1 } ++4 5 @+r.s.#.&.[.[.[.A.O.M.K.X.*.*.A.K.M.O.h.|.o.`.N.n.n.a+/+ +*.B.*.b+A.|+&.c+j.C.V.d+s.r.@+5 4 ++} 1 * % @ + + ",
". + @ $ * 1 } ++4 5 G.r.s.$.[.[.[.A.k.O.z.k.k./+[.}.i.M.|.|+K.a+o.N.n.N.o.|.C.[.P.)+e+*.|.z.f+k.|. +g+s.r.G.5 4 ++} 1 * % @ + + ",
". + @ $ * 1 } ++4 5 G.r.s.%.[.[.A.z.l.C.h+i+ +p.A./+|.M.F.K.i.E.l.`.n.n.M.E.A.[.p.[.j+k+[.C.|.|+O.[.#.s.r.G.5 4 ++} 1 * % @ + + ",
". + @ $ * 1 } ++4 5 G.r.#. +p.p.L.C.|.L.l+m+*.z.k.|.o.N.n.M.|+k.|+M.o.F.E.A.[.[./+z.j.j+n+B./+i.j.o+'+s.r.G.5 4 ++} 1 * % @ + + ",
". + @ $ * 1 } ++4 5 G.r.%./+|.|.A.p+j.*.i+m+B.|+K.l.q+m.q+F.E.}.}.|+|.O.z.p.X.L.k.K.K.*.n+r+j.i.&.o+:.s.r.G.5 4 ++} 1 * % @ + + ",
". + @ $ * 1 } ++4 5 G.r.*.|.n.n.L.p+)+s+t+u+/+o.o.a+a+N.i.}.&.L.p./+C.A.k.i.|.h.|.l.`.}.v+w+%.k.[.x+:.s.r.G.5 4 ++} 1 * % @ + + ",
". + @ $ * 1 } ++4 5 G.r.e.M.m.M.e.c+Y.y+*.}.K.m.N.n.a+K.[.z+z+A+|+p.A+%./+`.q+`.a+a+F.|+*.B+c+}.z.C+Y.s.r.G.5 4 ++} 1 * % @ + + ",
". + @ $ * 1 } ++4 5 Q.r.e.M.m.E.D+W E+k.K.N.m.m.m.m.n.l.F+G+G+ +K.A.H+H+A.F.N.m.m.o.M.`.L.E+W *.X.p.$.s.r.Q.5 4 ++} 1 * % @ + + ",
". + @ $ * 1 } ++4 5 Q.r.)+z.I+&.J+_. +K.m.m.N.m.m.m.m.F.z.&.B.}.F./+K+K+[.a+o.o.o.o.`.a+[.L+M+J+&.p.*.s.r.Q.5 4 ++} 1 * % @ + + ",
". + @ $ * 1 } ++4 5 @+r.R.P.X.N+M+O+e.|+N.N.n.N.m.m.m.M.|.k.z.O.|.|+[.P+}.`.a+F.F.n.n.a+L.Q+O+M+N+L.j.R.r.@+5 4 ++} 1 * % @ + + ",
". + @ $ * 1 } ++4 5 @+R+R. +p.S+w.T+U+j.|.|.M.F.m.N.m.k.V+[.k.M.M.o.|.|.K.N.a+K.|.o.n.M.z.*.T+w.S+A.i.*.R+@+5 4 ++} 1 * % @ + + ",
". + @ $ * 1 } ++4 5 @+R+R.L.K.j.w.5+W+%.}.O.l.a+m.N.m.L.X+X+C.o.|+z.j.X.E.M.M.M.F.N.n.`.k.e._.w.)+/+a+[.R+@+5 4 ++} 1 * % @ + + ",
". + @ $ * 1 } ++4 5 @+R+R.&.|+X. +Y+Z+<./+O.l.a+o.m.m.E.`+`+j.K.P. @ @ @k.l.F.M.F.q+n.K.z.Z+.@w.&.k.|. +R+@+5 4 ++} 1 * % @ + + ",
". + @ $ * 1 } ++4 5 @+R+R.#.$+X.|+&.+@)+}.K.F.n.o.m.N.l.j.@@X.|+#@$@%@j.O.M.`.N.N.m.l.A.%+'+&@#.&.A.C.*.R+@+5 4 ++} 1 * % @ + + ",
". + @ $ * 1 } ++4 5 @+R+R._.$+j.N.A.*@=@X.F.`.o.`.N.N.N.|+|+E.|+A.[.p.|.o.o.q+m.m.M.P.-@=@$.;@*.k.}.A.$.R+@+5 4 ++} 1 * % @ + + ",
". + @ $ * 1 } ++4 5 @+R+R.:.6+j.N.A.>@,@L.K.M.`.N.N.N.`.a+F.`.o.F.M.F.F.o.o.N.m.N.z.'@)@<. +!@C.M.|.z.%.R+@+5 4 ++} 1 * % @ + + ",
". + @ $ * 1 } ++4 5 @+r.R._.0+j.F.p.c+<.A.|.M.n.m.o.o.a+`.o.n.n.o.|.|+E.l.a+N.N.N.j.~@~@*.z.i.M.N.o.k.)+r.@+5 4 ++} 1 * % @ + + ",
". + @ $ * 1 } ++4 5 @+r.s._.<.A.k.p.P.A.A.X.k.o.m.o.a+F.n.n.n.o.N.a+K.z.|+M.n.o.o.p.{@]@[.i.K.n.N.o.X.s.r.@+5 4 ++} 1 * % @ + + ",
". + @ $ * 1 } ++4 5 G.r.s.g+*./+P.c A.i. +^@[.K.N.a+M.a+N.N.o.`.o.o.M./+E.|+F.F.q+l./+A.X.z.E.|.M.K.e.s.r.Q.5 4 ++} 1 * % @ + + ",
". + @ $ * 1 } ++4 5 G.r.s./@#.p.B.c *.|+C.(@_@j.L.[.}.|.m.q+a+F.a+o.F.K.|.|.O.p.L.k.l.o.M.O.z.}.k.P.$.s.r.G.5 4 ++} 1 * % @ + + ",
". + @ $ * 1 } ++4 5 G.r.s./@C+B.*.c :@z.i.X. +<@<@<@[@j.M.n.`.F.F.o.o.a+F.O.[.u+}@|@i.o.|.E.A.A.[.%./@s.r.G.5 4 ++} 1 * % @ + + ",
". + @ $ * 1 } ++4 5 G.r.s./@1@%.&.W 2@.+E.|.z.B.3@3@4@4@j.O.|.l.F.m.o.|.p.&.5@6@#.&.}.|+P.7@P./+ +#./@s.r.G.5 4 ++} 1 * % @ + + ",
". + @ $ * 1 } =.4 5 G.r.s.d+8@#.%.$.9@0@e.}.|./+A.[.&.a@b@P.P.p.A.A.L.*.c@d@c@#.&.&.e.%.e@f@}.|.&.g@d+s.r.G.5 4 ++} 1 * % @ + + ",
". + @ $ * 1 } =.4 5 G.r.s.d+h@i@%.&.$.j@k@O.M.|.|+k.[.)+(.,@$.%.l@m@n@n@n@n@o@%.%.#.l@p@j@P.|+z.$.h@d+s.r.G.5 4 ++} 1 * % @ + + ",
". + @ $ * 1 } =.4 5 G.r.s.H.q@N+#.&.&. +C.K.q+l.|.X.r@r@s@s@:.t@t@t@t@t@u@e.X.[.v@w@x@y@j.i./+*.z@q@H.s.r.G.5 4 =.} 1 * % @ + + ",
". + @ $ * 1 } =.4 5 G.r.s.H.I.J.w.$. +i.o.m.N.o.M./+j.*.[+A@A@A@A@B@B@*.}.K.M.k.B.%.%.j.A.L.)+w.J.I.H.s.r.G.5 4 =.} 1 * % @ + + ",
". + @ $ ; 1 } =.4 5 q.r.s.d+I.J.w.5+#.A.K.m.m.m.N.`.F.|.}.j.*.C@C@*.j.[.[.j.p.i.|.X. +*.)+D@5+w.J.I.d+s.r.q.5 4 =.} 1 * % @ + + ",
". + @ $ ; g O =.4 5 E@3.F@/@u.G@5 H@+@I@e./+|.o.o.N.m.`.l.|.|+/+k.|+i. @ @ @ @z.p.%.J@K@I@+@H@5 G@u./@F@3.E@5 4 =.O 1 * $ @ + + ",
". + @ $ ; g O =.4 5 L@M@N@O@6.P@5 Q@R@S@T@U@<. +p.|.o.o.a+|+/+P.P.[.<.Y.:._.$.)+V@W@X@T@S@R@Q@5 P@6.O@N@M@L@5 4 =.O g ; $ @ + + ",
". + @ $ ; g O M 4 5 Y@Z@`@ #.#+#@#5 ##$#%#&#*#*#*#*.[.[.[.*.*#*#*#*#*#*#*#*#*#*#*#*#&#%#$###5 @#+#.# #`@Z@Y@5 4 M O g ; $ @ + + ",
". + @ $ ; C | B 4 5 =#-#;#>#,#'#)#!#~#{#]#^#/#/#(#(#(#(#(#(#(#(#(#(#(#(#(#(#(#(#/#/#^#]#{#~#!#)#'#,#>#;#-#=#5 4 B | C ; $ @ + . ",
"  + @ $ 3 - f [ 4 5 _#:#<#[#}#|#1#2#3#4#~@~@~@~@~@~@~@~@~@~@~@~@~@~@~@~@~@~@~@~@~@~@~@~@4#3#2#1#|#}#[#<#:#_#5 4 [ f - ; $ @ + . ",
"  . + @ % * { h 4 5 i 5#6#7#8#9#o f+0#a#b#c#d#e#f#f#f#f#f#f#f#f#f#f#f#f#f#f#f#f#e#d#c#b#a#0#f+o 9#8#7#6#5#i 5 4 h { * % @ @ + . ",
"  . + @ $ ; - ~ 4 5 g#h#i#j#k#l#o p+m#[ n#n#o#o#o#o#o#o#o#o#o#o#o#o#o#o#o#o#o#o#o#o#n#n#[ m#p+o l#k#j#i#h#g#5 4 ~ - ; $ @ + . . ",
"    + + @ % * ^ ~ / ( p#: q#r#s#M M t#u#q q v#v#O O O w#w#w#w#w#w#w#w#w#w#O O O v#v#q q u#t#M M s#r#q#: p#( / ~ ^ * % @ @ + .   ",
"    . + @ $ % * - > , ' ) ) / / ! w#f f e 1 g g g g g g g g g g g g g g g g g g g g 1 e f f w#! / / ) ) ' , > - * % $ @ + .     ",
"      . + @ # % & * x#x#= ^ ^ ^ ^ - 2 y#y#y#z#z#z#z#z#z#z#z#z#z#z#z#z#z#z#z#z#z#z#z#y#y#y#2 - ^ ^ ^ ^ = x#x#* & % # @ + .       ",
"        . + @ @ $ % % & & & & ; ; ; 3 % % $ $ $ $ $ $ $ $ $ $ $ $ $ $ $ $ $ $ $ $ $ $ % % 3 ; ; ; & & & & % % $ @ @ + .         ",
"          . + @ @ @ # # # # $ $ $ $ $ A#@ @ @ @ @ @ @ @ @ @ @ @ @ @ @ @ @ @ @ @ @ @ @ @ A#$ $ $ $ $ # # # # @ @ @ + .           ",
"            . . + + @ @ @ @ @ @ @ @ @ + + + + + + + + + + + + + + + + + + + + + + + + + + @ @ @ @ @ @ @ @ @ + + . .             ",
"              . . . . . + + + + + + + + + + . . . . . . . . . . . . . . . . . . . . + + + + + + + + + + . . . . .               ",
"                . . . . . . . . . . . . . .                                         . . . . . . . . . . . . . .                 "};
