/* XPM */
static char * anim8_xpm[] = {
"64 64 605 2",
"  	c #9CDB43",
". 	c #9CDC43",
"+ 	c #9DDC43",
"@ 	c #9DDD43",
"# 	c #9DDE43",
"$ 	c #9EDE43",
"% 	c #9EDF43",
"& 	c #9EE043",
"* 	c #9FE143",
"= 	c #9FE242",
"- 	c #A0E243",
"; 	c #9FE043",
"> 	c #A0E443",
", 	c #A0E543",
"' 	c #A1E542",
") 	c #A1E642",
"! 	c #A2E643",
"~ 	c #A1E543",
"{ 	c #A1E443",
"] 	c #A0E143",
"^ 	c #A0E343",
"/ 	c #A2E743",
"( 	c #A2E842",
"_ 	c #A2E942",
": 	c #A3EA42",
"< 	c #A4EA43",
"[ 	c #A4E943",
"} 	c #A3E844",
"| 	c #A2E644",
"1 	c #A1E444",
"2 	c #A0E244",
"3 	c #9FDF43",
"4 	c #00000D",
"5 	c #00002F",
"6 	c #5F004A",
"7 	c #9C6B5C",
"8 	c #96615E",
"9 	c #730056",
"0 	c #520048",
"a 	c #270041",
"b 	c #000038",
"c 	c #000020",
"d 	c #669431",
"e 	c #A2E444",
"f 	c #A2E544",
"g 	c #A1E344",
"h 	c #A3E743",
"i 	c #630049",
"j 	c #9E755B",
"k 	c #996D5E",
"l 	c #762D56",
"m 	c #570048",
"n 	c #320041",
"o 	c #000039",
"p 	c #6A9B31",
"q 	c #A4E844",
"r 	c #A1E343",
"s 	c #650049",
"t 	c #9F7D5B",
"u 	c #9A765E",
"v 	c #784356",
"w 	c #5B0048",
"x 	c #390041",
"y 	c #6DA131",
"z 	c #A6EB44",
"A 	c #A6EC44",
"B 	c #A4EA44",
"C 	c #A0E344",
"D 	c #671649",
"E 	c #A0835B",
"F 	c #9C7C5E",
"G 	c #7A4F55",
"H 	c #5E0448",
"I 	c #3F0041",
"J 	c #6FA430",
"K 	c #A5EC43",
"L 	c #A6ED44",
"M 	c #A5EB44",
"N 	c #A3E843",
"O 	c #A3E744",
"P 	c #692749",
"Q 	c #A1865B",
"R 	c #9C805D",
"S 	c #7C5655",
"T 	c #602547",
"U 	c #430041",
"V 	c #090038",
"W 	c #00001D",
"X 	c #3D6B20",
"Y 	c #6EA42D",
"Z 	c #6DA42F",
"` 	c #6BA32E",
" .	c #6AA12E",
"..	c #69A02E",
"+.	c #699F2E",
"@.	c #689F2E",
"#.	c #3900B8",
"$.	c #4302C3",
"%.	c #A5EC44",
"&.	c #692F49",
"*.	c #A2885B",
"=.	c #9D835D",
"-.	c #7D5B55",
";.	c #623147",
">.	c #41003F",
",.	c #010036",
"'.	c #000025",
").	c #32002C",
"!.	c #0C002A",
"~.	c #000028",
"{.	c #000027",
"].	c #2900A0",
"^.	c #530BC9",
"/.	c #701BD3",
"(.	c #8829DB",
"_.	c #A137E4",
":.	c #9B34E2",
"<.	c #761FD5",
"[.	c #4D07C7",
"}.	c #0B002A",
"|.	c #6A3349",
"1.	c #A28A5B",
"2.	c #9D855D",
"3.	c #7D5E55",
"4.	c #613847",
"5.	c #36003A",
"6.	c #000031",
"7.	c #140038",
"8.	c #765D4A",
"9.	c #967E57",
"0.	c #7D5954",
"a.	c #714251",
"b.	c #3600B3",
"c.	c #713F52",
"d.	c #713E52",
"e.	c #713D52",
"f.	c #B543EB",
"g.	c #E35DFB",
"h.	c #F98CF1",
"i.	c #F57CF7",
"j.	c #CA4FF2",
"k.	c #6616CF",
"l.	c #2F00A8",
"m.	c #6A3649",
"n.	c #A28B5B",
"o.	c #9E865D",
"p.	c #7D6055",
"q.	c #623C47",
"r.	c #310036",
"s.	c #00002E",
"t.	c #29003C",
"u.	c #897454",
"v.	c #AC9660",
"w.	c #92725D",
"x.	c #4402C3",
"y.	c #865F5B",
"z.	c #865E5B",
"A.	c #FD9AEC",
"B.	c #FD9DEC",
"C.	c #FB94EE",
"D.	c #D957F7",
"E.	c #86605B",
"F.	c #855F5B",
"G.	c #6A3749",
"H.	c #7E6155",
"I.	c #623E47",
"J.	c #320036",
"K.	c #3200AE",
"L.	c #7C5B56",
"M.	c #7E5C56",
"N.	c #7D5B56",
"O.	c #7F24D8",
"P.	c #CC50F3",
"Q.	c #FFA4E9",
"R.	c #F373FA",
"S.	c #AE3FE8",
"T.	c #C049EF",
"U.	c #6A3849",
"V.	c #9E875D",
"W.	c #623F47",
"X.	c #5A0FCB",
"Y.	c #8F2DDE",
"Z.	c #70554F",
"`.	c #896F58",
" +	c #704C4C",
".+	c #653A47",
"++	c #643B47",
"@+	c #643A47",
"#+	c #BA46EC",
"$+	c #E961FD",
"%+	c #F16DFC",
"&+	c #330836",
"*+	c #A5ED44",
"=+	c #6B3849",
"-+	c #7E6255",
";+	c #2A003B",
">+	c #6A4B4E",
",+	c #806157",
"'+	c #673F48",
")+	c #5B2942",
"!+	c #5D2644",
"~+	c #5D2643",
"{+	c #5C2543",
"]+	c #8C2BDC",
"^+	c #5C2743",
"/+	c #663F48",
"(+	c #340B36",
"_+	c #634047",
":+	c #2C003B",
"<+	c #66444D",
"[+	c #7B5954",
"}+	c #613347",
"|+	c #570D43",
"1+	c #570C43",
"2+	c #570E43",
"3+	c #570F43",
"4+	c #571043",
"5+	c #570F42",
"6+	c #570D42",
"7+	c #560A42",
"8+	c #560842",
"9+	c #560942",
"0+	c #560B42",
"a+	c #560F42",
"b+	c #571342",
"c+	c #551742",
"d+	c #3D00BD",
"e+	c #340937",
"f+	c #2A003C",
"g+	c #531E45",
"h+	c #602D48",
"i+	c #450042",
"j+	c #38003F",
"k+	c #37003F",
"l+	c #36003F",
"m+	c #35003D",
"n+	c #34003D",
"o+	c #35003E",
"p+	c #36003E",
"q+	c #360237",
"r+	c #633F47",
"s+	c #050035",
"t+	c #1D0030",
"u+	c #250030",
"v+	c #00002B",
"w+	c #00002A",
"x+	c #00002C",
"y+	c #00002D",
"z+	c #260030",
"A+	c #40033C",
"B+	c #643D47",
"C+	c #7E6055",
"D+	c #220039",
"E+	c #00001F",
"F+	c #00291B",
"G+	c #395B22",
"H+	c #355724",
"I+	c #325224",
"J+	c #304E24",
"K+	c #2D4824",
"L+	c #2E4923",
"M+	c #2F4A22",
"N+	c #29471C",
"O+	c #50643D",
"P+	c #51653D",
"Q+	c #52663E",
"R+	c #304F21",
"S+	c #335322",
"T+	c #365823",
"U+	c #395C21",
"V+	c #002A1B",
"W+	c #00001E",
"X+	c #490041",
"Y+	c #A83CE6",
"Z+	c #1E0039",
"`+	c #689A2C",
" @	c #99DC3E",
".@	c #99DC3F",
"+@	c #98DA3F",
"@@	c #96D63F",
"#@	c #97D83C",
"$@	c #97D93D",
"%@	c #98DA3E",
"&@	c #689B2B",
"*@	c #633947",
"=@	c #7E5F55",
"-@	c #000021",
";@	c #76AE33",
">@	c #ACF545",
",@	c #AAF245",
"'@	c #A7ED45",
")@	c #A7EC45",
"!@	c #FA92EF",
"~@	c #DA58F8",
"{@	c #A9EF43",
"]@	c #AAF144",
"^@	c #ABF344",
"/@	c #1A0039",
"(@	c #7D5F55",
"_@	c #8225D9",
":@	c #74AB32",
"<@	c #AAF145",
"[@	c #A9F145",
"}@	c #A6EA44",
"|@	c #A5EA44",
"1@	c #F680F5",
"2@	c #F786F3",
"3@	c #F476F9",
"4@	c #A8EF44",
"5@	c #633547",
"6@	c #A9F045",
"7@	c #D354F5",
"8@	c #A9F144",
"9@	c #460041",
"0@	c #75AD32",
"a@	c #ABF445",
"b@	c #A9F244",
"c@	c #A6EC43",
"d@	c #A6EC42",
"e@	c #A7ED42",
"f@	c #A8F044",
"g@	c #AAF244",
"h@	c #ABF544",
"i@	c #170039",
"j@	c #633647",
"k@	c #470041",
"l@	c #66992A",
"m@	c #97DB3D",
"n@	c #F067FE",
"o@	c #94D43C",
"p@	c #94D43B",
"q@	c #94D43A",
"r@	c #94D53B",
"s@	c #95D63B",
"t@	c #97DB3E",
"u@	c #98DB3D",
"v@	c #190038",
"w@	c #633847",
"x@	c #1B0038",
"y@	c #365A21",
"z@	c #204220",
"A@	c #204120",
"B@	c #20421F",
"C@	c #21421F",
"D@	c #20421E",
"E@	c #21431E",
"F@	c #22441E",
"G@	c #274A1F",
"H@	c #315521",
"I@	c #26009B",
"J@	c #633A47",
"K@	c #633C47",
"L@	c #3E003C",
"M@	c #000034",
"N@	c #000030",
"O@	c #4B0040",
"P@	c #4A0040",
"Q@	c #705744",
"R@	c #56383B",
"S@	c #340036",
"T@	c #27003B",
"U@	c #866F51",
"V@	c #815758",
"W@	c #815A59",
"X@	c #8E6E5C",
"Y@	c #A8925F",
"Z@	c #876F51",
"`@	c #320336",
" #	c #2B003C",
".#	c #887452",
"+#	c #AA9660",
"@#	c #90725B",
"##	c #6012CD",
"$#	c #84615A",
"%#	c #84625A",
"&#	c #83625A",
"*#	c #90735B",
"=#	c #A28C5B",
"-#	c #624047",
";#	c #330A36",
">#	c #7A6351",
",#	c #977F5A",
"'#	c #7E5F53",
")#	c #734D4E",
"!#	c #734E4F",
"~#	c #724E4F",
"{#	c #330E36",
"]#	c #2A003A",
"^#	c #6B4D4E",
"/#	c #816456",
"(#	c #5D2B42",
"_#	c #5D2C43",
":#	c #684249",
"<#	c #340E36",
"[#	c #5B2343",
"}#	c #5B2243",
"|#	c #5B2443",
"1#	c #5B2444",
"2#	c #5C2444",
"3#	c #2C003D",
"4#	c #5F3849",
"5#	c #561D46",
"6#	c #4A0041",
"7#	c #490040",
"8#	c #4B0041",
"9#	c #4B0042",
"0#	c #4A0042",
"a#	c #70494F",
"b#	c #2D003D",
"c#	c #3B063A",
"d#	c #1E0037",
"e#	c #42003C",
"f#	c #170038",
"g#	c #180038",
"h#	c #160037",
"i#	c #140036",
"j#	c #0D0035",
"k#	c #0C0035",
"l#	c #160039",
"m#	c #19003A",
"n#	c #2E003B",
"o#	c #4C003E",
"p#	c #1F0037",
"q#	c #460D3F",
"r#	c #000026",
"s#	c #000022",
"t#	c #00001C",
"u#	c #00001B",
"v#	c #000016",
"w#	c #000024",
"x#	c #497623",
"y#	c #75AC2F",
"z#	c #71A630",
"A#	c #71A631",
"B#	c #73A933",
"C#	c #74AA33",
"D#	c #75AC31",
"E#	c #480041",
"F#	c #75AD30",
"G#	c #A9F242",
"H#	c #A8EE43",
"I#	c #A8EE44",
"J#	c #ABF345",
"K#	c #76AE31",
"L#	c #ABF444",
"M#	c #ABF443",
"N#	c #77B031",
"O#	c #ACF643",
"P#	c #ABF442",
"Q#	c #A9F241",
"R#	c #A8EF43",
"S#	c #A9F044",
"T#	c #ACF645",
"U#	c #77B032",
"V#	c #1C0038",
"W#	c #679B29",
"X#	c #98DD3B",
"Y#	c #98DD3C",
"Z#	c #97DA39",
"`#	c #007E2B",
" $	c #007C29",
".$	c #C1F877",
"+$	c #95D737",
"@$	c #95D738",
"#$	c #96D73B",
"$$	c #96D73C",
"%$	c #96D83C",
"&$	c #97DA3D",
"*$	c #98DD3E",
"=$	c #98DD3D",
"-$	c #679B2B",
";$	c #480040",
">$	c #1D0038",
",$	c #002B17",
"'$	c #385D1F",
")$	c #33591E",
"!$	c #2D521C",
"~$	c #294E19",
"{$	c #000010",
"]$	c #4D643B",
"^$	c #214714",
"/$	c #214715",
"($	c #254919",
"_$	c #264A1A",
":$	c #274A1C",
"<$	c #274920",
"[$	c #264920",
"}$	c #274A20",
"|$	c #284B20",
"1$	c #2A4E21",
"2$	c #2D5221",
"3$	c #345821",
"4$	c #385C22",
"5$	c #002B19",
"6$	c #573A3B",
"7$	c #715944",
"8$	c #592E40",
"9$	c #4D003E",
"0$	c #4B003D",
"a$	c #4B003E",
"b$	c #4C003F",
"c$	c #4D003F",
"d$	c #4C0040",
"e$	c #4C0041",
"f$	c #4D0041",
"g$	c #592D41",
"h$	c #877051",
"i$	c #A9925E",
"j$	c #8E6F5B",
"k$	c #815B58",
"l$	c #825B58",
"m$	c #815A57",
"n$	c #815957",
"o$	c #815857",
"p$	c #815958",
"q$	c #825958",
"r$	c #815959",
"s$	c #825B59",
"t$	c #A9925F",
"u$	c #340037",
"v$	c #623D47",
"w$	c #836259",
"x$	c #846259",
"y$	c #84635A",
"z$	c #734E4E",
"A$	c #724D4F",
"B$	c #6A3449",
"C$	c #9E855D",
"D$	c #320037",
"E$	c #5E2C43",
"F$	c #28003C",
"G$	c #6A3049",
"H$	c #A2895B",
"I$	c #9D845D",
"J$	c #7D5D55",
"K$	c #310037",
"L$	c #29003B",
"M$	c #805E57",
"N$	c #673C49",
"O$	c #5B2244",
"P$	c #5B2344",
"Q$	c #5B2143",
"R$	c #68474F",
"S$	c #692949",
"T$	c #A1875B",
"U$	c #9D825D",
"V$	c #7C5955",
"W$	c #613047",
"X$	c #2F0037",
"Y$	c #552442",
"Z$	c #6E424F",
"`$	c #490042",
" %	c #550946",
".%	c #681949",
"+%	c #A1835B",
"@%	c #9C7E5E",
"#%	c #7B5355",
"$%	c #5F2048",
"%%	c #33003B",
"&%	c #22002E",
"*%	c #48003E",
"=%	c #28003B",
"-%	c #0E003A",
";%	c #11003A",
">%	c #12003A",
",%	c #660049",
"'%	c #9F7E5B",
")%	c #9B785E",
"!%	c #794756",
"~%	c #5E0048",
"{%	c #3B0040",
"]%	c #000037",
"^%	c #000018",
"/%	c #9E765B",
"(%	c #996F5E",
"_%	c #773356",
":%	c #5A0048",
"<%	c #380041",
"[%	c #3C6024",
"}%	c #6FA231",
"|%	c #70A431",
"1%	c #6FA332",
"2%	c #6FA232",
"3%	c #6FA132",
"4%	c #6EA132",
"5%	c #60004A",
"6%	c #9C6C5C",
"7%	c #97635E",
"8%	c #740056",
"9%	c #540048",
"0%	c #2D0041",
"a%	c #6B9B30",
"b%	c #A6EA45",
"c%	c #A5E945",
"d%	c #A2EA42",
"e%	c #A3EB42",
"f%	c #A4EB42",
"g%	c #A5EB43",
"h%	c #A5E944",
"i%	c #A4E744",
"j%	c #A3E644",
"k%	c #9FE243",
"l%	c #A0E144",
"m%	c #9FE044",
"n%	c #9EDD43",
"                        . . . .                                                                 . . . .                         ",
"                . . . . . . . . . . .                                                     . . . . . . . . . . .                 ",
"            . . + + + @ @ @ @ @ + + + + .                                             . + + + + @ @ @ @ @ + + + . .             ",
"          . + + @ @ @ # # # # # # @ @ + + + .                                     . + + + @ @ # # # # # # @ @ @ + + .           ",
"        . + @ @ $ % % % & & & & % % $ @ @ + + + . . . . . . . . . . . . . . . . + + + @ @ $ % % & & & & % % % $ @ @ + .         ",
"      . + @ # % & * * = = = - - - * ; % $ @ @ + + + + + + + + + + + + + + + + + + @ @ $ % ; * - - - = = = * * & % # @ + .       ",
"    . + @ $ % * - > , ' ) ) ) ! ~ { - ] ; % $ @ @ @ @ @ @ @ @ @ @ @ @ @ @ @ @ @ @ $ % ; ] - { ~ ! ) ) ) ' , > - * % $ @ + .     ",
"    + + @ % * ^ ~ / ( _ : : : < [ } | 1 2 ; 3 % $ $ $ $ $ $ $ $ $ $ $ $ $ $ $ $ % 3 ; 2 1 | } [ < : : : _ ( / ~ ^ * % @ @ + .   ",
"  . + @ $ ; - ~ 4 5 6 7 8 9 0 a b c d e f g 2 * ; ; ; ; ; ; ; ; ; ; ; ; ; ; ; ; * - g f e d c b a 0 9 8 7 6 5 4 ~ - ; $ @ + . . ",
"  . + @ % * { h 4 5 i j k l m n o c p q q | f { r ^ - - - - - - - - - - - - ^ r { f | q q p c o n m l k j i 5 4 h { * % @ @ + . ",
"  + @ $ 3 - f [ 4 5 s t u v w x o c y z A B q h h ! ! ! ! ! ! ! ! ! ! ! ! ! ! h h q B A z y c o x w v u t s 5 4 [ f - ; $ @ + . ",
". + @ $ ; C | B 4 5 D E F G H I b c J K L M < [ N N N N N N N N N N N N N N N N [ < M L K J c b I H G F E D 5 4 B | C ; $ @ + . ",
". + @ $ ; g O M 4 5 P Q R S T U V W X Y Z `  ...+.+.+.@.@.@.@.@.@.#.$.$.$.@.+.+... .` Z Y X W V U T S R Q P 5 4 M O g ; $ @ + + ",
". + @ $ ; g O %.4 5 &.*.=.-.;.>.,.'.'.).!.~.{.{.{.{.{.{.{.].#.$.^./.(._._.:.<.[.{.{.~.}.).'.'.,.>.;.-.=.*.&.5 4 %.O g ; $ @ + + ",
". + @ $ ; g O %.4 5 |.1.2.3.4.5.6.7.8.9.0.a.b.c.d.d.e.e.e.e.$./.(.(.(.f.g.h.i.j.k.l.a.0.9.8.7.6.5.4.3.2.1.|.5 4 %.O 1 * $ @ + + ",
". + @ $ ; 1 } %.4 5 m.n.o.p.q.r.s.t.u.v.w.#.x.$.y.z.z.z.z.z.z.#.$.^./.f.g.A.B.C.D.E.F.[.v.u.t.s.r.q.p.o.n.m.5 4 %.} 1 * % @ + + ",
". + @ $ * 1 } %.4 5 G.n.o.H.I.J.s.[.$.K.K.L.M.#.l.N.N.N.-.-.-.-.-.-.#.O.P.Q.Q.Q.R.S.f.f.T./.t.s.J.I.H.o.n.G.5 4 %.} 1 * % @ + + ",
". + @ $ * 1 } %.4 5 U.n.V.H.W.X.Y./.Z.`. +.+++@+@+@+@+@+@+@+@+.+@+@+@+@+#+h.Q.R.j.(.(.f.$+%+k.s.&+W.H.V.n.U.5 4 *+} 1 * % @ + + ",
". + @ $ * 1 } *+4 5 =+n.V.-+[.P.#+;+>+,+'+)+k./.x.#.#.l.!+!+!+~+~+~+{+l.X.]+Y./.{+^+)+/+k.#+(.5 (+_+-+V.n.=+5 4 *+} 1 * % @ + + ",
". + @ $ * 1 } *+4 5 =+n.V.-+O.#+k.:+<+[+}+K.k./.|+1+1+|+|+2+3+4+4+5+6+7+8+8+9+0+a+b+c+}+[+<+X.d+e+_+-+V.n.=+5 4 *+} 1 * % @ + + ",
". + @ $ * 1 } *+4 5 =+n.V.b.(.Y.6.f+g+h+i+j+k+l+l+l+l+l+].l+k+k+k+#.].m+n+n+n+m+o+p+k+i+h+g+f+#.q+r+H.V.n.=+5 4 *+} 1 * % @ + + ",
". + @ $ * 1 } *+4 5 =+n.V.H.]+/.s+5 t+u+5 5 5 5 5 5 l.$.$.s.s.s.^.:.v+w+w+w+w+v+x+x+y+s.z+t+5 l.A+B+H.V.n.=+5 4 *+} 1 * % @ + + ",
". + @ $ * 1 } *+4 5 =+n.l.C+f.(.D+E+F+G+H+I+J+#.$.$.$.K+O./.L+M+#+g._.^.N+N+O+P+Q+R+S+T+U+V+W+K.X+++C+o.n.=+5 4 *+} 1 * % @ + + ",
". + @ $ * 1 } *+4 5 G.n.^.Y+g.S.Z+E+`+ @.@+@^././.$.@@$._.#+f.S.%+B.C.T.]+X./.X.#@$@%@ @#.&@E+Z+x.*@=@o.n.G.5 4 *+} 1 * % @ + + ",
". + @ $ * 1 } *+4 5 G.[.Y+D.g.f.[.-@;@>@,@x.:.S./.'@)@#.:.g.!@C.Q.B.Q.%+~@f.g.j.]+{@]@^@/./.-@/@k.x.(@o.n.G.5 4 *+} 1 * % @ + + ",
". + @ $ * 1 } *+4 5 G._@g.D.T.j.k.-@:@<@[@/.~@g.:.}@|@|@]+R.1@2@!@B.B.$+D.j.g.3@g./.4@]@/./.-@d+k.5@3.o.n.G.5 4 *+} 1 * % @ + + ",
". + @ $ * 1 } *+4 5 G.P.h.%+f.j.k.-@:@[@6@<.%+!@$+:.|@|@Y+h.B.A.g.g.7@P.Y+Y._@S.~@]+4@8@<@[.-@b.9@5@3.o.n.G.5 4 *+} 1 * % @ + + ",
". + @ $ * 1 } *+4 5 k.%+Q.!@T.T.[.-@0@a@b@S.2@Q.B.R.Y./.Y.R.C.R.Y.c@/.]+<.^.d@e@]+]+f@g@h@K.-@i@9@j@3.o.n.G.5 4 *+} 1 * % @ + + ",
". + @ $ * 1 } *+4 5 /.3@A.Q.f.k@l.W+l@m@k.n@Q.Q.C.$+]+o@o@(.P.S.$.p@p@[.$.q@q@r@s@]+$.t@u@l.W+v@k@w@(@o.n.G.5 4 *+} 1 * % @ + + ",
". + @ $ * 1 } *+4 5 ^.~@h.i./.k@x@W ].y@Y+B.Q.Q.$+]+z@z@A@B@k.^.C@C@D@D@#.E@F@/.Y.G@(.H@y@I@W x@k@J@p.o.n.U.5 4 *+} 1 * % @ + + ",
". + @ $ * 1 } *+4 5 d+S.i.j.K@L@M@N@#.Y.$+Q.Q.Q.$+O@P@P@P@P@O@#.O@O@O@O@$.O.S.R.n@S.k.b.Q@R@N@M@L@K@C+o.n.U.5 4 *+} 1 * % @ + + ",
". + @ $ * 1 } *+4 5 =+]+%+(.I.S@N@T@U@^.f.R.Q.Q.i.P.<.V@V@V@^.X.V@V@V@k.:.7@i.!@g.O.W@X@Y@Z@T@N@S@I.K.V.n.=+5 4 *+} 1 * % @ + + ",
". + @ $ * 1 } *+4 5 =+<.j.X.W.`@s. #.#+#@#T.Q.Q.Q.Q.R.Y.X.##_._./.$#(.P.%+$+i.1@#+%#&#*#+#.# #s.`@O.^.V.=#=+5 4 *+} 1 * % @ + + ",
". + @ $ * 1 } *+4 5 =+^./.-+-#;#s.f+>#,#'#f.C.Q.Q.Q.%+]+)#/.j.j.(.k.(.g.!@i.1@1@j.!#~#'#,#>#f+s./.$+]+V.=#=+5 4 *+} 1 * % @ + + ",
". + @ $ * 1 } *+4 5 =+K.V.-+_+{#s.]#^#/#]+%+B.Q.Q.3@]+(#(#(#]+O._#_#_#k.#+g.!@A.i.T.k.:#/#^#;+s.Y.B.Y+V.=#=+5 4 *+} 1 * % @ + + ",
". + @ $ * 1 } *+4 5 =+=#V.-+_+<#5 :+K.X.T.%+$+#+j.:.[#}#}#}#/.[#[#|#1#1#2#$+C.A.Q.$+T.$.,+>+:+5 j.Q.P.^.=#=+5 4 *+} 1 * % @ + + ",
". + @ $ * 1 } *+4 5 =+=#V.-+_+e+I@3#4#O.5#Y./.6#P@/.P@7#7#7#]+]+6#6#8#9#Y.$+Q.Q.Q.j.0##.a#4#b#/.R.C.g.##=#=+5 4 *+} 1 * % @ + + ",
". + @ $ * 1 } *+4 5 =+=#V.H.r+c#].d#e#d+(.f#g#h#i#_.:.j#k#X.g.D.(.7.l#]+g.A.Q.Q.3@/.m#n#o#K.p#P.!@R.#+[.=#=+5 4 *+} 1 * % @ + + ",
". + @ $ * 1 } *+4 5 =+n.V.H.B+q#].r#W+s#O.O.t#u#]+R.$+Y.v##+!@1@P.<.^.]+g.Q.Q.Q.#+s#s#s#w#k.$+R.!@g.:.#.n.=+5 4 *+} 1 * % @ + + ",
". + @ $ * 1 } *+4 5 =+n.o.C+].X+l.W+x#y#Y.g.S.S.g.!@2@$+%+R.B.!@$+Y.z#A#]+%+Q.B.]+B#C#D#D#Y.Q.Q.C.g.O.o.n.=+5 4 *+} 1 * % @ + + ",
". + @ $ * 1 } *+4 5 G.n.o.#.l.E##.#.F#G#/.~@1@2@1@2@1@B.B.B.!@h.g.O.H#I#I#T.!@!@(.6@<@J#b@:.Q.Q.C.g.k.o.n.U.5 4 *+} 1 * % @ + + ",
". + @ $ * 1 } *+4 5 G.n.l.#.w@k@#.#.K#L#M#Y.%+Q.2@i.2@Q.Q.!@2@%+j.(.#.4@4@Y+1@$+/.[@,@a@a@/.$+h.%+S.$.o.n.G.5 4 *+} 1 * % @ + + ",
". + @ $ * 1 } *+4 5 G.n.o.b.w@k@x@].N#O#P#Q#k.Y.(.f.g.Q.A.~@:.O.(./.^.R#(.~@~@]+S#8@,@a@T#U#Y+P.:.^.(@o.n.G.5 4 *+} 1 * % @ + + ",
". + @ $ * 1 } *+4 5 G.n.o.(@K.k@V#W W#X#Y#Z#`# $.$.$k.j.%+#++$@$$.^.#$/.(.O.##$$%$%$&$*$=$-$/.(.k@].(@o.n.G.5 4 *+} 1 * % @ + + ",
". + @ $ * 1 } %.4 5 G.n.o.C+b.;$>$t#,$'$)$!$~${$4 ]$^$/$#+/.($_$:$#.X.d+<$[$<$}$|$1$2$3$4$5$/.(.k@J@C+o.n.G.5 4 *+} 1 * % @ + + ",
". + @ $ * 1 } %.4 5 G.n.o.C+[.L@M@5 6$7$8$9$9$o#0$0$0$b.x.a$o#b$c$].d$d$d$d$e$e$f$f$c$g$7$6$:.(.b.K@C+o.n.G.5 4 *+} 1 * % @ + + ",
". + @ $ * 1 } %.4 5 G.n.o.H.$.^.N@T@h$i$j$k$l$m$n$n$o$o$n$n$p$q$q$q$q$q$r$r$$.#.].s$W@X@t$^.S.<.u$v$H.o.n.G.5 4 %.} 1 * % @ + + ",
". + @ $ * 1 } %.4 5 G.n.o.H.I.k./.$..#+#*#w$k.<.X.d+].x$x$x$x$x$x$%#].b.b.d+$.#.%#y$&#*#+#O.:.d+J.I.H.o.n.G.5 4 %.} 1 * % @ + + ",
". + @ $ ; 1 } %.4 5 m.n.o.C+I.#.O.Y+S._.:.j.$+i.g.Y+z$z$z$z$z$z$z$z$!#!#!#!#!#!#!#!#A$'#d+[.d+s.J.I.C+o.n.m.5 4 %.} 1 * % @ + + ",
". + @ $ ; g O %.4 5 B$1.C$(@q.D$d+:.#+P.P.i.Q.Q.h.g.S.X._#_#_#E$E$E$E$_#_#b.$._#_#l.].l.l.>+F$5 D$q.(@C$1.B$5 4 %.O 1 * $ @ + + ",
". + @ $ ; g O %.4 5 G$H$I$J$4.K$5 L$[.M$N$1@Q.Q.Q.Q.h.P.:.Y./.O$O$O$O$O$O$O$k./.$.P$Q$N$M$R$L$5 K$4.J$I$H$G$5 4 %.O g ; $ @ + + ",
". + @ $ ; g O M 4 5 S$T$U$V$W$X$x+5 Y$Z$#.:.R.C.B.C.!@2@!@!@%+]+0#0#0#0#0#0#0#[.0#0#`$ %Z$Y$5 x+X$W$V$U$T$S$5 4 M O g ; $ @ + + ",
". + @ $ ; C | B 4 5 .%+%@%#%$%%%y+u#&%*%=%-%/.]+S.T.R.1@%+#+]+k.#.;%;%;%;%;%;%;%>%>%-%=%*%&%u#y+%%$%#%@%+%.%5 4 B | C ; $ @ + . ",
"  + @ $ 3 - f [ 4 5 ,%'%)%!%~%{%]%t#^%w#s#s#s#s#s#$.<.(.<.s#s#s#s#s#s#s#s#s#s#s#s#s#s#s#w#^%t#]%{%~%!%)%'%,%5 4 [ f - ; $ @ + . ",
"  . + @ % * { h 4 5 i /%(%_%:%<%o E+[%}%|%1%2%3%4%4%4%4%4%4%4%4%4%4%4%4%4%4%4%4%3%2%1%|%}%[%E+o <%:%_%(%/%i 5 4 h { * % @ @ + . ",
"  . + @ $ ; - ~ 4 5 5%6%7%8%9%0%o -@a%[ b%b%c%c%c%c%c%c%c%c%c%c%c%c%c%c%c%c%c%c%c%c%b%b%[ a%-@o 0%9%8%7%6%5%5 4 ~ - ; $ @ + . . ",
"    + + @ % * ^ ~ / ( d%: e%f%g%M M |@h%q q i%i%O O O j%j%j%j%j%j%j%j%j%j%O O O i%i%q q h%|@M M g%f%e%: d%( / ~ ^ * % @ @ + .   ",
"    . + @ $ % * - > , ' ) ) / / ! j%f f e 1 g g g g g g g g g g g g g g g g g g g g 1 e f f j%! / / ) ) ' , > - * % $ @ + .     ",
"      . + @ # % & * k%k%= ^ ^ ^ ^ - 2 l%l%l%m%m%m%m%m%m%m%m%m%m%m%m%m%m%m%m%m%m%m%m%l%l%l%2 - ^ ^ ^ ^ = k%k%* & % # @ + .       ",
"        . + @ @ $ % % & & & & ; ; ; 3 % % $ $ $ $ $ $ $ $ $ $ $ $ $ $ $ $ $ $ $ $ $ $ % % 3 ; ; ; & & & & % % $ @ @ + .         ",
"          . + @ @ @ # # # # $ $ $ $ $ n%@ @ @ @ @ @ @ @ @ @ @ @ @ @ @ @ @ @ @ @ @ @ @ @ n%$ $ $ $ $ # # # # @ @ @ + .           ",
"            . . + + @ @ @ @ @ @ @ @ @ + + + + + + + + + + + + + + + + + + + + + + + + + + @ @ @ @ @ @ @ @ @ + + . .             ",
"              . . . . . + + + + + + + + + + . . . . . . . . . . . . . . . . . . . . + + + + + + + + + + . . . . .               ",
"                . . . . . . . . . . . . . .                                         . . . . . . . . . . . . . .                 "};
