/* XPM */
static char * anim9_xpm[] = {
"64 64 659 2",
"  	c #9CDB43",
". 	c #9CDC43",
"+ 	c #9DDC43",
"@ 	c #9DDD43",
"# 	c #9DDE43",
"$ 	c #9EDE43",
"% 	c #9EDF43",
"& 	c #9EE043",
"* 	c #9FE143",
"= 	c #9FE242",
"- 	c #A0E243",
"; 	c #9FE043",
"> 	c #A0E443",
", 	c #A0E543",
"' 	c #A1E542",
") 	c #A1E642",
"! 	c #A2E643",
"~ 	c #A1E543",
"{ 	c #A1E443",
"] 	c #A0E143",
"^ 	c #A0E343",
"/ 	c #A2E743",
"( 	c #A2E842",
"_ 	c #A2E942",
": 	c #A3EA42",
"< 	c #A4EA43",
"[ 	c #A4E943",
"} 	c #A3E844",
"| 	c #A2E644",
"1 	c #A1E444",
"2 	c #A0E244",
"3 	c #9FDF43",
"4 	c #00000D",
"5 	c #00002F",
"6 	c #5F004A",
"7 	c #9C6B5C",
"8 	c #96615E",
"9 	c #730056",
"0 	c #520048",
"a 	c #270041",
"b 	c #000038",
"c 	c #000020",
"d 	c #669431",
"e 	c #A2E444",
"f 	c #A2E544",
"g 	c #A1E344",
"h 	c #A3E743",
"i 	c #630049",
"j 	c #9E755B",
"k 	c #996D5E",
"l 	c #762D56",
"m 	c #570048",
"n 	c #320041",
"o 	c #000039",
"p 	c #6A9B31",
"q 	c #A4E844",
"r 	c #A1E343",
"s 	c #650049",
"t 	c #9F7D5B",
"u 	c #9A765E",
"v 	c #784356",
"w 	c #5B0048",
"x 	c #390041",
"y 	c #6DA131",
"z 	c #A6EB44",
"A 	c #A6EC44",
"B 	c #A4EA44",
"C 	c #A0E344",
"D 	c #671649",
"E 	c #A0835B",
"F 	c #9C7C5E",
"G 	c #7A4F55",
"H 	c #5E0448",
"I 	c #3F0041",
"J 	c #6FA430",
"K 	c #A5EC43",
"L 	c #A6ED44",
"M 	c #A5EB44",
"N 	c #A3E843",
"O 	c #7920D6",
"P 	c #8225D9",
"Q 	c #6214CE",
"R 	c #3700B5",
"S 	c #A3E744",
"T 	c #692749",
"U 	c #A1865B",
"V 	c #9C805D",
"W 	c #7C5655",
"X 	c #602547",
"Y 	c #430041",
"Z 	c #090038",
"` 	c #00001D",
" .	c #3D6B20",
"..	c #6EA42D",
"+.	c #6DA42F",
"@.	c #6BA32E",
"#.	c #6AA12E",
"$.	c #69A02E",
"%.	c #699F2E",
"&.	c #689F2E",
"*.	c #240098",
"=.	c #3600B3",
"-.	c #5009C7",
";.	c #A83CE6",
">.	c #E961FD",
",.	c #F57CF7",
"'.	c #DF5BF9",
").	c #3F00C0",
"!.	c #2A00A1",
"~.	c #A5EC44",
"{.	c #692F49",
"].	c #A2885B",
"^.	c #9D835D",
"/.	c #7D5B55",
"(.	c #623147",
"_.	c #41003F",
":.	c #010036",
"<.	c #000025",
"[.	c #32002C",
"}.	c #0C002A",
"|.	c #000028",
"1.	c #000027",
"2.	c #B543EB",
"3.	c #C64DF1",
"4.	c #9430DF",
"5.	c #6A3349",
"6.	c #A28A5B",
"7.	c #9D855D",
"8.	c #7D5E55",
"9.	c #613847",
"0.	c #36003A",
"a.	c #000031",
"b.	c #140038",
"c.	c #765D4A",
"d.	c #967E57",
"e.	c #7D5954",
"f.	c #714152",
"g.	c #713F52",
"h.	c #713E52",
"i.	c #713D52",
"j.	c #6C19D1",
"k.	c #9B34E2",
"l.	c #BA46EC",
"m.	c #BD48EE",
"n.	c #7D23D7",
"o.	c #6A3649",
"p.	c #A28B5B",
"q.	c #9E865D",
"r.	c #7D6055",
"s.	c #623C47",
"t.	c #310036",
"u.	c #00002E",
"v.	c #29003C",
"w.	c #897454",
"x.	c #AC9660",
"y.	c #855F5B",
"z.	c #86605B",
"A.	c #865E5B",
"B.	c #CC50F3",
"C.	c #530BC9",
"D.	c #3100AB",
"E.	c #6A3749",
"F.	c #7E6155",
"G.	c #623E47",
"H.	c #320036",
"I.	c #836D51",
"J.	c #A38E5D",
"K.	c #8A6C59",
"L.	c #7C5B56",
"M.	c #7E5C56",
"N.	c #7D5C56",
"O.	c #7D5B56",
"P.	c #7D5C55",
"Q.	c #6A3849",
"R.	c #9E875D",
"S.	c #623F47",
"T.	c #330836",
"U.	c #28003A",
"V.	c #70554F",
"W.	c #896F58",
"X.	c #704C4C",
"Y.	c #653A47",
"Z.	c #643B47",
"`.	c #4B06C6",
" +	c #643A47",
".+	c #643947",
"++	c #896F57",
"@+	c #A5ED44",
"#+	c #6B3849",
"$+	c #7E6255",
"%+	c #634047",
"&+	c #340B36",
"*+	c #2A003B",
"=+	c #6A4B4E",
"-+	c #806157",
";+	c #673F48",
">+	c #5B2942",
",+	c #3B00BB",
"'+	c #5C2544",
")+	c #5D2544",
"!+	c #5D2644",
"~+	c #5D2643",
"{+	c #5C2543",
"]+	c #5C2443",
"^+	c #5C2743",
"/+	c #663F48",
"(+	c #806156",
"_+	c #340937",
":+	c #2C003B",
"<+	c #66444D",
"[+	c #7B5954",
"}+	c #613347",
"|+	c #571243",
"1+	c #570F43",
"2+	c #570D43",
"3+	c #570C43",
"4+	c #570E43",
"5+	c #571043",
"6+	c #570D42",
"7+	c #560A42",
"8+	c #560842",
"9+	c #560942",
"0+	c #560B42",
"a+	c #560F42",
"b+	c #571342",
"c+	c #551742",
"d+	c #633F47",
"e+	c #3200AE",
"f+	c #2A003C",
"g+	c #531E45",
"h+	c #602D48",
"i+	c #38003F",
"j+	c #37003F",
"k+	c #36003F",
"l+	c #36003E",
"m+	c #35003E",
"n+	c #35003D",
"o+	c #34003D",
"p+	c #050035",
"q+	c #1D0030",
"r+	c #250030",
"s+	c #5A0FCB",
"t+	c #00002A",
"u+	c #00002B",
"v+	c #00002C",
"w+	c #00002D",
"x+	c #40033C",
"y+	c #7E6055",
"z+	c #220039",
"A+	c #00001F",
"B+	c #00291B",
"C+	c #395B22",
"D+	c #355724",
"E+	c #325224",
"F+	c #304E24",
"G+	c #2C4824",
"H+	c #2D4824",
"I+	c #2E4923",
"J+	c #2F4A22",
"K+	c #2F4A21",
"L+	c #F16DFC",
"M+	c #FD9EEB",
"N+	c #B141E9",
"O+	c #304F21",
"P+	c #335322",
"Q+	c #365823",
"R+	c #395C21",
"S+	c #00001E",
"T+	c #490041",
"U+	c #7E5F55",
"V+	c #1E0039",
"W+	c #689A2C",
"X+	c #99DC3E",
"Y+	c #99DC3F",
"Z+	c #98DA3F",
"`+	c #96D63F",
" @	c #96D73E",
".@	c #97D73E",
"+@	c #FFA4E9",
"@@	c #C2F778",
"#@	c #8C2BDC",
"$@	c #98DA3E",
"%@	c #99DC3D",
"&@	c #633947",
"*@	c #7D5F55",
"=@	c #1A0039",
"-@	c #000021",
";@	c #76AE33",
">@	c #ACF545",
",@	c #AAF245",
"'@	c #A9F045",
")@	c #DA58F8",
"!@	c #A7ED45",
"~@	c #A7EC45",
"{@	c #A137E4",
"]@	c #D354F5",
"^@	c #D7FF85",
"/@	c #ABF344",
"(@	c #77AE32",
"_@	c #633647",
":@	c #74AB32",
"<@	c #AAF145",
"[@	c #A9F145",
"}@	c #A8EE45",
"|@	c #A6EA44",
"1@	c #A5EA44",
"2@	c #D957F7",
"3@	c #F98CF1",
"4@	c #A6EB42",
"5@	c #008432",
"6@	c #008633",
"7@	c #AAF144",
"8@	c #170039",
"9@	c #460041",
"0@	c #633547",
"a@	c #F373FA",
"b@	c #A5EA43",
"c@	c #A5EA42",
"d@	c #A5EA41",
"e@	c #A5EB41",
"f@	c #A6EC43",
"g@	c #A7ED43",
"h@	c #A9F144",
"i@	c #160039",
"j@	c #E75FFC",
"k@	c #F479F8",
"l@	c #75AD32",
"m@	c #ABF445",
"n@	c #A9F244",
"o@	c #EF64FF",
"p@	c #A6EC42",
"q@	c #A7ED42",
"r@	c #A7EE43",
"s@	c #A8EF43",
"t@	c #A8F044",
"u@	c #ABF544",
"v@	c #76AD32",
"w@	c #FC97EE",
"x@	c #470041",
"y@	c #190038",
"z@	c #66992A",
"A@	c #97DB3D",
"B@	c #97DB3E",
"C@	c #94D43C",
"D@	c #94D43B",
"E@	c #94D43A",
"F@	c #95D63B",
"G@	c #96D83C",
"H@	c #98DB3D",
"I@	c #669A2A",
"J@	c #633847",
"K@	c #F888F3",
"L@	c #731DD4",
"M@	c #1B0038",
"N@	c #002518",
"O@	c #365A21",
"P@	c #315521",
"Q@	c #204220",
"R@	c #204120",
"S@	c #20421F",
"T@	c #21421F",
"U@	c #20421E",
"V@	c #2A4E20",
"W@	c #633A47",
"X@	c #633C47",
"Y@	c #3E003C",
"Z@	c #000034",
"`@	c #000030",
" #	c #56383B",
".#	c #582841",
"+#	c #4B0040",
"@#	c #4A0040",
"##	c #4C0040",
"$#	c #4D0040",
"%#	c #4C003F",
"&#	c #582941",
"*#	c #705744",
"=#	c #340036",
"-#	c #27003B",
";#	c #866F51",
">#	c #8E6E5C",
",#	c #815959",
"'#	c #815758",
")#	c #6012CD",
"!#	c #815958",
"~#	c #825A59",
"{#	c #A8925F",
"]#	c #876F51",
"^#	c #A28C5B",
"/#	c #320336",
"(#	c #2B003C",
"_#	c #887452",
":#	c #AA9660",
"<#	c #90725B",
"[#	c #84625A",
"}#	c #84615A",
"|#	c #90735B",
"1#	c #624047",
"2#	c #330A36",
"3#	c #7A6351",
"4#	c #977F5A",
"5#	c #7E5F53",
"6#	c #724D4F",
"7#	c #734E4E",
"8#	c #FA92EF",
"9#	c #734D4E",
"0#	c #28009E",
"a#	c #330E36",
"b#	c #2A003A",
"c#	c #6B4D4E",
"d#	c #816456",
"e#	c #684249",
"f#	c #5C2D43",
"g#	c #5D2B42",
"h#	c #5D2B43",
"i#	c #5D2C43",
"j#	c #5E2D43",
"k#	c #FD9AEC",
"l#	c #340E36",
"m#	c #5C2642",
"n#	c #5B2643",
"o#	c #4704C4",
"p#	c #5B2243",
"q#	c #5B2343",
"r#	c #5B2443",
"s#	c #5B2444",
"t#	c #5C2444",
"u#	c #673F49",
"v#	c #340E37",
"w#	c #2C003D",
"x#	c #5F3849",
"y#	c #70494F",
"z#	c #4A0041",
"A#	c #4B0041",
"B#	c #490040",
"C#	c #4B0042",
"D#	c #571D46",
"E#	c #3B063A",
"F#	c #000033",
"G#	c #1E0037",
"H#	c #42003C",
"I#	c #4B003E",
"J#	c #2D003A",
"K#	c #180038",
"L#	c #160037",
"M#	c #140036",
"N#	c #120036",
"O#	c #100036",
"P#	c #0C0036",
"Q#	c #0E0036",
"R#	c #17003A",
"S#	c #19003A",
"T#	c #2E003B",
"U#	c #4C003E",
"V#	c #42003D",
"W#	c #643D47",
"X#	c #460D3F",
"Y#	c #1D0037",
"Z#	c #000022",
"`#	c #000019",
" $	c #000018",
".$	c #000024",
"+$	c #210039",
"@$	c #497623",
"#$	c #75AC2F",
"$$	c #97C260",
"%$	c #71A632",
"&$	c #72A632",
"*$	c #74AA33",
"=$	c #75AC31",
"-$	c #497624",
";$	c #A9F242",
">$	c #AAF343",
",$	c #A9F142",
"'$	c #D5FF83",
")$	c #A8EE41",
"!$	c #A8EE42",
"~$	c #A8EE44",
"{$	c #ABF345",
"]$	c #75AD31",
"^$	c #1C0039",
"/$	c #ABF444",
"($	c #ABF443",
"_$	c #AAF242",
":$	c #D8FF85",
"<$	c #008D30",
"[$	c #008D32",
"}$	c #A8EF42",
"|$	c #A8EF44",
"1$	c #76AE32",
"2$	c #77B031",
"3$	c #ABF442",
"4$	c #A9F241",
"5$	c #A9F140",
"6$	c #D7FF84",
"7$	c #A8F042",
"8$	c #A8F043",
"9$	c #A9F044",
"0$	c #ACF645",
"a$	c #77B032",
"b$	c #1B0039",
"c$	c #1C0038",
"d$	c #679B29",
"e$	c #98DD3B",
"f$	c #97DA39",
"g$	c #007E2B",
"h$	c #007C29",
"i$	c #C1F877",
"j$	c #94D635",
"k$	c #94D636",
"l$	c #95D737",
"m$	c #95D738",
"n$	c #96D739",
"o$	c #96D73A",
"p$	c #96D73B",
"q$	c #95D73C",
"r$	c #96D73C",
"s$	c #97DA3D",
"t$	c #98DD3D",
"u$	c #679B2B",
"v$	c #633B47",
"w$	c #480040",
"x$	c #1D0038",
"y$	c #00001C",
"z$	c #002B17",
"A$	c #385D1F",
"B$	c #33591E",
"C$	c #2D521C",
"D$	c #294E19",
"E$	c #000010",
"F$	c #4D643B",
"G$	c #214714",
"H$	c #214715",
"I$	c #224716",
"J$	c #234817",
"K$	c #274A1C",
"L$	c #274A1D",
"M$	c #27491E",
"N$	c #27491F",
"O$	c #274920",
"P$	c #264920",
"Q$	c #274A20",
"R$	c #284B20",
"S$	c #2A4E21",
"T$	c #345821",
"U$	c #385C22",
"V$	c #002B19",
"W$	c #573A3B",
"X$	c #715944",
"Y$	c #592E40",
"Z$	c #4D003E",
"`$	c #4B003D",
" %	c #4D003F",
".%	c #4C0041",
"+%	c #592D41",
"@%	c #623D47",
"#%	c #877051",
"$%	c #A9925E",
"%%	c #8E6F5B",
"&%	c #815B58",
"*%	c #825B58",
"=%	c #815A57",
"-%	c #815957",
";%	c #825958",
">%	c #825B59",
",%	c #815A59",
"'%	c #A9925F",
")%	c #340037",
"!%	c #836259",
"~%	c #846359",
"{%	c #846259",
"]%	c #84635A",
"^%	c #83625A",
"/%	c #887352",
"(%	c #7A6251",
"_%	c #734E4F",
":%	c #6A3449",
"<%	c #9E855D",
"[%	c #320037",
"}%	c #28003C",
"|%	c #816356",
"1%	c #674049",
"2%	c #5E2C43",
"3%	c #6A3049",
"4%	c #A2895B",
"5%	c #9D845D",
"6%	c #7D5D55",
"7%	c #310037",
"8%	c #29003B",
"9%	c #68474F",
"0%	c #805E57",
"a%	c #5B2142",
"b%	c #5B2344",
"c%	c #5B2244",
"d%	c #5B2143",
"e%	c #673C49",
"f%	c #692949",
"g%	c #A1875B",
"h%	c #9D825D",
"i%	c #7C5955",
"j%	c #613047",
"k%	c #2F0037",
"l%	c #552442",
"m%	c #6E424F",
"n%	c #550946",
"o%	c #490042",
"p%	c #4A0042",
"q%	c #681949",
"r%	c #A1835B",
"s%	c #9C7E5E",
"t%	c #7B5355",
"u%	c #5F2048",
"v%	c #33003B",
"w%	c #00001B",
"x%	c #22002E",
"y%	c #48003E",
"z%	c #28003B",
"A%	c #0E003A",
"B%	c #12003A",
"C%	c #11003A",
"D%	c #660049",
"E%	c #9F7E5B",
"F%	c #9B785E",
"G%	c #794756",
"H%	c #5E0048",
"I%	c #3B0040",
"J%	c #000037",
"K%	c #9E765B",
"L%	c #996F5E",
"M%	c #773356",
"N%	c #5A0048",
"O%	c #380041",
"P%	c #3C6024",
"Q%	c #6FA231",
"R%	c #70A431",
"S%	c #6FA332",
"T%	c #6FA232",
"U%	c #6FA132",
"V%	c #6EA132",
"W%	c #60004A",
"X%	c #9C6C5C",
"Y%	c #97635E",
"Z%	c #740056",
"`%	c #540048",
" &	c #2D0041",
".&	c #6B9B30",
"+&	c #A6EA45",
"@&	c #A5E945",
"#&	c #A2EA42",
"$&	c #A3EB42",
"%&	c #A4EB42",
"&&	c #A5EB43",
"*&	c #A5E944",
"=&	c #A4E744",
"-&	c #A3E644",
";&	c #9FE243",
">&	c #A0E144",
",&	c #9FE044",
"'&	c #9EDD43",
"                        . . . .                                                                 . . . .                         ",
"                . . . . . . . . . . .                                                     . . . . . . . . . . .                 ",
"            . . + + + @ @ @ @ @ + + + + .                                             . + + + + @ @ @ @ @ + + + . .             ",
"          . + + @ @ @ # # # # # # @ @ + + + .                                     . + + + @ @ # # # # # # @ @ @ + + .           ",
"        . + @ @ $ % % % & & & & % % $ @ @ + + + . . . . . . . . . . . . . . . . + + + @ @ $ % % & & & & % % % $ @ @ + .         ",
"      . + @ # % & * * = = = - - - * ; % $ @ @ + + + + + + + + + + + + + + + + + + @ @ $ % ; * - - - = = = * * & % # @ + .       ",
"    . + @ $ % * - > , ' ) ) ) ! ~ { - ] ; % $ @ @ @ @ @ @ @ @ @ @ @ @ @ @ @ @ @ @ $ % ; ] - { ~ ! ) ) ) ' , > - * % $ @ + .     ",
"    + + @ % * ^ ~ / ( _ : : : < [ } | 1 2 ; 3 % $ $ $ $ $ $ $ $ $ $ $ $ $ $ $ $ % 3 ; 2 1 | } [ < : : : _ ( / ~ ^ * % @ @ + .   ",
"  . + @ $ ; - ~ 4 5 6 7 8 9 0 a b c d e f g 2 * ; ; ; ; ; ; ; ; ; ; ; ; ; ; ; ; * - g f e d c b a 0 9 8 7 6 5 4 ~ - ; $ @ + . . ",
"  . + @ % * { h 4 5 i j k l m n o c p q q | f { r ^ - - - - - - - - - - - - ^ r { f | q q p c o n m l k j i 5 4 h { * % @ @ + . ",
"  + @ $ 3 - f [ 4 5 s t u v w x o c y z A B q h h ! ! ! ! ! ! ! ! ! ! ! ! ! ! h h q B A z y c o x w v u t s 5 4 [ f - ; $ @ + . ",
". + @ $ ; C | B 4 5 D E F G H I b c J K L M < [ N N N N N N N N N O P Q R N N N [ < M L K J c b I H G F E D 5 4 B | C ; $ @ + . ",
". + @ $ ; g S M 4 5 T U V W X Y Z `  ...+.@.#.$.%.%.%.&.&.*.=.-.;.>.,.'.P ).!.%.$.*.@.+... .` Z Y X W V U T 5 4 M S g ; $ @ + + ",
". + @ $ ; g S ~.4 5 {.].^./.(._.:.<.<.[.}.|.*.1.1.1.1.1.1.1.1.-.O 2.'.>.3.4.1.1.1.1.|.*.[.<.<.:._.(./.^.].{.5 4 ~.S g ; $ @ + + ",
". + @ $ ; g S ~.4 5 5.6.7.8.9.0.a.b.c.d.e.!.f.g.h.h.i.i.i.i.i.i.i.i.j.k.2.l.m.4.k.n.j.e.d.c.b.a.0.9.8.7.6.5.5 4 ~.S 1 * $ @ + + ",
". + @ $ ; 1 } ~.4 5 o.p.q.r.s.t.u.v.w.x.*.y.z.!.!.A.A.A.A.A.A.A.A.A.A.A.n.'.,.B.k.n.C.D.x.w.v.u.t.s.r.q.p.o.5 4 ~.} 1 * % @ + + ",
". + @ $ * 1 } ~.4 5 E.p.q.F.G.H.u.v.I.J.K.L.M.N.O.O.O.O./././././././././.;.4./.P.P.L.K.J.I.v.u.H.G.F.q.p.E.5 4 ~.} 1 * % @ + + ",
". + @ $ * 1 } ~.4 5 Q.p.R.F.S.T.u.U.V.W.X.Y.Z.).`.!. + + + + +Y. + + + +D.)..+ + +Z.Y.X.++V.U.u.T.S.F.R.p.Q.5 4 @+} 1 * % @ + + ",
". + @ $ * 1 } @+4 5 #+p.R.$+%+&+5 *+=+-+;+>+,+).'+'+'+)+!+!+!+~+~+~+{+{+]+]+]+{+{+^+>+/+(+=+*+5 &+%+$+R.p.#+5 4 @+} 1 * % @ + + ",
". + @ $ * 1 } @+4 5 #+p.R.$+%+_+5 :+<+[+}+!.|+1+2+3+3+2+2+4+1+5+*.*.6+7+8+8+9+0+a+b+c+}+[+<+:+5 _+%+$+R.p.#+5 4 @+} 1 * % @ + + ",
". + @ $ * 1 } @+4 5 #+p.R.!.d+e+a.f+g+h+*.i+j+k+k+k+k+!.*.k+j+j+j+l+m+n+o+o+o+n+m+l+j+!.h+g+f+a.!.d+F.R.p.#+5 4 @+} 1 * % @ + + ",
". + @ $ * 1 } @+4 5 #+p.R.F.O Q p+5 q+r+5 5 5 5 C.`.R 5 5 u.u.!.`.j.4.P P s+t+u+v+v+w+u.e+q+5 p+x+e+F.R.p.#+5 4 @+} 1 * % @ + + ",
". + @ $ * 1 } @+4 5 #+p.*.y+n.n.z+A+B+C+D+E+F+n.B.k.G+H+H+!.I+J+K+L+M+M+>.N+n.j.s+O+P+Q+R+`.S+z+T+Z.!.q.p.#+5 4 @+} 1 * % @ + + ",
". + @ $ * 1 } @+4 5 E.p.q.U+j.j.V+A+W+X+Y+Z+Q '.>.j.`+`+R `. @.@n.'.M++@'.@@#@2.3.#@$@X+%@-.-.V+!.&@U+q.p.E.5 4 @+} 1 * % @ + + ",
". + @ $ * 1 } @+4 5 E.p.q.*@s+j.=@-@;@>@,@'@P )@#@!@~@~@C.{@;.;.{@]@>.M+3.O ^@j.3.'.j./@>@(@`.=@!._@*@q.p.E.5 4 @+} 1 * % @ + + ",
". + @ $ * 1 } @+4 5 E.p.R 8.#@4.C.-@:@<@[@}@P ;.z |@1@1@C.2@3@3@2.4@4.]@N+).5@6@C.{@Q 7@<@:@!.8@9@0@8.q.p.E.5 4 @+} 1 * % @ + + ",
". + @ $ * 1 } @+4 5 E.p.#@L+'.m.O D.:@[@'@s+N+z k.j.1@1@R {@a@a@j.b@c@C.`.d@e@4@f@g@,+h@<@:@-@i@9@0@8.q.p.E.5 4 @+} 1 * % @ + + ",
". + @ $ * 1 } @+4 5 E.s+j@M+k@#@8@!.l@m@n@#@o@L+k@a@j.A A A P #@f@f@p@p@p@p@p@q@r@s@t@D.u@v@-@8@9@_@8.q.p.E.5 4 @+} 1 * % @ + + ",
". + @ $ * 1 } @+4 5 E.P w@+@B.x@y@S+z@A@B@#@M++@+@k@j.C@C@C@C@,+D@D@D@E@E@D.C.j.j.F@G@!.H@I@S+y@x@J@*@q.p.E.5 4 @+} 1 * % @ + + ",
". + @ $ * 1 } @+4 5 Q.n.K@>.L@x@M@` N@O@P@P w@+@,.{@Q@Q@R@S@S@T@D.T@U@U@U@j.3.3.4.R V@P@O@N@` M@x@W@r.*.p.Q.5 4 @+} 1 * % @ + + ",
". + @ $ * 1 } @+4 5 Q.C.B.N+X@Y@Z@`@ #*..#C.)@,.,.+#@#@#@#@#+#).`.+#+#+#O 2.L+N+##$#%#&#*# #`@Z@Y@X@y+R p.Q.5 4 @+} 1 * % @ + + ",
". + @ $ * 1 } @+4 5 #+p.4.O G.=#`@-#;#*.>#R ,#{@B.B.j.'#'#D.).j.P )#'#).#@'.K@N+!#~#*.>#{#]#-#`@=#G.`.`.p.#+5 4 @+} 1 * % @ + + ",
". + @ $ * 1 } @+4 5 #+^#C.C.S./#u.(#_#:#<#*.[#[#3.+@k@P R }#).j.P )#).}#}#j.N+N+n.[#R |#!._#(#u./#S.O 4.^##+5 4 @+} 1 * % @ + + ",
". + @ $ * 1 } @+4 5 #+^#R $+1#2#u.f+3#4#5#6#7#7#2.8#k@P 9#9#9#C.s+7#7#7#7#7#7#j@>.B.`.5#!.3#f+u.2#1#2.3.-.#+5 4 @+} 1 * % @ + + ",
". + @ $ * 1 } @+4 5 #+^#0#$+%+a#u.b#c#d#e#f#=.j.2.a@l.g#g#g#h#,+i#i#i#i#j#j#P j@k#K@O e#d#c#*+u.a#j.L+L+j.#+5 4 @+} 1 * % @ + + ",
". + @ $ * 1 } @+4 5 #+^#R.$+%+l#5 :+=+-+!.m#n#-.j.j.o#p#p#p#p#q#-.r#s#s#t#Q >.+@+@8#P u#-+=+:+5 v#m.w@'.)##+5 4 @+} 1 * % @ + + ",
". + @ $ * 1 } @+4 5 #+^#R.$+%+_+5 w#x#y#e+z#A#z#@#@#@#B#B#B#B#@#4.4.A#C#C#j.L+a@a@>.P D#y#x#e+5 4.j@a@k.,+#+5 4 @+} 1 * % @ + + ",
". + @ $ * 1 } @+4 5 #+^#R.F.d+E#F#G#H#I#J#,+K#L#M#N#O#C.C.P#Q#Q L+j@k.=.8@R#j.4.S#N+)#T#U#V#).2.a@j@N+C.^##+5 4 @+} 1 * % @ + + ",
". + @ $ * 1 } @+4 5 #+p.R.F.W#X#Y#!.S+Z#A+Q m.O `#` )#3.3.O  $m.+@8#k@j.-@Z#Z#Z#2.n.Z#Z#.$A+1.4.a@N+F.!.p.#+5 4 @+} 1 * % @ + + ",
". + @ $ * 1 } @+4 5 #+p.q.y+Z.*.+$,+@$#$#$j.>.a@4.$$P )@K@]@]@N+l.m.j@P %$&$&$O '.P *$=$=$-$A++$3.4.y+q.p.#+5 4 @+} 1 * % @ + + ",
". + @ $ * 1 } @+4 5 E.p.q.U+&@*.V+o#o#;$>$,$4.L+a@2.'$'.w@,.m.O )$!$4.j.~$}@`.l.'.j.<@{$n@]$-@V+n.n.U+q.p.Q.5 4 @+} 1 * % @ + + ",
". + @ $ * 1 } @+4 5 E.p.q.*.J@x@^$c ,+/$($_$:$Q 4.n.k.B.3@o@k.<$[$}$=.|$|$|$j.{@n.[@,@m@m@1$-@^$Q Q U+*.p.E.5 4 @+} 1 * % @ + + ",
". + @ $ * 1 } @+4 5 E.p.q.*@D.x@M@c 2$D.3$4$5$6$6$6$`.j.n.j.).D.*.7$8$s@|$D.R ).9$h@,@m@0$a$-@b$,+`.*@q.p.E.5 4 @+} 1 * % @ + + ",
". + @ $ * 1 } @+4 5 E.p.q.*@&@!.c$` d$e$*.f$g$h$i$i$j$j$k$k$l$m$n$o$p$*.!.q$q$r$G@G@s$!.t$u$S+^$D.&@*.q.p.E.5 4 @+} 1 * % @ + + ",
". + @ $ * 1 } ~.4 5 E.p.q.y+v$w$x$y$z$A$B$C$D$E$4 F$G$H$I$J$!.!.K$L$M$N$O$P$O$Q$R$S$D.T$U$V$` x$x@W@y+q.p.E.5 4 @+} 1 * % @ + + ",
". + @ $ * 1 } ~.4 5 E.p.q.y+X@Y@Z@5 W$X$Y$Z$Z$U#`$`$`$`$I#I#U#%# %$#########.%.%D.D. %+%X$W$`@Z@Y@X@y+q.p.E.5 4 @+} 1 * % @ + + ",
". + @ $ * 1 } ~.4 5 E.p.q.F.@%=#`@-##%$%%%&%*%=%-%-%R D.-%-%!#;%;%;%;%;%,#,#*.D.D.>%,%>#'%]#-#`@)%@%F.q.p.E.5 4 ~.} 1 * % @ + + ",
". + @ $ * 1 } ~.4 5 E.p.q.F.G.H.u.(#_#:#|#!%~%{%{%n.4.{%{%{%{%{%{%[#[#[#[#[#[#[#[#]%^%|#:#/%(#u.H.G.F.q.p.E.5 4 ~.} 1 * % @ + + ",
". + @ $ ; 1 } ~.4 5 o.p.q.y+G.H.u.f+(%4#R O {@{@l.>.L+4.7#7#7#7#7#7#_%_%_%_%_%*.*._%6#*.4#(%f+u.H.G.y+q.p.o.5 4 ~.} 1 * % @ + + ",
". + @ $ ; g S ~.4 5 :%6.<%*@s.[%5 }%=+|%1%{@{@{@4.m.a@L+k.`.i#2%2%2%2%i#i#i#i#i#i#i#!.1%|%=+}%5 [%s.*@<%6.:%5 4 ~.S 1 * $ @ + + ",
". + @ $ ; g S ~.4 5 3%4%5%6%9.7%5 8%9%0%D.a%b%c%c%c%j@,.B.4.P P Q c%c%c%c%c%c%c%c%*.d%e%0%9%8%5 7%9.6%5%4%3%5 4 ~.S g ; $ @ + + ",
". + @ $ ; g S M 4 5 f%g%h%i%j%k%v+5 l%m%n%o%*.p%p%e+j.N+N+{@;.;.Q ,+*.p%p%p%p%p%p%p%o%n%m%l%5 v+k%j%i%h%g%f%5 4 M S g ; $ @ + + ",
". + @ $ ; C | B 4 5 q%r%s%t%u%v%w+w%x%y%z%A%B%B%C%C%C%).`.).,+C%C%C%C%C%C%C%C%C%B%B%A%z%y%x%w%w+v%u%t%s%r%q%5 4 B | C ; $ @ + . ",
"  + @ $ 3 - f [ 4 5 D%E%F%G%H%I%J%y$ $.$Z#Z#Z#Z#Z#Z#Z#Z#Z#Z#Z#Z#Z#Z#Z#Z#Z#Z#Z#Z#Z#Z#Z#Z#.$ $y$J%I%H%G%F%E%D%5 4 [ f - ; $ @ + . ",
"  . + @ % * { h 4 5 i K%L%M%N%O%o A+P%Q%R%S%T%U%V%V%V%V%V%V%V%V%V%V%V%V%V%V%V%V%U%T%S%R%Q%P%A+o O%N%M%L%K%i 5 4 h { * % @ @ + . ",
"  . + @ $ ; - ~ 4 5 W%X%Y%Z%`% &o -@.&[ +&+&@&@&@&@&@&@&@&@&@&@&@&@&@&@&@&@&@&@&@&@&+&+&[ .&-@o  &`%Z%Y%X%W%5 4 ~ - ; $ @ + . . ",
"    + + @ % * ^ ~ / ( #&: $&%&&&M M 1@*&q q =&=&S S S -&-&-&-&-&-&-&-&-&-&S S S =&=&q q *&1@M M &&%&$&: #&( / ~ ^ * % @ @ + .   ",
"    . + @ $ % * - > , ' ) ) / / ! -&f f e 1 g g g g g g g g g g g g g g g g g g g g 1 e f f -&! / / ) ) ' , > - * % $ @ + .     ",
"      . + @ # % & * ;&;&= ^ ^ ^ ^ - 2 >&>&>&,&,&,&,&,&,&,&,&,&,&,&,&,&,&,&,&,&,&,&,&>&>&>&2 - ^ ^ ^ ^ = ;&;&* & % # @ + .       ",
"        . + @ @ $ % % & & & & ; ; ; 3 % % $ $ $ $ $ $ $ $ $ $ $ $ $ $ $ $ $ $ $ $ $ $ % % 3 ; ; ; & & & & % % $ @ @ + .         ",
"          . + @ @ @ # # # # $ $ $ $ $ '&@ @ @ @ @ @ @ @ @ @ @ @ @ @ @ @ @ @ @ @ @ @ @ @ '&$ $ $ $ $ # # # # @ @ @ + .           ",
"            . . + + @ @ @ @ @ @ @ @ @ + + + + + + + + + + + + + + + + + + + + + + + + + + @ @ @ @ @ @ @ @ @ + + . .             ",
"              . . . . . + + + + + + + + + + . . . . . . . . . . . . . . . . . . . . + + + + + + + + + + . . . . .               ",
"                . . . . . . . . . . . . . .                                         . . . . . . . . . . . . . .                 "};
