/* XPM */
static char * wall2_xpm[] = {
"64 64 476 2",
"  	c #9CDB43",
". 	c #664731",
"+ 	c #674731",
"@ 	c #664631",
"# 	c #654630",
"$ 	c #654530",
"% 	c #644530",
"& 	c #64452F",
"* 	c #64442F",
"= 	c #61402A",
"- 	c #7F7B70",
"; 	c #807C71",
"> 	c #827E73",
", 	c #848074",
"' 	c #838074",
") 	c #848075",
"! 	c #838175",
"~ 	c #828074",
"{ 	c #603F28",
"] 	c #7C766A",
"^ 	c #827E72",
"/ 	c #837F74",
"( 	c #838075",
"_ 	c #603F27",
": 	c #6B533F",
"< 	c #6F5945",
"[ 	c #6F5A47",
"} 	c #6D5745",
"| 	c #8E8B7D",
"1 	c #8D8B7D",
"2 	c #8E8B7E",
"3 	c #8D8B7E",
"4 	c #8E8C7F",
"5 	c #8D8B7F",
"6 	c #7C7769",
"7 	c #7C7869",
"8 	c #7C786A",
"9 	c #5C3821",
"0 	c #5E5143",
"a 	c #696256",
"b 	c #696257",
"c 	c #6B6358",
"d 	c #6B6459",
"e 	c #6C6459",
"f 	c #6C665A",
"g 	c #5D3B24",
"h 	c #7D786A",
"i 	c #7D796B",
"j 	c #59341D",
"k 	c #5D5143",
"l 	c #696156",
"m 	c #6A6358",
"n 	c #6C655A",
"o 	c #5A3720",
"p 	c #7D7A6B",
"q 	c #7E796C",
"r 	c #7C796B",
"s 	c #58331C",
"t 	c #5D5142",
"u 	c #676055",
"v 	c #552E15",
"w 	c #7E7A6D",
"x 	c #7E7B6D",
"y 	c #7E7A6C",
"z 	c #58321B",
"A 	c #5D5243",
"B 	c #665E53",
"C 	c #686256",
"D 	c #542E15",
"E 	c #65452F",
"F 	c #63442F",
"G 	c #7F7A6D",
"H 	c #7F7B6D",
"I 	c #56321A",
"J 	c #5C5041",
"K 	c #5C5042",
"L 	c #665F53",
"M 	c #686155",
"N 	c #686156",
"O 	c #6B6559",
"P 	c #542D15",
"Q 	c #7D796E",
"R 	c #7D7A6E",
"S 	c #7D7A6F",
"T 	c #63432E",
"U 	c #7D7A6C",
"V 	c #55301A",
"W 	c #5B4E40",
"X 	c #655D52",
"Y 	c #676054",
"Z 	c #532C15",
"` 	c #7C796E",
" .	c #62432E",
"..	c #7D7A6D",
"+.	c #7D796D",
"@.	c #502913",
"#.	c #512A13",
"$.	c #512B13",
"%.	c #522B14",
"&.	c #532C14",
"*.	c #8B887A",
"=.	c #8B887B",
"-.	c #8C8A7C",
";.	c #8C897C",
">.	c #5C3A25",
",.	c #8C897D",
"'.	c #8B887D",
").	c #8A887C",
"!.	c #8A877A",
"~.	c #584C3D",
"{.	c #594D3E",
"].	c #5F554A",
"^.	c #61564A",
"/.	c #62574C",
"(.	c #63594D",
"_.	c #675F54",
":.	c #686055",
"<.	c #6A6156",
"[.	c #6A6357",
"}.	c #7B766C",
"|.	c #716C61",
"1.	c #716B61",
"2.	c #6C675C",
"3.	c #4F2913",
"4.	c #584B3D",
"5.	c #594C3E",
"6.	c #5F5449",
"7.	c #5F564A",
"8.	c #62574A",
"9.	c #62594D",
"0.	c #675E54",
"a.	c #6A6256",
"b.	c #6A6258",
"c.	c #5A3824",
"d.	c #7A776C",
"e.	c #716D61",
"f.	c #6B675C",
"g.	c #58493B",
"h.	c #584A3B",
"i.	c #58493A",
"j.	c #605549",
"k.	c #60564A",
"l.	c #62584C",
"m.	c #675E53",
"n.	c #696055",
"o.	c #696255",
"p.	c #522C14",
"q.	c #543019",
"r.	c #79766A",
"s.	c #6E685E",
"t.	c #584939",
"u.	c #574839",
"v.	c #635A4E",
"w.	c #62594C",
"x.	c #675F55",
"y.	c #686157",
"z.	c #502A13",
"A.	c #787468",
"B.	c #6E695E",
"C.	c #6D685E",
"D.	c #6B675D",
"E.	c #574837",
"F.	c #574737",
"G.	c #63594E",
"H.	c #635B4F",
"I.	c #512B14",
"J.	c #757066",
"K.	c #554534",
"L.	c #564534",
"M.	c #61584C",
"N.	c #625A4D",
"O.	c #655E53",
"P.	c #665F54",
"Q.	c #665F55",
"R.	c #512A14",
"S.	c #777267",
"T.	c #61584D",
"U.	c #665E52",
"V.	c #655E52",
"W.	c #655E54",
"X.	c #757167",
"Y.	c #584132",
"Z.	c #655847",
"`.	c #757164",
" +	c #635C51",
".+	c #645D52",
"++	c #726E64",
"@+	c #594132",
"#+	c #C0F675",
"$+	c #53331F",
"%+	c #817E73",
"&+	c #858275",
"*+	c #5F574B",
"=+	c #736F63",
"-+	c #736D62",
";+	c #757065",
">+	c #615A50",
",+	c #716B60",
"'+	c #39973A",
")+	c #706B60",
"!+	c #6F695E",
"~+	c #6F6A5E",
"{+	c #625A50",
"]+	c #665C4E",
"^+	c #78756A",
"/+	c #78756B",
"(+	c #625B50",
"_+	c #5F5145",
":+	c #6F6A5F",
"<+	c #665C4D",
"[+	c #60554A",
"}+	c #6C655B",
"|+	c #675C4E",
"1+	c #54341F",
"2+	c #563B2A",
"3+	c #594232",
"4+	c #543421",
"5+	c #7D7867",
"6+	c #7F7B6A",
"7+	c #7E7B6A",
"8+	c #7F7C6B",
"9+	c #61432E",
"0+	c #61432D",
"a+	c #553826",
"b+	c #5A4130",
"c+	c #78766C",
"d+	c #78766B",
"e+	c #79766B",
"f+	c #78746A",
"g+	c #686159",
"h+	c #686158",
"i+	c #676158",
"j+	c #676159",
"k+	c #62442E",
"l+	c #696259",
"m+	c #563826",
"n+	c #767369",
"o+	c #686259",
"p+	c #686258",
"q+	c #89877C",
"r+	c #79776B",
"s+	c #5A4232",
"t+	c #63452F",
"u+	c #8A887D",
"v+	c #69635A",
"w+	c #696359",
"x+	c #655848",
"y+	c #665948",
"z+	c #8B887E",
"A+	c #7A786C",
"B+	c #7A776B",
"C+	c #6A635A",
"D+	c #6A6359",
"E+	c #5A4332",
"F+	c #665949",
"G+	c #8B897E",
"H+	c #7B796C",
"I+	c #5B4332",
"J+	c #696258",
"K+	c #665A4A",
"L+	c #644630",
"M+	c #8C897E",
"N+	c #7C796D",
"O+	c #6A6259",
"P+	c #675B4B",
"Q+	c #654730",
"R+	c #8C897F",
"S+	c #7D7B6F",
"T+	c #6A645A",
"U+	c #6B635A",
"V+	c #685D4C",
"W+	c #675D4D",
"X+	c #685D4D",
"Y+	c #695D4E",
"Z+	c #654731",
"`+	c #8C8A80",
" @	c #7E7B6F",
".@	c #56341E",
"+@	c #573623",
"@@	c #5B4333",
"#@	c #5C4535",
"$@	c #5E4939",
"%@	c #5F4A3C",
"&@	c #5E4A3C",
"*@	c #573B29",
"=@	c #553622",
"-@	c #53321E",
";@	c #53311E",
">@	c #53321F",
",@	c #695E4F",
"'@	c #685E4F",
")@	c #695F4F",
"!@	c #695F50",
"~@	c #848279",
"{@	c #65462F",
"]@	c #8D8A80",
"^@	c #7F7C70",
"/@	c #7E7B6E",
"(@	c #542D14",
"_@	c #77726B",
":@	c #77716A",
"<@	c #76716A",
"[@	c #767169",
"}@	c #767069",
"|@	c #757169",
"1@	c #757069",
"2@	c #757068",
"3@	c #593D2C",
"4@	c #6B645A",
"5@	c #6B665C",
"6@	c #6C655E",
"7@	c #685F50",
"8@	c #695F51",
"9@	c #63422B",
"0@	c #8E8C80",
"a@	c #817E71",
"b@	c #807E71",
"c@	c #807D71",
"d@	c #807D70",
"e@	c #726D66",
"f@	c #736E67",
"g@	c #736E66",
"h@	c #6D6760",
"i@	c #6C6760",
"j@	c #6C675F",
"k@	c #6B665F",
"l@	c #635B51",
"m@	c #645C53",
"n@	c #6A6051",
"o@	c #696051",
"p@	c #777569",
"q@	c #858379",
"r@	c #624129",
"s@	c #8E8C81",
"t@	c #817E72",
"u@	c #6D6861",
"v@	c #6D6860",
"w@	c #5B4536",
"x@	c #6A6052",
"y@	c #78766A",
"z@	c #86847A",
"A@	c #624029",
"B@	c #8F8C82",
"C@	c #746F67",
"D@	c #6E6961",
"E@	c #5C4637",
"F@	c #79776C",
"G@	c #614028",
"H@	c #908D82",
"I@	c #827F72",
"J@	c #827F71",
"K@	c #817F71",
"L@	c #5B4637",
"M@	c #6A6152",
"N@	c #7A786D",
"O@	c #86847B",
"P@	c #614128",
"Q@	c #827F73",
"R@	c #6E6962",
"S@	c #6D6961",
"T@	c #6C6860",
"U@	c #676057",
"V@	c #676056",
"W@	c #5B4435",
"X@	c #645D53",
"Y@	c #6B6152",
"Z@	c #7B796D",
"`@	c #87857B",
" #	c #624128",
".#	c #6E6861",
"+#	c #676157",
"@#	c #6B675F",
"##	c #543521",
"$#	c #7B796E",
"%#	c #88867C",
"&#	c #5F3D25",
"*#	c #666056",
"=#	c #69645D",
"-#	c #553521",
";#	c #605447",
">#	c #7C7A6E",
",#	c #89877D",
"'#	c #5E3C23",
")#	c #838173",
"!#	c #838073",
"~#	c #838072",
"{#	c #828072",
"]#	c #6C6153",
"^#	c #7E7C70",
"/#	c #89877E",
"(#	c #848174",
"_#	c #80755F",
":#	c #7F755F",
"<#	c #7F745E",
"[#	c #7E745E",
"}#	c #7E735D",
"|#	c #7D735D",
"1#	c #7D725D",
"2#	c #7D725C",
"3#	c #7C725C",
"4#	c #7C715C",
"5#	c #5E3B23",
"6#	c #838174",
"7#	c #828073",
"8#	c #7F7D71",
"9#	c #7F7D70",
"0#	c #7D7B70",
"a#	c #88867D",
"b#	c #5A341D",
"c#	c #848274",
"d#	c #5A341B",
"e#	c #8F8D82",
"f#	c #848275",
"g#	c #5A351C",
"h#	c #99968C",
"i#	c #99958C",
"j#	c #9A968D",
"k#	c #9A978E",
"l#	c #96938A",
"m#	c #96948B",
"n#	c #96938B",
"o#	c #95938A",
"p#	c #95928A",
"q#	c #949289",
"r#	c #949188",
"s#	c #939088",
"t#	c #929088",
"u#	c #928F86",
"v#	c #918E86",
"w#	c #908E86",
"x#	c #908E85",
"y#	c #918F86",
"z#	c #928F87",
"A#	c #929087",
"B#	c #562E16",
"C#	c #89867D",
"D#	c #6F675D",
"E#	c #6E675D",
"F#	c #6D675C",
"G#	c #6D665C",
"H#	c #6E665D",
"I#	c #6C665D",
"J#	c #6D675E",
"K#	c #6E675E",
"L#	c #6F6960",
"M#	c #726E63",
"N#	c #736E64",
"O#	c #6E685F",
"P#	c #6D685F",
"Q#	c #6C675D",
"R#	c #6B655C",
"S#	c #6A645C",
"T#	c #69635B",
"U#	c #69625A",
"V#	c #696159",
"W#	c #7D7970",
"X#	c #552E16",
"Y#	c #8B867C",
"Z#	c #6D665D",
"`#	c #6C665C",
" $	c #6F6860",
".$	c #726D63",
"+$	c #6A655C",
"@$	c #69645B",
"#$	c #68635A",
"$$	c #6E6960",
"%$	c #807D75",
"&$	c #878279",
"*$	c #6E665C",
"=$	c #6C655C",
"-$	c #6B655D",
";$	c #68625A",
">$	c #6C665B",
",$	c #6E6A60",
"'$	c #817D75",
")$	c #532D15",
"                                                                                                                                ",
"                                                                                                                                ",
"                                                                                                                                ",
"                                              . + + + . @ # $ % & *                                                             ",
"                                            = - - ; > , ' ) ! ) ) ~ *                                                           ",
"                                            { ] - ; ^ / ' ) ' ) ) ( ~ &                                                         ",
"                                            _ : < [ } | 1 | 2 3 4 5 3 &                                                         ",
"                                          # 6 7 8 6 6 9 0 a b c d e f g                                                         ",
"                                          # h i i i 8 j k l m d d n n o                                                         ",
"                                          % p q q q r s t u b m c n n v                                                         ",
"                                          & w x y y q z A B u C m d n D E $ # #                                                 ",
"                                          F G H x w q I J K L M N m O P Q R S S $                                               ",
"                                          T x x y U i V W J X B Y N m Z ` Q S S $                                               ",
"                                           .w ..+.i i V @.@.@.@.#.$.%.&.*.=.-.;.&                                               ",
"                                          >.,.'.).).!.@.~.{.].^./.(._.:.<.[.b m P                                               ",
"                                          >.}.|.|.1.2.3.4.5.6.7.8.9.0._.l a.b.b.Z                                               ",
"                                          c.d.e.|.2.f.3.g.h.i.j.k.l.m.Y n.a o.b p.                                              ",
"                                          q.r.e.s.f.f.3.i.t.u.9.9.v.w.x.u N u y.%.                                              ",
"                                          z.A.B.C.D.f.3.E.t.F.9.9.G.w.H._.u M N I.                                              ",
"                                          @.J.C.D.D.f.3.K.L.L.9.9.M.w.N.O.P.P.Q.R.                                              ",
"                                          3.S.D.D.D.D.3.3.3.3.3.3.T.U.U.V.O.O.W.z.                                              ",
"                                          3.X.D.D.D.D.Y.Z.Z.`.`.`.3.O.B O.V. +.+z.                                              ",
"                                          3.++D.D.D.D.Y.Z.`.`.`.`.3.Y.Y.@+@+Y.@+#+                                              ",
"                                            $+$+$+$+$+%+&+&+&+&+&+3.*+*+*+*+3.#+                                                ",
"                                          3.=+-+-+-+;+>+>+>+>+>+,+3.*+*+*+*+*+3.'+                                              ",
"                                          3.>+>+>+>+>+>+>+>+>+>+)+3.*+*+*+*+*+*+3.                                              ",
"                                          3.>+>+>+>+>+>+>+>+>+>+!+3.*+*+*+*+*+*+3.                                              ",
"                                          3.>+>+>+>+>+>+>+>+>+>+~+3.*+*+*+*+*+*+3.                                              ",
"                                          3.>+>+>+>+>+>+>+>+>+>+!+3.Y.Y.Y.Y.Y.Y.                                                ",
"                                          @.{+{+{+>+>+>+{+{+>+>+!+3.]+]+^+/+/+/+3.                                              ",
"                                          @.{+(+{+{+{+{+{+_+_+_+:+3.]+<+^+/+^+/+3.                                              ",
"                                          z.(+(+{+{+[+_+_+_+_+_+}+@.|+^+^+^+/+^+3.                                              ",
"                                            1+$+$+2+2+2+2+3+4+4+4+5+6+7+8+8+8+7+3.                                              ",
"                                  9+9+9+0+z.^+^+^+^+a+b+c+d+e+/+f+g+g+h+h+i+j+i+3.3.3.3.3.3.                                    ",
"                                k+e+e+e+e+#.l+l+l+l+m+n+o+o+p+h+h+h+h+h+h+g+i+i+3.Z.Z.Z.Z.Z.3.                                  ",
"                              k+q+r+e+r+e+#.l+l+l+l+s+l+l+l+l+p+p+h+h+h+h+h+j+j+3.Z.Z.Z.Z.Z.3.                                  ",
"                              t+u+r+r+r+r+I.v+w+l+l+s+l+l+l+l+l+o+p+p+h+g+h+h+g+3.x+Z.Z.Z.y+3.                                  ",
"                              t+z+A+B+B+B+%.C+C+D+w+E+l+l+l+l+l+l+p+p+h+h+g+h+g+3.y+y+F+y+y+3.                                  ",
"                              & G+A+A+H+B+%.C+C+C+D+I+D+l+l+l+J+J+p+p+p+h+h+g+g+@.K+K+K+K+K+3.                                  ",
"                              L+M+N+N+N+H+&.C+C+C+C+I+D+O+l+l+J+J+J+l+p+p+h+g+g+@.P+P+P+P+P+3.                                  ",
"                              Q+R+S+N+R N+&.T+U+C+C+I+D+D+l+l+l+J+J+p+p+p+h+g+g+@.V+W+X+X+Y+3.                                  ",
"                              Z+`+ @ @ @R R .@.@.@+@@@I+I+#@$@%@&@*@*@=@$+-@;@>@,@'@'@)@!@~@3.                                  ",
"                              {@]@ @ @^@/@(@_@_@:@<@<@[@[@}@|@1@1@2@1@3@4@5@6@6@@.!@7@8@8@~@3.                                  ",
"                              9@0@a@b@c@d@P e@f@g@h@h@i@j@j@k@k@k@k@k@@@ + +l@m@@.n@o@o@p@q@3.                                  ",
"                              r@s@t@b@b@d@P f@f@u@v@h@i@j@j@j@k@k@k@k@w@ + +l@m@@.n@o@x@y@z@3.                                  ",
"                              A@B@t@a@a@c@v C@D@u@u@v@i@i@j@j@k@k@k@k@E@ + + +m@@.n@x@F@F@z@3.                                  ",
"                              G@H@I@I@J@K@v 2@D@u@v@v@i@i@i@j@k@k@k@k@L@ +l@l@m@@.n@M@N@A+O@3.                                  ",
"                              P@H@I@Q@J@J@v R@D@S@u@v@T@i@U@V@k@k@k@k@W@X@ +l@m@@.Y@Z@N@N@`@3.                                  ",
"                               #H@Q@Q@Q@I@v R@R@.#u@u@+#U@U@V@@#k@k@k@##j. +m@m@@.M@$#$#Z@%#3.                                  ",
"                              &#H@Q@Q@Q@I@v R@R@S@p+h++#U@U@U@*#k@k@=#-#;#^.X@m@@.M@S+S+>#,#3.                                  ",
"                              '#H@)#!#!#~#{#v P P &.&.&.p.%.%.$.#.#.#.z.z.z.@.@.]#^#S+S+S+/#3.                                  ",
"                              '#H@(#(#(#(#!#_#_#:#<#[#[#}#}#|#1#2#3#3#3#3#3#4#4#^#^#S+S+S+/#3.                                  ",
"                              5#H@(#(#(#)#6#' ~ Q@Q@7#I@a@b@b@c@c@8#9#9#9#9#^#^#^#^#^#0#S+a#3.                                  ",
"                              b#H@&+&+&+c#(#(#6#!#!#7#Q@a@b@b@b@8#8#9#9#9#^@^@^#^#^#^#^#0#%#3.                                  ",
"                              d#e#&+&+f#f#(#6#6#!#7#7#t@b@b@b@c@c@8#9#9#9#^@^#^#^#^#^#^#^#%#3.                                  ",
"                              g#h#i#j#k#l#m#n#l#o#o#p#q#q#r#r#s#t#t#u#u#v#w#x#x#x#x#y#z#A#A#3.                                  ",
"                              B#C#D#E#F#G#H#I#J#K#L#M#N#++M#M#O#O#P#P#J#Q#R#S#T#U#g+V#O+O+W#3.                                  ",
"                              X#Y#D#E#G#G#Z#`#Z#J#O#O# $M#M#.$O#P#P#P#J#I#+$@$#$U#g+l+$$$$%$3.                                  ",
"                              v &$*$*$G#`#Z#=$Z#J#O#O#O#O#O#O#P#P#P#J#I#-$S#T#;$U#g+>$$$,$'$3.                                  ",
"                              P P P )$)$)$Z Z p.p.%.%.I.I.I.R.R.z.z.z.z.3.3.3.3.3.3.3.3.3.3.3.                                  ",
"                                                                                                                                ",
"                                                                                                                                ",
"                                                                                                                                ",
"                                                                                                                                "};
