/* XPM */
static char * wall1_xpm[] = {
"64 64 832 2",
"  	c #9CDB43",
". 	c #61422C",
"+ 	c #7C7066",
"@ 	c #7E746A",
"# 	c #7D746A",
"$ 	c #7A7065",
"% 	c #796E63",
"& 	c #766A5F",
"* 	c #72665A",
"= 	c #5D402C",
"- 	c #705C4F",
"; 	c #8E8980",
"> 	c #959189",
", 	c #95938B",
"' 	c #908E85",
") 	c #8E8C83",
"! 	c #8A877E",
"~ 	c #858278",
"{ 	c #7B7569",
"] 	c #6E6154",
"^ 	c #6E5B4D",
"/ 	c #8F8D83",
"( 	c #96948B",
"_ 	c #96938B",
": 	c #8F8D85",
"< 	c #807D72",
"[ 	c #675749",
"} 	c #5F3C25",
"| 	c #888379",
"1 	c #908E84",
"2 	c #949289",
"3 	c #949189",
"4 	c #8F8D84",
"5 	c #8D8B82",
"6 	c #87857B",
"7 	c #838076",
"8 	c #7D7A6F",
"9 	c #757165",
"0 	c #593926",
"a 	c #716455",
"b 	c #8C8A7F",
"c 	c #918E85",
"d 	c #8F8C83",
"e 	c #88847A",
"f 	c #7E7B70",
"g 	c #757166",
"h 	c #747064",
"i 	c #675D50",
"j 	c #746859",
"k 	c #868576",
"l 	c #8D8B80",
"m 	c #918F85",
"n 	c #8F8980",
"o 	c #8E887F",
"p 	c #8C867D",
"q 	c #8A847A",
"r 	c #817F73",
"s 	c #78756A",
"t 	c #736F63",
"u 	c #6E6A5E",
"v 	c #696255",
"w 	c #55321B",
"x 	c #664F3F",
"y 	c #7E7769",
"z 	c #868475",
"A 	c #878476",
"B 	c #867F74",
"C 	c #7E7167",
"D 	c #685443",
"E 	c #685344",
"F 	c #675343",
"G 	c #675142",
"H 	c #654E3F",
"I 	c #6F6255",
"J 	c #746B5F",
"K 	c #726F63",
"L 	c #6D695D",
"M 	c #695F51",
"N 	c #5D4533",
"O 	c #665241",
"P 	c #878576",
"Q 	c #868476",
"R 	c #898379",
"S 	c #695649",
"T 	c #6A5B4F",
"U 	c #6C6155",
"V 	c #6B6155",
"W 	c #6A6054",
"X 	c #67594E",
"Y 	c #645449",
"Z 	c #6D6256",
"` 	c #6C6355",
" .	c #695D4C",
"..	c #604C3B",
"+.	c #634C3D",
"@.	c #828073",
"#.	c #878378",
"$.	c #614C3E",
"%.	c #6D6257",
"&.	c #70675C",
"*.	c #7C796F",
"=.	c #79756B",
"-.	c #665344",
";.	c #767166",
">.	c #7C7970",
",.	c #79756C",
"'.	c #6A6157",
").	c #5F4D41",
"!.	c #695E50",
"~.	c #6B6050",
"{.	c #614C3B",
"].	c #654F40",
"^.	c #7F786D",
"/.	c #675447",
"(.	c #6F655A",
"_.	c #756F65",
":.	c #7B796E",
"<.	c #6F6154",
"[.	c #69574A",
"}.	c #675E51",
"|.	c #635243",
"1.	c #6E6054",
"2.	c #79776D",
"3.	c #6A6258",
"4.	c #5F4D40",
"5.	c #655749",
"6.	c #604B3A",
"7.	c #664F41",
"8.	c #76695C",
"9.	c #6A5C4F",
"0.	c #747066",
"a.	c #706357",
"b.	c #694F3E",
"c.	c #675B4D",
"d.	c #686052",
"e.	c #726E62",
"f.	c #706C60",
"g.	c #65584B",
"h.	c #5E4B3E",
"i.	c #5C483A",
"j.	c #655A4E",
"k.	c #655B50",
"l.	c #583C2B",
"m.	c #5F4B3B",
"n.	c #75685B",
"o.	c #6A5C50",
"p.	c #716A5F",
"q.	c #645141",
"r.	c #6B6559",
"s.	c #6E695D",
"t.	c #777468",
"u.	c #7D7A70",
"v.	c #767468",
"w.	c #6C665A",
"x.	c #665A4E",
"y.	c #64584C",
"z.	c #665C52",
"A.	c #563A2A",
"B.	c #5F4B3A",
"C.	c #736559",
"D.	c #685A4E",
"E.	c #635040",
"F.	c #757266",
"G.	c #77766A",
"H.	c #7D7B70",
"I.	c #7F7C72",
"J.	c #7E7C72",
"K.	c #7D7B71",
"L.	c #70685E",
"M.	c #66594D",
"N.	c #655C52",
"O.	c #5D4839",
"P.	c #654D3D",
"Q.	c #726356",
"R.	c #66584C",
"S.	c #6B6358",
"T.	c #635142",
"U.	c #675344",
"V.	c #675040",
"W.	c #746A5E",
"X.	c #7A766B",
"Y.	c #685242",
"Z.	c #6F675D",
"`.	c #635447",
" +	c #62594F",
".+	c #573B2B",
"++	c #5B4738",
"@+	c #664E3E",
"#+	c #726357",
"$+	c #65564A",
"%+	c #696156",
"&+	c #624F40",
"*+	c #746F65",
"=+	c #7E7B71",
"-+	c #767267",
";+	c #6F685D",
">+	c #625345",
",+	c #625448",
"'+	c #593D2C",
")+	c #5A4637",
"!+	c #684F3E",
"~+	c #726456",
"{+	c #635549",
"]+	c #6A655A",
"^+	c #615041",
"/+	c #6E675B",
"(+	c #7B796F",
"_+	c #807E73",
":+	c #807D73",
"<+	c #7F7D73",
"[+	c #767369",
"}+	c #65574B",
"|+	c #655D52",
"1+	c #5A3E2C",
"2+	c #5B3922",
"3+	c #766D5F",
"4+	c #716255",
"5+	c #625548",
"6+	c #6C695E",
"7+	c #614A3B",
"8+	c #62493A",
"9+	c #654F3F",
"0+	c #665F54",
"a+	c #69665D",
"b+	c #625347",
"c+	c #593C2B",
"d+	c #5F5345",
"e+	c #513423",
"f+	c #5B3822",
"g+	c #797264",
"h+	c #615346",
"i+	c #645A4F",
"j+	c #625245",
"k+	c #67594C",
"l+	c #6A5D4E",
"m+	c #6A5E4F",
"n+	c #6A5D4F",
"o+	c #685A4C",
"p+	c #695C4F",
"q+	c #736C62",
"r+	c #594539",
"s+	c #63584C",
"t+	c #604E42",
"u+	c #615648",
"v+	c #5B3923",
"w+	c #797265",
"x+	c #5F5044",
"y+	c #5C473A",
"z+	c #695B51",
"A+	c #757066",
"B+	c #70695D",
"C+	c #746F60",
"D+	c #756E61",
"E+	c #736D5F",
"F+	c #787366",
"G+	c #7C796C",
"H+	c #6F6B5F",
"I+	c #594437",
"J+	c #5E4B3F",
"K+	c #583B2A",
"L+	c #615647",
"M+	c #5B3924",
"N+	c #7C786C",
"O+	c #73665A",
"P+	c #573926",
"Q+	c #695C52",
"R+	c #767167",
"S+	c #7C796D",
"T+	c #72695A",
"U+	c #675241",
"V+	c #6C5C4D",
"W+	c #7C7A6D",
"X+	c #7B796C",
"Y+	c #573E30",
"Z+	c #573A29",
"`+	c #5F3E29",
" @	c #7D796E",
".@	c #72655A",
"+@	c #655548",
"@@	c #6B6054",
"#@	c #787265",
"$@	c #776B5F",
"%@	c #8B887D",
"&@	c #837D72",
"*@	c #6C6052",
"=@	c #727064",
"-@	c #686358",
";@	c #5A4131",
">@	c #675F51",
",@	c #6D5C4E",
"'@	c #7C786D",
")@	c #71655A",
"!@	c #645447",
"~@	c #68594C",
"{@	c #777268",
"]@	c #716A61",
"^@	c #6F675A",
"/@	c #716558",
"(@	c #72675B",
"_@	c #7A7366",
":@	c #726D61",
"<@	c #6F695C",
"[@	c #726C61",
"}@	c #6A6456",
"|@	c #605244",
"1@	c #58321A",
"2@	c #776E62",
"3@	c #817B71",
"4@	c #635042",
"5@	c #66594C",
"6@	c #644E3E",
"7@	c #6C635A",
"8@	c #6A5F56",
"9@	c #675A4F",
"0@	c #73685B",
"a@	c #614B3C",
"b@	c #7C756A",
"c@	c #604E40",
"d@	c #665D52",
"e@	c #6A6458",
"f@	c #64584B",
"g@	c #6C6658",
"h@	c #4E2B17",
"i@	c #58331B",
"j@	c #776D62",
"k@	c #847E75",
"l@	c #5F4A3B",
"m@	c #695F53",
"n@	c #7E796D",
"o@	c #6A5547",
"p@	c #685346",
"q@	c #634C3C",
"r@	c #7B776B",
"s@	c #5F4939",
"t@	c #7B746A",
"u@	c #6C6054",
"v@	c #655243",
"w@	c #685749",
"x@	c #787065",
"y@	c #787469",
"z@	c #6D665A",
"A@	c #5E4E40",
"B@	c #62594A",
"C@	c #4E2A16",
"D@	c #59351F",
"E@	c #857E75",
"F@	c #5E4939",
"G@	c #726C60",
"H@	c #858377",
"I@	c #8B897F",
"J@	c #786D60",
"K@	c #655244",
"L@	c #5F4D3C",
"M@	c #73685C",
"N@	c #858176",
"O@	c #88877C",
"P@	c #848277",
"Q@	c #777267",
"R@	c #62584A",
"S@	c #5C3A25",
"T@	c #766D61",
"U@	c #847F74",
"V@	c #5F4B3C",
"W@	c #79756A",
"X@	c #838175",
"Y@	c #5D4331",
"Z@	c #615241",
"`@	c #73675B",
" #	c #838075",
".#	c #747065",
"+#	c #5D4E3F",
"@#	c #6A5B4E",
"##	c #7B756A",
"$#	c #604C3F",
"%#	c #726B61",
"&#	c #746E63",
"*#	c #746F63",
"=#	c #757063",
"-#	c #7F796F",
";#	c #5D4633",
">#	c #625343",
",#	c #645445",
"'#	c #72675A",
")#	c #787468",
"!#	c #746F64",
"~#	c #5D4D3F",
"{#	c #5C4E3F",
"]#	c #6D5E51",
"^#	c #7D786D",
"/#	c #5F4B3E",
"(#	c #716B60",
"_#	c #746E62",
":#	c #7B7468",
"<#	c #614A38",
"[#	c #695F52",
"}#	c #6E665B",
"|#	c #726659",
"1#	c #787368",
"2#	c #736F64",
"3#	c #5D4F3F",
"4#	c #4D250C",
"5#	c #7E7A70",
"6#	c #847E74",
"7#	c #716B5F",
"8#	c #736E62",
"9#	c #736E63",
"0#	c #7A7367",
"a#	c #5E4735",
"b#	c #6E695E",
"c#	c #777367",
"d#	c #62574B",
"e#	c #5D4F40",
"f#	c #4E260F",
"g#	c #7F7B71",
"h#	c #847F75",
"i#	c #5C4636",
"j#	c #655B4F",
"k#	c #706A5E",
"l#	c #787266",
"m#	c #5D4534",
"n#	c #6F695E",
"o#	c #6E655B",
"p#	c #716457",
"q#	c #716C61",
"r#	c #5C4C40",
"s#	c #635A4B",
"t#	c #605546",
"u#	c #574233",
"v#	c #644E40",
"w#	c #858277",
"x#	c #858076",
"y#	c #5A3D29",
"z#	c #5F4C3D",
"A#	c #6B6256",
"B#	c #71695D",
"C#	c #5C4432",
"D#	c #6E685E",
"E#	c #6C645A",
"F#	c #6C5E51",
"G#	c #736C61",
"H#	c #63594E",
"I#	c #5B493D",
"J#	c #523728",
"K#	c #5C4A39",
"L#	c #68604F",
"M#	c #645B4B",
"N#	c #5A4736",
"O#	c #756A5F",
"P#	c #868277",
"Q#	c #837E74",
"R#	c #5B4431",
"S#	c #604E3E",
"T#	c #5E493A",
"U#	c #6D6357",
"V#	c #6C6256",
"W#	c #5D4434",
"X#	c #726D63",
"Y#	c #706960",
"Z#	c #67584B",
"`#	c #6E6459",
" $	c #6A5F54",
".$	c #5C493D",
"+$	c #564134",
"@$	c #574437",
"#$	c #5B4A39",
"$$	c #68604E",
"%$	c #645948",
"&$	c #523421",
"*$	c #583623",
"=$	c #5A3926",
"-$	c #604C3C",
";$	c #625344",
">$	c #604F3F",
",$	c #5C422E",
"'$	c #5D4330",
")$	c #5E4736",
"!$	c #726D64",
"~$	c #736F66",
"{$	c #635548",
"]$	c #5B4232",
"^$	c #583B29",
"/$	c #584233",
"($	c #59493C",
"_$	c #5E5040",
":$	c #4E2712",
"<$	c #4F2A16",
"[$	c #4F2A15",
"}$	c #6C5F52",
"|$	c #675C50",
"1$	c #675D51",
"2$	c #6B6357",
"3$	c #757167",
"4$	c #706C63",
"5$	c #6F6B61",
"6$	c #6B6558",
"7$	c #5A4A3D",
"8$	c #614B3B",
"9$	c #7E796E",
"0$	c #6C655C",
"a$	c #77746A",
"b$	c #747067",
"c$	c #716C63",
"d$	c #5B4B3E",
"e$	c #5D4E40",
"f$	c #605344",
"g$	c #615646",
"h$	c #574131",
"i$	c #695546",
"j$	c #675242",
"k$	c #644E3F",
"l$	c #797469",
"m$	c #6F695F",
"n$	c #7E796F",
"o$	c #736F65",
"p$	c #706C62",
"q$	c #5E5041",
"r$	c #5D4F41",
"s$	c #625747",
"t$	c #594434",
"u$	c #523423",
"v$	c #543626",
"w$	c #543625",
"x$	c #7B7267",
"y$	c #848075",
"z$	c #7F7A6E",
"A$	c #655042",
"B$	c #88857C",
"C$	c #807C72",
"D$	c #7E7A6F",
"E$	c #7B776C",
"F$	c #817C72",
"G$	c #78756B",
"H$	c #767269",
"I$	c #6C6659",
"J$	c #5E5141",
"K$	c #5F5142",
"L$	c #625646",
"M$	c #625848",
"N$	c #584333",
"O$	c #635445",
"P$	c #675C4D",
"Q$	c #6F6457",
"R$	c #61493B",
"S$	c #80796E",
"T$	c #817D72",
"U$	c #7E7A6E",
"V$	c #7F7A6F",
"W$	c #796F64",
"X$	c #878379",
"Y$	c #7D776D",
"Z$	c #827E74",
"`$	c #827D73",
" %	c #79766C",
".%	c #6F6A60",
"+%	c #553B2B",
"@%	c #605343",
"#%	c #533625",
"$%	c #5B4637",
"%%	c #665A4B",
"&%	c #675B4B",
"*%	c #746D60",
"=%	c #827E73",
"-%	c #5A3E2D",
";%	c #776D61",
">%	c #827D72",
",%	c #7E786C",
"'%	c #67584C",
")%	c #614D3E",
"!%	c #604938",
"~%	c #614835",
"{%	c #7E766C",
"]%	c #706B62",
"^%	c #502D1A",
"/%	c #523221",
"(%	c #513321",
"_%	c #574335",
":%	c #5D4B3C",
"<%	c #685D4E",
"[%	c #736B5D",
"}%	c #837E73",
"|%	c #827E72",
"1%	c #807A6E",
"2%	c #73695E",
"3%	c #696157",
"4%	c #675E54",
"5%	c #74675A",
"6%	c #6B5D51",
"7%	c #67594D",
"8%	c #635449",
"9%	c #625348",
"0%	c #564031",
"a%	c #5B4A3B",
"b%	c #5D4A3C",
"c%	c #6A6152",
"d%	c #6A6151",
"e%	c #736D60",
"f%	c #542F16",
"g%	c #6D5D50",
"h%	c #868176",
"i%	c #777368",
"j%	c #665B50",
"k%	c #66594F",
"l%	c #65594F",
"m%	c #63564C",
"n%	c #62554C",
"o%	c #5A493C",
"p%	c #5A4A3C",
"q%	c #5E4F41",
"r%	c #615545",
"s%	c #594435",
"t%	c #665B4C",
"u%	c #6D6557",
"v%	c #7C776B",
"w%	c #522B0F",
"x%	c #776C61",
"y%	c #858276",
"z%	c #7F796E",
"A%	c #6A5749",
"B%	c #8A887D",
"C%	c #7F7C71",
"D%	c #757065",
"E%	c #6A6259",
"F%	c #696158",
"G%	c #665D54",
"H%	c #655C54",
"I%	c #645C53",
"J%	c #63594A",
"K%	c #635747",
"L%	c #696052",
"M%	c #726C5E",
"N%	c #502708",
"O%	c #868377",
"P%	c #837F73",
"Q%	c #807B6F",
"R%	c #7F796D",
"S%	c #6A584A",
"T%	c #8D8A80",
"U%	c #848176",
"V%	c #817E73",
"W%	c #7C786E",
"X%	c #787369",
"Y%	c #777369",
"Z%	c #767268",
"`%	c #686359",
" &	c #676259",
".&	c #676258",
"+&	c #676157",
"@&	c #645A4C",
"#&	c #584332",
"$&	c #6A6053",
"%&	c #787367",
"&&	c #7F7B6F",
"*&	c #4E2302",
"=&	c #838074",
"-&	c #786C5B",
";&	c #695648",
">&	c #706559",
",&	c #6D685F",
"'&	c #645C52",
")&	c #5B4939",
"!&	c #533726",
"~&	c #5E4D3F",
"{&	c #6E695A",
"]&	c #4D2300",
"^&	c #7A6F65",
"/&	c #868378",
"(&	c #848175",
"_&	c #868376",
":&	c #837B6C",
"<&	c #6E5E4D",
"[&	c #695544",
"}&	c #6E6153",
"|&	c #736B60",
"1&	c #726B60",
"2&	c #726A60",
"3&	c #716960",
"4&	c #6A6359",
"5&	c #645B51",
"6&	c #62564B",
"7&	c #5B4130",
"8&	c #5C4434",
"9&	c #766C5C",
"0&	c #7E786B",
"a&	c #7F7B70",
"b&	c #858177",
"c&	c #4D2200",
"d&	c #6F6158",
"e&	c #878579",
"f&	c #88857A",
"g&	c #868173",
"h&	c #857F71",
"i&	c #7B7060",
"j&	c #71614F",
"k&	c #716250",
"l&	c #705F4F",
"m&	c #6F5F4E",
"n&	c #6E5D4C",
"o&	c #6C5B4A",
"p&	c #716253",
"q&	c #847E70",
"r&	c #847F72",
"s&	c #858378",
"t&	c #837F75",
"u&	c #72695F",
"v&	c #4F270C",
"w&	c #66564E",
"x&	c #76706B",
"y&	c #8A877D",
"z&	c #8B887E",
"A&	c #868276",
"B&	c #858275",
"C&	c #858175",
"D&	c #868177",
"E&	c #868379",
"F&	c #6F665D",
"G&	c #584538",
"H&	c #593824",
"I&	c #685C57",
"J&	c #78716C",
"K&	c #8C8981",
"L&	c #8D8A81",
"M&	c #8A877C",
"N&	c #89867C",
"O&	c #88867C",
"P&	c #88867B",
"Q&	c #88857B",
"R&	c #87857A",
"S&	c #746E65",
"T&	c #5A483D",
"U&	c #4F2B16",
"V&	c #5B3C27",
"W&	c #635047",
"X&	c #685852",
"Y&	c #817B75",
"Z&	c #858078",
"`&	c #827D76",
" *	c #807B73",
".*	c #7F7A72",
"+*	c #7E7A72",
"@*	c #7D7972",
"#*	c #7C7971",
"$*	c #7C7870",
"%*	c #7B776E",
"&*	c #7A766E",
"**	c #7A776E",
"=*	c #7D7A74",
"-*	c #78756E",
";*	c #57473D",
">*	c #543C2F",
",*	c #4E2A14",
"'*	c #58361F",
")*	c #6E645E",
"!*	c #6B5E57",
"~*	c #71655D",
"{*	c #736B64",
"]*	c #6E655F",
"^*	c #6D655E",
"/*	c #6D645E",
"(*	c #6C645E",
"_*	c #6B645E",
":*	c #6B635E",
"<*	c #6A635E",
"[*	c #6A625D",
"}*	c #69625D",
"|*	c #68615D",
"1*	c #67615C",
"2*	c #67605C",
"3*	c #655E56",
"4*	c #645D54",
"5*	c #635C53",
"6*	c #625C53",
"7*	c #625C54",
"8*	c #635E5A",
"9*	c #67605B",
"0*	c #553F31",
"a*	c #5A4B40",
"b*	c #4E2A15",
"c*	c #6A5D57",
"d*	c #756C66",
"e*	c #6A5B52",
"f*	c #5F483C",
"g*	c #5C4335",
"h*	c #5C4234",
"i*	c #5B4234",
"j*	c #5A4134",
"k*	c #5A4133",
"l*	c #5A4033",
"m*	c #594033",
"n*	c #543A2E",
"o*	c #54392E",
"p*	c #553D32",
"q*	c #543D31",
"r*	c #5C5148",
"s*	c #59493D",
"t*	c #4E2B16",
"u*	c #675751",
"v*	c #756D67",
"w*	c #7D7872",
"x*	c #6F6760",
"y*	c #6E6660",
"z*	c #6D6660",
"A*	c #6C6560",
"B*	c #6B6560",
"C*	c #6B645F",
"D*	c #6A645F",
"E*	c #68635F",
"F*	c #68625F",
"G*	c #67625E",
"H*	c #66615D",
"I*	c #66605D",
"J*	c #65605D",
"K*	c #655F5D",
"L*	c #6D6965",
"M*	c #5F554D",
"N*	c #5A4B41",
"O*	c #503121",
"P*	c #675750",
"Q*	c #7C7771",
"R*	c #6E665F",
"S*	c #6C635E",
"T*	c #67615D",
"U*	c #66605C",
"V*	c #655F5B",
"W*	c #645E5B",
"X*	c #6C6863",
"Y*	c #5D5047",
"Z*	c #513120",
"`*	c #573724",
" =	c #573622",
".=	c #563622",
"+=	c #53311D",
"@=	c #502C18",
"                                                                                                                                ",
"                                                                                                                                ",
"                                                                                                                                ",
"                                                                                                                                ",
"                                                                                                                                ",
"                                                      . + @ # $ % & * =                                                         ",
"                                                    - ; > , , ' ) ! ~ { ]                                                       ",
"                                                  ^ / ( _ _ _ : ) ! ~ < < [                                                     ",
"                                                } | 1 2 ( ( 3 4 5 6 7 < 8 9 0                                                   ",
"                                                a b / 1 ' c 1 d e 7 < f g h i                                                   ",
"                                                j k l / m ; n o p q r s t u v w                                                 ",
"                                              x y z A B C D E F G H I J K L M N                                                 ",
"                                              O P Q R S T U V W V W X Y Z `  ...                                                ",
"                                              +.@.#.$.%.&.*.=.-.;.>.,.'.).!.~.{.                                                ",
"                                              ].^./.(._.:.<.[.}.|.1.=.2.3.4.5.6.                                                ",
"                                              7.8.9.0.a.b.c.d.e.f.g.h.i.j.k.l.m.                                                ",
"                                              ].n.o.p.q.r.s.t.u.u.v.w.x.y.z.A.B.                                                ",
"                                              H C.D.p.E.F.G.H.I.J.K.t.L.M.N.A.O.                                                ",
"                                              P.Q.R.S.T.U.V.W.I.X.Y.+.Z.`. +.+++                                                ",
"                                              @+#+$+%+&+*+J.I.I.J.=+-+;+>+,+'+)+                                                ",
"                                              !+~+{+]+^+/+(+_+:+<+<+[+}+|+,+1+)+                                                ",
"                                            2+3+4+5+6+]+7+8+@+x 9+].7+0+a+b+c+d+e+                                              ",
"                                            f+g+4+h+i+j+k+l+m+n+o+p+q+r+s+t+l.u+e+                                              ",
"                                            v+w+#+x+y+z+A+B+C+D+E+F+G+H+I+J+K+L+e+                                              ",
"                                            M+N+O+P+Q+A+R+S+T+U+V+W+G+X+H+Y+Z+L+e+                                              ",
"                                            `+ @.@+@@@R+R+#@$@%@&@*@W+X+=@-@;@>@e+                                              ",
"                                            ,@'@)@!@~@{@]@^@/@(@_@[ :@X+<@[@;@}@|@                                              ",
"                                          1@2@3@4@5@6@7@8@9@0@a@b@c@d@e@f@{ W h+g@h@                                            ",
"                                          i@j@k@l@m@n@o@p@q@r@s@t@u@v@w@x@y@z@A@B@C@                                            ",
"                                          D@j@E@F@G@H@b I@J@K@L@..M@N@O@P@Q@z@A@R@C@                                            ",
"                                          S@T@U@V@G@W@X@X@U@Y@Z@L@`@ #r S+.#z@+#R@h@                                            ",
"                                          @###U@$#%#&#*#=#-#;#>#,#'#)#h h !#z@~#B@{#                                            ",
"                                          ]#^#U@/#(#_#&#*#:#<#[#}#|#1#h !#2#z@~#B@3#4#                                          ",
"                                          1.5#6#h.7#8#8#9#0#a#b#}#/@c#h h 9#d#A@B@e#f#                                          ",
"                                        a@5#g#h#i#j#k#G@8#l#m#n#o#p#c#t q#d@r#~#s#t#u#                                          ",
"                                        v#7 w#x#y#z#j#A#B+B#C#D#E#F#G#}#H#I#J#K#L#M#N#                                          ",
"                                          O#P#Q#R#S#T#m@U#V#W#X#Y#Z#`# $.$+$@$#$$$%$&$                                          ",
"                                            *$=$-$;$>$,$'$)$5@!$~${$]$^$/$($_$:$<$[$                                            ",
"                                                }$A#|$1$2$;+3$4$5$r.6$7$($($_$                                                  ",
"                                              8$9$W@g 0$3$a$b$c$5$6$6$d$e$f$g$h$                                                ",
"                                          i$j$k$ #'@l$m$n$g#a$o$!$p$w.q$r$g$s$t$u$v$w$                                          ",
"                                        x$y$z$A$B$C$D$E$F$F$*.G$H$4$I$J$K$L$M$N$O$P$Q$R$                                        ",
"                                      S$T$U$V$W$A$Q#X$|#Y$Z$`$ %[+4$.%+%@%L$#%$%%%&%*%=%-%                                      ",
"                                    ;%>%n@U$T$,%'%)%!%~%{%Z$Z$ %[+c$]%^%/%(%_%:%<%P$[%U$}%                                      ",
"                                    ;%|%U$V$T$1%2%3%4%x.p#5%O+6%7%8%9%0%7$($a%b%c%d%e%U$}%f%                                    ",
"                                    ;%=%z$z$V$g%h% @i%4%j%k%l%m%n%n%o%p%q%r%g$s%t%u%v%U$Q#w%                                    ",
"                                    x%y%|%z$z%A%B%< C%D%3.3.E%F%G%H%I%J%K%s$s$N$L%M%U$D$Q#N%                                    ",
"                                    % O%P%Q%R%S%T%U%V%W%X%Y%Y%Z%`% &.&+&@&s$M$#&$&%&U$&&Q#*&                                    ",
"                                    $ O%P%=&y$-&;&P%h%>&Y%Y%{@Z%o$,&.&'&)&L$!&~&{&U$U$U$Q#]&                                    ",
"                                    ^&/&P%(&y%_&:&<&[&}&G#|&1&2&3&4&5&6&7&8&9&0&a&U$U$D$b&c&                                    ",
"                                    d&e (&y%O%e&f&g&h&i&j&k&j&l&m&n&o&p&q&r&s&s&t&D$U$w#u&v&                                    ",
"                                    w&x&y&f&z&%@f&f&f&O%A&B&C&y$(&C&A&D&E&E&E&E&E&D$~ F&G&                                      ",
"                                    H&I&J&K&L&T%y&M&N&N&N&N&O&O&P&P&P&Q&Q&6 6 B$P&R&S&T&U&                                      ",
"                                    V&W&X&Y&Z&`&`& *.*.*+*+*@*@*#*#*#*$*%*&***@*=*-*;*>*,*                                      ",
"                                    '*)*!*~*{*]*^*/*(*_*:*<*[*}*|*1*2*3*4*5*6*7*8*9*0*a*b*                                      ",
"                                      c*d*e*f*g*h*i*i*i*i*i*i*j*j*j*j*k*l*m*n*o*p*q*r*s*t*                                      ",
"                                        u*v*w*x*y*z*z*A*A*B*C*D*E*F*G*H*I*J*J*K*L*M*N*O*                                        ",
"                                          P*Q*R*/*/*(*S*:*:*<*}*|*T*U*U*V*V*V*W*X*Y*Z*                                          ",
"                                            `* = = = = = = = = =.=.=.=.=.=.=.=+=@=U&                                            ",
"                                                                                                                                ",
"                                                                                                                                ",
"                                                                                                                                ",
"                                                                                                                                ",
"                                                                                                                                "};
