/* XPM */
static char * wall1_xpm[] = {
"64 64 420 2",
"  	c #9CDB43",
". 	c #664934",
"+ 	c #664935",
"@ 	c #664834",
"# 	c #61412C",
"$ 	c #61402B",
"% 	c #5E3D27",
"& 	c #674A36",
"* 	c #684C38",
"= 	c #939087",
"- 	c #89867A",
"; 	c #5A351E",
"> 	c #59361F",
", 	c #6B503D",
"' 	c #9A988E",
") 	c #9A988F",
"! 	c #949187",
"~ 	c #939187",
"{ 	c #8A877B",
"] 	c #89877B",
"^ 	c #807D70",
"/ 	c #807B6F",
"( 	c #57321A",
"_ 	c #6E5441",
": 	c #9B988F",
"< 	c #969389",
"[ 	c #817B6F",
"} 	c #7F7B6F",
"| 	c #6F675C",
"1 	c #5A3722",
"2 	c #684A35",
"3 	c #8F8C81",
"4 	c #817C70",
"5 	c #6E665A",
"6 	c #6D6659",
"7 	c #62442F",
"8 	c #654733",
"9 	c #674B36",
"0 	c #684B37",
"a 	c #8E8A7F",
"b 	c #9E9B93",
"c 	c #9F9C94",
"d 	c #9A968D",
"e 	c #979389",
"f 	c #959187",
"g 	c #6F665B",
"h 	c #634531",
"i 	c #62432F",
"j 	c #60402B",
"k 	c #5B3823",
"l 	c #62432E",
"m 	c #928E84",
"n 	c #A19E96",
"o 	c #A29F97",
"p 	c #777065",
"q 	c #777066",
"r 	c #736C61",
"s 	c #736B61",
"t 	c #908C82",
"u 	c #918D83",
"v 	c #70675C",
"w 	c #888478",
"x 	c #88867A",
"y 	c #88857A",
"z 	c #8E8C82",
"A 	c #614430",
"B 	c #664A36",
"C 	c #8F8C80",
"D 	c #767065",
"E 	c #726C61",
"F 	c #726B61",
"G 	c #716B60",
"H 	c #837D72",
"I 	c #726A5E",
"J 	c #8F8D84",
"K 	c #674B38",
"L 	c #908D82",
"M 	c #9C9990",
"N 	c #757065",
"O 	c #716B61",
"P 	c #7E786D",
"Q 	c #89857A",
"R 	c #908E84",
"S 	c #8A887B",
"T 	c #756F64",
"U 	c #716C61",
"V 	c #766F65",
"W 	c #756E65",
"X 	c #888579",
"Y 	c #918F85",
"Z 	c #5E3B25",
"` 	c #9E9B94",
" .	c #9F9B94",
"..	c #9F9C95",
"+.	c #756F65",
"@.	c #96938A",
"#.	c #96928A",
"$.	c #95928A",
"%.	c #949289",
"&.	c #60422E",
"*.	c #542E15",
"=.	c #837E75",
"-.	c #6D675D",
";.	c #6E685D",
">.	c #6E695E",
",.	c #6F6A5E",
"'.	c #726B60",
").	c #746E65",
"!.	c #746D64",
"~.	c #6A635A",
"{.	c #817D73",
"].	c #522C14",
"^.	c #837E74",
"/.	c #6D665D",
"(.	c #6F685E",
"_.	c #706A5F",
":.	c #624A3A",
"<.	c #624B3B",
"[.	c #634C3D",
"}.	c #706B60",
"|.	c #70695E",
"1.	c #746E64",
"2.	c #6B645B",
"3.	c #69635A",
"4.	c #542D15",
"5.	c #7F7A6F",
"6.	c #6D665C",
"7.	c #6E685E",
"8.	c #6F695E",
"9.	c #624A39",
"0.	c #8B867B",
"a.	c #8B877C",
"b.	c #634E3F",
"c.	c #5E4432",
"d.	c #5E4331",
"e.	c #6C655B",
"f.	c #6B645A",
"g.	c #696259",
"h.	c #522B14",
"i.	c #7D786D",
"j.	c #6F675E",
"k.	c #888379",
"l.	c #827D73",
"m.	c #5F432F",
"n.	c #756D64",
"o.	c #7B776B",
"p.	c #552E15",
"q.	c #6D655C",
"r.	c #696158",
"s.	c #79746A",
"t.	c #63584D",
"u.	c #573016",
"v.	c #572F16",
"w.	c #562F16",
"x.	c #552E16",
"y.	c #61574B",
"z.	c #6B655B",
"A.	c #686158",
"B.	c #706A61",
"C.	c #777166",
"D.	c #6B655A",
"E.	c #6D685D",
"F.	c #62584D",
"G.	c #62584C",
"H.	c #61574C",
"I.	c #6A645A",
"J.	c #6E675D",
"K.	c #512B14",
"L.	c #716A60",
"M.	c #60594E",
"N.	c #62574C",
"O.	c #706A60",
"P.	c #6B635A",
"Q.	c #696258",
"R.	c #716C62",
"S.	c #767066",
"T.	c #6C665C",
"U.	c #6C675C",
"V.	c #696358",
"W.	c #6B6359",
"X.	c #6A6359",
"Y.	c #6A6259",
"Z.	c #686257",
"`.	c #686057",
" +	c #686157",
".+	c #6F695F",
"++	c #532C15",
"@+	c #746F64",
"#+	c #584333",
"$+	c #573F2F",
"%+	c #57402F",
"&+	c #553D2E",
"*+	c #553B2B",
"=+	c #543D2D",
"-+	c #564030",
";+	c #553F30",
">+	c #543F30",
",+	c #676056",
"'+	c #706B61",
")+	c #512B13",
"!+	c #532C14",
"~+	c #736E64",
"{+	c #574332",
"]+	c #7C766C",
"^+	c #756E64",
"/+	c #543F31",
"(+	c #676156",
"_+	c #736C62",
":+	c #554032",
"<+	c #666056",
"[+	c #564535",
"}+	c #513B2D",
"|+	c #502A13",
"1+	c #736D64",
"2+	c #5C4A3B",
"3+	c #5B493C",
"4+	c #5B493B",
"5+	c #665F55",
"6+	c #655F55",
"7+	c #57473A",
"8+	c #655F54",
"9+	c #665E55",
"0+	c #574738",
"a+	c #554639",
"b+	c #766F66",
"c+	c #6F6A60",
"d+	c #5A3A25",
"e+	c #55311A",
"f+	c #777168",
"g+	c #6D6358",
"h+	c #56463B",
"i+	c #655E54",
"j+	c #57473B",
"k+	c #58483C",
"l+	c #57483B",
"m+	c #645E54",
"n+	c #544539",
"o+	c #756F66",
"p+	c #635D53",
"q+	c #532D18",
"r+	c #502913",
"s+	c #5D3E2A",
"t+	c #5F412D",
"u+	c #5D3F2A",
"v+	c #767163",
"w+	c #55311B",
"x+	c #7B766D",
"y+	c #645D54",
"z+	c #746F65",
"A+	c #736C64",
"B+	c #645D53",
"C+	c #70695F",
"D+	c #635C53",
"E+	c #573621",
"F+	c #655747",
"G+	c #512D17",
"H+	c #522E18",
"I+	c #532F1A",
"J+	c #4F2913",
"K+	c #5B3B26",
"L+	c #8D8B81",
"M+	c #868479",
"N+	c #868478",
"O+	c #5B3D28",
"P+	c #777265",
"Q+	c #55311C",
"R+	c #686058",
"S+	c #645C54",
"T+	c #605950",
"U+	c #5F5950",
"V+	c #6E695F",
"W+	c #675B4A",
"X+	c #54331D",
"Y+	c #6C6252",
"Z+	c #6B6252",
"`+	c #8A887D",
" @	c #593A26",
".@	c #5E3F2B",
"+@	c #8E8B81",
"@@	c #878479",
"#@	c #5B3C27",
"$@	c #787466",
"%@	c #676058",
"&@	c #635B53",
"*@	c #5F594F",
"=@	c #583824",
"-@	c #6E6859",
";@	c #502B16",
">@	c #6D6354",
",@	c #7E7B6F",
"'@	c #583925",
")@	c #60442E",
"!@	c #8F8D81",
"~@	c #878579",
"{@	c #5C3C28",
"]@	c #797467",
"^@	c #56341F",
"/@	c #6F6A5F",
"(@	c #676057",
"_@	c #625B53",
":@	c #5F594E",
"<@	c #6D685E",
"[@	c #5C3E29",
"}@	c #6D6557",
"|@	c #512C16",
"1@	c #6C6355",
"2@	c #838176",
"3@	c #624531",
"4@	c #787365",
"5@	c #57341F",
"6@	c #615A52",
"7@	c #605A51",
"8@	c #5E412E",
"9@	c #6B6456",
"0@	c #502D17",
"a@	c #6C6456",
"b@	c #5D3E29",
"c@	c #777366",
"d@	c #583723",
"e@	c #5E402D",
"f@	c #5D412D",
"g@	c #5E422F",
"h@	c #5E422E",
"i@	c #5A3B26",
"j@	c #6E685A",
"k@	c #6B6455",
"l@	c #502D18",
"m@	c #6D6456",
"n@	c #634631",
"o@	c #908E82",
"p@	c #5E3F2A",
"q@	c #858378",
"r@	c #858377",
"s@	c #858277",
"t@	c #848277",
"u@	c #848276",
"v@	c #848176",
"w@	c #522E1A",
"x@	c #6E6658",
"y@	c #644833",
"z@	c #918E82",
"A@	c #60432E",
"B@	c #9D9A93",
"C@	c #98958D",
"D@	c #98948D",
"E@	c #97948C",
"F@	c #8D8B82",
"G@	c #8C8A81",
"H@	c #8C8A80",
"I@	c #908D84",
"J@	c #908E86",
"K@	c #918F87",
"L@	c #95938C",
"M@	c #96948D",
"N@	c #97948D",
"O@	c #999790",
"P@	c #53311D",
"Q@	c #6E6759",
"R@	c #654833",
"S@	c #918F84",
"T@	c #644733",
"U@	c #746D65",
"V@	c #6D655D",
"W@	c #6C655C",
"X@	c #6C665D",
"Y@	c #6C665E",
"Z@	c #6C675F",
"`@	c #6D675E",
" #	c #6D675F",
".#	c #6B665E",
"+#	c #6A645C",
"@#	c #69635B",
"##	c #69625A",
"$#	c #68625A",
"%#	c #6E6961",
"&#	c #70695C",
"*#	c #959289",
"=#	c #6B655D",
"-#	c #6C655D",
";#	c #676159",
">#	c #706A63",
",#	c #53311C",
"'#	c #736D60",
")#	c #654A35",
"!#	c #99968C",
"~#	c #6C645C",
"{#	c #6B645C",
"]#	c #6B655C",
"^#	c #686159",
"/#	c #5D412E",
"(#	c #664A35",
"_#	c #99978D",
":#	c #634732",
"<#	c #624632",
"[#	c #614531",
"}#	c #604430",
"|#	c #5F4330",
"1#	c #5F412C",
"2#	c #9E9C94",
"3#	c #97958A",
"4#	c #979489",
"5#	c #959389",
"6#	c #949288",
"7#	c #949287",
"8#	c #949188",
"9#	c #939188",
"0#	c #929087",
"a#	c #95938A",
"b#	c #675F56",
"c#	c #665E56",
"d#	c #655E56",
"e#	c #655D55",
"f#	c #645D55",
"g#	c #635C54",
"h#	c #6E6860",
"i#	c #4E2913",
"j#	c #675F57",
"k#	c #665F56",
"l#	c #655E55",
"m#	c #502A14",
"                                                                                                                                ",
"                                                                                                                                ",
"                                                                                                                                ",
"                                                                                                                                ",
"                                                                                                                                ",
"                                                                                                                                ",
"                                                                                                                                ",
"                                                                                                                                ",
"                                                                                                                                ",
"                                                                                                                                ",
"                                                          . + @ # $ %                                                           ",
"                                                      & * = = = - - - ; >                                                       ",
"                                                    , ' ) ! ~ ~ { ] ] ^ / (                                                     ",
"                                                  _ ) : : < ! ! { { { [ } | 1                                                   ",
"                                                2 3 : : : ! ! ! { { { 4 4 5 6 7                                                 ",
"                                          8 9 9 0 a : : : b c b d e f 4 4 g g h i j k                                           ",
"                                        l m - ] { a : n o p p q r s s t u v g w x y z A                                         ",
"                                        B u ] { { C n D p p q q r r E F G H I - x y J A                                         ",
"                                        K L ] { { M N p p r r r r r E O O G P Q x y R A                                         ",
"                                        K L ] { S T D D r r r r r r E U O V W X x x Y A                                         ",
"                                        Z `  . ...+.D D r r r r r E E U O V W @.#.$.%.&.                                        ",
"                                        *.=.-.;.>.,.'.'.r r E E E E F O G +.W ).!.~.{.].                                        ",
"                                        *.^./.;.(.,._._._.:.:.:.:.<.[.}.G |.W 1.2.3.{.].                                        ",
"                                        4.5.6.;.7.8.9.9.9.:.0.0.a.a b.c.d.d.6.e.f.g.{.h.                                        ",
"                                        4.i.6.;.7.j.9.k.l.m.n.n.!.!.c.o.i.p.q.f.3.r.U h.                                        ",
"                                        4.s./.-.;.7.t.u.u.v.!.!.!.!.w.w.x.y.z.~.g.A.B.h.                                        ",
"                                        4.C.D.6.-.E.;.F.G.G.w.w.w.w.G.H.H.2.I.3.r.A.J.K.                                        ",
"                                          4.L.E 6.-.-.;.;.;.M.G.N.N.e.z.2.I.3.r.7.O.K.                                          ",
"                                            4.4.+.-.-.-.-.P.P.f.f.I.I.~.I.Q.r.R.].K.                                            ",
"                                              4.S.T.U.U.V.V.W.X.Y.g.Q.Z.`. +A..+K.                                              ",
"                                              ++@+T.#+$+%+A.A.&+*+=+`.-+;+>+,+'+)+                                              ",
"                                              !+~+P.{+]+^+/+(+_+:+F <+[+L.O.}+B.|+                                              ",
"                                              h.1+~.2+3+4+5+5+6+7+8+9+0+a+a+b+c+|+                                              ",
"                                            d+e+U A.7+f+g+h+i+j+k+l+m+n+!.o+p+c+q+r+                                            ",
"                                    s+t+u+u+v+w+}.A.+.A.A.x+y+z+A+J.B+C+p+p+D+.+E+F+G+H+I+J+                                    ",
"                                  K+L+M+N+O+P+Q+O.R+R+R+R+S+S+D+D+D+p+D+D+T+U+V+E+W+X+Y+Z+`+ @                                  ",
"                                  .@+@@@M+#@$@Q+c+%@y+D+D+D+D+D+D+&@&@D+U+U+*@>.=@-@;@>@,@`+'@                                  ",
"                                  )@!@~@@@{@]@^@/@(@D+D+D+D+&@&@&@_@U+*@*@*@:@<@[@}@|@1@2@`+'@                                  ",
"                                  3@!@X ~@[@4@5@E.(@&@_@_@_@_@_@6@7@*@*@*@*@*@T.8@9@0@a@2@`+'@                                  ",
"                                  h L y X b@c@c@d@#@e@f@g@g@g@g@g@g@h@h@h@[@i@[@j@k@l@m@2@`+'@                                  ",
"                                  n@o@- x p@$@N+q@r@s@t@t@t@u@u@u@u@u@v@v@2@2@2@2@9@w@x@2@`+'@                                  ",
"                                  y@z@] - A@B@C@D@E@E@F@G@H@L+L+L+I@J@K@K@K@L@M@N@O@P@Q@2@`+'@                                  ",
"                                  R@S@{ ] T@U@/.V@W@X@V@Y@Z@`@ # # #Z@.#Y@+#@###$#%#P@&#2@`+'@                                  ",
"                                  R@*#{ { y@W X@X@W@=#W@=#Y@X@-#-#=#=#=#+#@#$#;#;#>#,#'#2@`+'@                                  ",
"                                  )#!#{ { R@z+/.V@~#{#2.{#-#]#X@=#=#+#+#####^#;#;# #/#'#2@`+'@                                  ",
"                                  (#_#{ { { T@:#<#[#}#|#m.g@g@g@g@/#/#/#/#/#/#/#/#/#2@2@2@`+'@                                  ",
"                                  T@!#{ ] ] - y X @@N+q@s@t@t@v@2@2@2@2@2@2@2@2@2@2@2@2@2@`+'@                                  ",
"                                  1#` 2#2#2#3#4#< 5#6#7#8#9#9#~ = 0#0#0#0#0#0#0#0#a#O@O@O@O@=@                                  ",
"                                  ++).W r.r.r.A.(@b#c#d#e#f#f#y+S+g#g#g#g#g#g#g#g#g#g# #h#h#i#                                  ",
"                                  ].f+`.A.A.`.(@j#k#d#l#f#f#f#f#y+g#g#g#g#g#g#g#g#g#g#g# #h#i#                                  ",
"                                  K.h.h.].h.h.K.K.m#|+J+J+J+J+J+J+J+J+J+J+i#i#i#i#i#i#i#i#i#i#                                  ",
"                                                                                                                                ",
"                                                                                                                                ",
"                                                                                                                                ",
"                                                                                                                                ",
"                                                                                                                                ",
"                                                                                                                                ",
"                                                                                                                                ",
"                                                                                                                                ",
"                                                                                                                                ",
"                                                                                                                                ",
"                                                                                                                                ",
"                                                                                                                                ",
"                                                                                                                                "};
