/* XPM */
static char * wall3_xpm[] = {
"64 64 295 2",
"  	c #9CDB43",
". 	c #654734",
"+ 	c #654733",
"@ 	c #644733",
"# 	c #62432D",
"$ 	c #908E82",
"% 	c #8F8D80",
"& 	c #8C8A7C",
"* 	c #8C897C",
"= 	c #908D83",
"- 	c #62432E",
"; 	c #8F8D82",
"> 	c #8F8D81",
", 	c #8D8A7D",
"' 	c #908C82",
") 	c #63442E",
"! 	c #99978F",
"~ 	c #9A978E",
"{ 	c #9A968E",
"] 	c #59351E",
"^ 	c #807D72",
"/ 	c #777266",
"( 	c #7A7469",
"_ 	c #797469",
": 	c #736E63",
"< 	c #7D786E",
"[ 	c #542D15",
"} 	c #59351D",
"| 	c #7F7B70",
"1 	c #736D62",
"2 	c #7F7A6F",
"3 	c #746D62",
"4 	c #7C776D",
"5 	c #644834",
"6 	c #684D3A",
"7 	c #684E3A",
"8 	c #674C38",
"9 	c #664A35",
"0 	c #654933",
"a 	c #59341C",
"b 	c #7E7A6F",
"c 	c #736C61",
"d 	c #736C62",
"e 	c #5C3A23",
"f 	c #634330",
"g 	c #63442F",
"h 	c #644633",
"i 	c #634633",
"j 	c #634632",
"k 	c #624532",
"l 	c #6D5543",
"m 	c #8D8B80",
"n 	c #8E8B80",
"o 	c #8B887D",
"p 	c #8B897D",
"q 	c #8C897E",
"r 	c #89867A",
"s 	c #888578",
"t 	c #726C61",
"u 	c #726454",
"v 	c #736857",
"w 	c #888579",
"x 	c #878579",
"y 	c #878479",
"z 	c #868478",
"A 	c #868378",
"B 	c #858378",
"C 	c #614432",
"D 	c #6C5543",
"E 	c #8C8A7F",
"F 	c #8C897D",
"G 	c #888478",
"H 	c #736454",
"I 	c #878478",
"J 	c #5E3F2A",
"K 	c #9C9992",
"L 	c #9D9992",
"M 	c #9D9993",
"N 	c #9D9A93",
"O 	c #99958D",
"P 	c #929085",
"Q 	c #928F84",
"R 	c #7D7A6F",
"S 	c #736B61",
"T 	c #716B60",
"U 	c #716A60",
"V 	c #7C776C",
"W 	c #918F84",
"X 	c #918E84",
"Y 	c #939188",
"Z 	c #96938B",
"` 	c #96948B",
" .	c #97948C",
"..	c #97948D",
"+.	c #5A3722",
"@.	c #746F65",
"#.	c #6B655B",
"$.	c #6C665C",
"%.	c #6E675D",
"&.	c #6E695E",
"*.	c #6F695E",
"=.	c #70695F",
"-.	c #706A5F",
";.	c #706A60",
">.	c #6E685D",
",.	c #6E665D",
"'.	c #6C655C",
").	c #6A625A",
"!.	c #696259",
"~.	c #686159",
"{.	c #79756C",
"].	c #502A13",
"^.	c #57321C",
"/.	c #6B635A",
"(.	c #6E675E",
"_.	c #70685F",
":.	c #6F685E",
"<.	c #6F695F",
"[.	c #6D655C",
"}.	c #6A635A",
"|.	c #6A6259",
"1.	c #543019",
"2.	c #736E64",
"3.	c #6A6359",
"4.	c #6D665D",
"5.	c #6F675E",
"6.	c #6D665C",
"7.	c #79756B",
"8.	c #512B14",
"9.	c #522B14",
"0.	c #522C14",
"a.	c #532C14",
"b.	c #532D14",
"c.	c #777368",
"d.	c #6D675C",
"e.	c #512A14",
"f.	c #79746A",
"g.	c #6C655B",
"h.	c #716C62",
"i.	c #6C645B",
"j.	c #716B61",
"k.	c #767167",
"l.	c #6B645B",
"m.	c #675F55",
"n.	c #706B61",
"o.	c #512A13",
"p.	c #746E64",
"q.	c #675E55",
"r.	c #665C52",
"s.	c #6F6A60",
"t.	c #726D63",
"u.	c #665E54",
"v.	c #655C52",
"w.	c #502913",
"x.	c #4F2913",
"y.	c #645D54",
"z.	c #655B52",
"A.	c #645B51",
"B.	c #6E695F",
"C.	c #706A61",
"D.	c #635A51",
"E.	c #6D675D",
"F.	c #4E2913",
"G.	c #553420",
"H.	c #553521",
"I.	c #573621",
"J.	c #6D685E",
"K.	c #635A50",
"L.	c #4E2812",
"M.	c #522F1A",
"N.	c #522E1A",
"O.	c #4E2813",
"P.	c #5A3B29",
"Q.	c #7C786E",
"R.	c #6C665D",
"S.	c #573824",
"T.	c #5F554B",
"U.	c #615347",
"V.	c #615146",
"W.	c #6D6659",
"X.	c #5A3C28",
"Y.	c #7D796E",
"Z.	c #4F2912",
"`.	c #6C675D",
" +	c #6E6759",
".+	c #6E675B",
"++	c #7D796F",
"@+	c #7E796E",
"#+	c #60564C",
"$+	c #60564B",
"%+	c #6E6859",
"&+	c #6F695B",
"*+	c #6F675B",
"=+	c #5C3F2B",
"-+	c #61564C",
";+	c #60564A",
">+	c #70695B",
",+	c #70695C",
"'+	c #6F685C",
")+	c #5D3F2B",
"!+	c #7F7B6F",
"~+	c #5F5042",
"{+	c #5F5044",
"]+	c #5F4F43",
"^+	c #5E4F43",
"/+	c #6A645A",
"(+	c #4E2912",
"_+	c #70695D",
":+	c #C0F675",
"<+	c #5E402B",
"[+	c #807B70",
"}+	c #614531",
"|+	c #58351F",
"1+	c #583620",
"2+	c #573722",
"3+	c #583723",
"4+	c #583925",
"5+	c #716A5C",
"6+	c #706A5D",
"7+	c #716A5D",
"8+	c #60422D",
"9+	c #807C71",
"0+	c #817C71",
"a+	c #97948B",
"b+	c #838075",
"c+	c #827F74",
"d+	c #817D72",
"e+	c #86847A",
"f+	c #868379",
"g+	c #94928A",
"h+	c #726B5E",
"i+	c #726A5F",
"j+	c #716A5E",
"k+	c #39973A",
"l+	c #60422E",
"m+	c #827D71",
"n+	c #827D72",
"o+	c #97938A",
"p+	c #89877B",
"q+	c #8A877C",
"r+	c #88857B",
"s+	c #88857A",
"t+	c #87847A",
"u+	c #848177",
"v+	c #908E85",
"w+	c #726A5E",
"x+	c #502C16",
"y+	c #61432E",
"z+	c #827E72",
"A+	c #969288",
"B+	c #8B877D",
"C+	c #89877C",
"D+	c #89867C",
"E+	c #87857A",
"F+	c #8D8B81",
"G+	c #61432F",
"H+	c #97948A",
"I+	c #8E8C81",
"J+	c #8F8C80",
"K+	c #8E8C80",
"L+	c #8A887D",
"M+	c #8A877D",
"N+	c #88867B",
"O+	c #87857B",
"P+	c #71695D",
"Q+	c #502B15",
"R+	c #9F9B93",
"S+	c #9D9991",
"T+	c #969388",
"U+	c #959287",
"V+	c #949186",
"W+	c #939186",
"X+	c #929086",
"Y+	c #928F85",
"Z+	c #918F85",
"`+	c #552E15",
" @	c #746D63",
".@	c #746E63",
"+@	c #6B645A",
"@@	c #696359",
"#@	c #6D675E",
"$@	c #6F6960",
"%@	c #6E6860",
"&@	c #756E63",
"*@	c #686259",
"=@	c #6C665E",
"-@	c #736E66",
";@	c #542D14",
">@	c #69635A",
",@	c #676159",
"'@	c #736E65",
")@	c #736C63",
"!@	c #676158",
"~@	c #666058",
"{@	c #6F6A61",
"                                                                                                                                ",
"                                                                                                                                ",
"                                                                                                                                ",
"                                                                                                                                ",
"                                                                                                                                ",
"                                                                                                                                ",
"                                                                                                                                ",
"                                                                                                                                ",
"                                                                                                                                ",
"                                                                                                                                ",
"                                                                                                                                ",
"                                                                                                                                ",
"                                                          . + + @ @ @                                                           ",
"                                                        # $ % & * * = @                                                         ",
"                                                        - ; > , & * ' @                                                         ",
"                                                        ) ! ~ ~ ~ { { +                                                         ",
"                                                        ] ^ / ( _ : < [                                                         ",
"                                                        } | ( ( 1 1 < [                                                         ",
"                                                        } 2 ( 3 1 1 4 [                                                         ",
"                                        5 6 6 7 8 9 9 0 a b c 1 d c 4 e f g h i j k k k                                         ",
"                                      l m n n o p q o r s b c c c t 4 u v w x y z z A B C                                       ",
"                                      D m E n n o p F r G b c c t t 4 H w w x I z z A B C                                       ",
"                                      J K L L M N L O P Q R S T T U V W X Y Z `  .......C                                       ",
"                                      +.@.#.$.%.&.*.*.=.U -.-.-.-.=.=.;.>.,.'.).!.!.~.{.].                                      ",
"                                      ^.@./.'.$.(.*.*.=.=.=._.:.:._.<.>.%.[.}.|.!.!.~.{.].                                      ",
"                                      1.2.3./.'.4.(.*.>._.:.:.5.5.5.%.6.,.#.|.|.!.~.~.7.].                                      ",
"                                        8.8.9.9.0.a.a.b.[ c.d.6.6.[.%.a.a.0.9.8.e.].].].                                        ",
"                                                        a.f.[.[.g.[.h.0.                                                        ",
"                                                        9._ '.g.'.i.j.8.                                                        ",
"                                                        8.k.l.l.l.m.n.o.                                                        ",
"                                                        o.p./.q.r.r.s.].                                                        ",
"                                                        ].t.u.v.v.v.s.w.                                                        ",
"                                                        x.h.y.z.A.A.B.x.                                                        ",
"                                                        x.h.A.A.A.A.B.x.                                                        ",
"                                                        x.C.A.D.D.D.E.F.                                                        ",
"                                                G.H.I.I.x.J.K.K.K.K.$.L.M.N.O.F.                                                ",
"                                              P.Q.[.4.R.S.J.T.T.K.K.$.L.U.V.U.W.F.                                              ",
"                                              X.Y.Y.:.*.Z.J.T.T.T.K.`.L.U.U. +.+F.                                              ",
"                                              X.++@+Y.Y.x.&.#+$+T.K.`.L.%+&+&+*+F.                                              ",
"                                              =+b b b b ].&.-+#+#+;+`.L.>+,+,+'+F.                                              ",
"                                              )+2 | !+| o.*.~+{+]+^+/+(+,+,+,+_+F.                                              ",
"                                            :+<+[+[+[+[+[+}+|+1+2+3+4+5+6+7+_+_+F.                                              ",
"                                              8+9+0+0+0+a+b+c+d+d+e+f+g+h+i+j+j+F.                                              ",
"                                            k+l+0+m+n+o+n p+q+r+s+t+e+u+v+h+w+j+x+                                              ",
"                                              y+m+z+A+n n n B+q+C+D+s+E+t+F+h+w+M.                                              ",
"                                              G+n+H+I+J+K+n n L+M+D+N+O+O+e+F+P+Q+                                              ",
"                                              - R+R+S+T+U+U+U+U+V+W+X+Y+Z+v+Z ..x.                                              ",
"                                              `+@+ @.@ @ @g.g.g.+@+@}.@@#@$@%@@.x.                                              ",
"                                              [ 2  @ @&@g.g.g.#.g.l.}.l.*@#@=@-@x.                                              ",
"                                              ;@(  @6.6.6.6.6.'.g.l.}.>@*@*@,@'@x.                                              ",
"                                              a.f.)@'.6.6.$.'.g.}.>@!.*@!@!@~@{@x.                                              ",
"                                              0.a.[ [ [ [ [ [ b.a.0.8.e.].].x.x.x.                                              ",
"                                                                                                                                ",
"                                                                                                                                ",
"                                                                                                                                ",
"                                                                                                                                ",
"                                                                                                                                ",
"                                                                                                                                ",
"                                                                                                                                ",
"                                                                                                                                ",
"                                                                                                                                ",
"                                                                                                                                ",
"                                                                                                                                ",
"                                                                                                                                "};
